src-tauri/resources/luts/像梦像风像雨.3dl
# LUT by SparkleStock. Enhanced with VOXCOLOR algorithms.
0 256 512 768 1023
368 368 368
521 683 1702
749 1126 2956
860 1354 3291
897 1537 3330
511 550 431
520 931 1366
758 1925 2920
804 2414 3351
759 2651 3417
731 725 571
543 1089 1290
694 1912 2611
628 3041 3402
556 3289 3507
1028 1320 1357
631 1681 1993
641 2485 2931
603 3072 3385
539 3352 3516
1537 2658 2914
763 2762 3268
592 3191 3475
546 3348 3514
544 3362 3523
1172 428 735
960 566 1661
843 987 2976
867 1155 3313
861 1187 3330
991 655 502
1054 854 1244
985 1386 2658
968 1837 3285
914 2114 3370
1621 1114 871
1368 1383 1434
1036 1839 2451
862 2762 3333
682 3118 3482
2549 1972 1567
1870 2191 2230
988 2447 2887
761 2978 3357
580 3343 3518
3315 3206 2596
2398 3222 3083
935 3213 3435
611 3332 3508
573 3360 3512
2432 588 1372
2453 620 2191
1524 778 2790
1136 1091 3329
952 1131 3354
1833 696 657
2115 897 1385
1774 941 2326
1335 1296 3256
1070 1481 3367
1723 1092 720
2039 1584 1305
2166 1731 2142
1966 2415 3247
1635 2789 3460
3084 2404 1784
3031 2643 2064
2773 2652 2751
1792 2902 3303
1172 3301 3536
3659 3473 2506
3606 3480 2665
3355 3437 3237
1477 3327 3513
1079 3385 3540
3369 927 2344
3444 1058 2930
3304 1157 3410
2450 1062 3486
1662 1075 3435
2981 831 1482
3177 1066 1957
3217 1200 2826
2651 1164 3380
1905 1186 3462
2755 1007 1286
3014 1559 1563
3087 1884 2322
2874 1862 3234
2281 2060 3524
3055 1995 1708
3232 2553 1897
3250 2815 2403
3162 2886 3220
2788 3196 3628
3664 3482 2497
3648 3528 2511
3630 3561 2745
3353 3487 3447
2757 3462 3659
3779 1345 3186
3738 1428 3604
3701 1459 3685
3667 1427 3677
3170 1041 3619
3783 1327 2975
3805 1395 3100
3777 1470 3388
3726 1467 3599
3496 1247 3669
3767 1320 2807
3857 1648 2414
3891 1946 2753
3801 1891 3380
3615 1755 3695
3748 1957 2560
3822 2509 2155
3875 2855 2372
3821 2912 3236
3665 2819 3734
3699 3218 2434
3715 3439 2406
3736 3588 2579
3742 3557 3263
3731 3443 3763
