src-tauri/resources/luts/像梦像风像雨.3dl
# LUT by SparkleStock. Enhanced with VOXCOLOR algorithms.
0 64 128 192 256 320 384 448 512 576 640 704 768 832 896 960 1023
368 368 368
398 431 677
427 494 986
466 573 1320
521 683 1702
577 793 2084
634 904 2398
692 1015 2677
749 1126 2956
785 1195 3072
821 1265 3189
849 1322 3272
860 1354 3291
872 1386 3309
881 1432 3319
889 1484 3324
897 1537 3330
400 419 386
414 473 636
428 527 886
460 617 1195
525 778 1622
590 939 2050
649 1082 2383
706 1215 2667
762 1349 2952
796 1433 3072
830 1516 3192
855 1586 3280
863 1628 3302
872 1670 3324
877 1720 3336
880 1776 3341
882 1831 3347
431 469 405
430 515 595
429 561 785
454 662 1070
528 874 1543
602 1085 2016
664 1260 2367
720 1416 2658
775 1572 2948
807 1670 3072
838 1767 3196
861 1849 3288
866 1901 3314
872 1953 3340
872 2009 3352
870 2067 3358
868 2126 3364
467 515 420
451 555 568
436 596 715
451 701 975
528 935 1459
604 1170 1943
666 1379 2313
722 1575 2626
778 1772 2939
805 1889 3070
833 2006 3201
851 2105 3299
852 2166 3329
854 2227 3359
849 2287 3373
841 2346 3379
833 2404 3386
511 550 431
482 592 569
454 635 706
456 730 940
520 931 1366
584 1132 1791
644 1381 2180
701 1653 2550
758 1925 2920
778 2073 3064
798 2221 3209
810 2343 3317
804 2414 3351
799 2485 3385
787 2544 3402
773 2598 3410
759 2651 3417
554 586 442
513 630 569
472 673 697
461 758 905
513 926 1272
565 1094 1640
621 1382 2047
680 1731 2474
738 2079 2901
751 2257 3059
764 2435 3216
768 2581 3334
756 2661 3373
744 2742 3412
726 2801 3431
705 2850 3440
684 2899 3449
609 630 477
555 674 596
501 718 715
478 802 909
519 966 1253
559 1129 1598
610 1407 1991
666 1741 2407
723 2075 2824
727 2306 3012
732 2537 3200
729 2723 3341
712 2818 3386
695 2914 3431
675 2974 3453
654 3016 3462
633 3058 3472
670 677 524
603 722 635
536 767 746
501 854 933
531 1027 1272
560 1200 1611
605 1442 1973
656 1718 2345
708 1994 2717
704 2288 2945
700 2583 3172
691 2817 3341
670 2930 3394
649 3042 3448
630 3103 3471
612 3138 3480
595 3174 3489
731 725 571
651 770 674
571 816 776
524 907 956
543 1089 1290
562 1271 1625
600 1477 1955
647 1695 2283
694 1912 2611
682 2271 2877
669 2629 3143
653 2911 3341
628 3041 3402
602 3171 3464
584 3233 3490
570 3261 3498
556 3289 3507
797 832 718
703 878 822
609 925 926
550 1018 1100
560 1205 1413
571 1391 1727
601 1600 2040
641 1821 2354
680 2041 2668
675 2327 2897
671 2613 3127
657 2858 3305
624 3021 3382
592 3185 3460
573 3258 3492
561 3285 3501
549 3313 3511
864 938 866
755 986 971
647 1034 1076
575 1130 1243
578 1321 1536
581 1511 1829
603 1724 2126
634 1947 2426
666 2170 2725
669 2383 2917
672 2597 3110
661 2805 3269
621 3002 3362
582 3199 3456
562 3282 3494
552 3310 3504
543 3337 3514
938 1087 1062
814 1134 1171
689 1182 1281
605 1278 1443
600 1469 1712
595 1660 1981
608 1871 2254
631 2092 2529
653 2313 2805
659 2474 2964
664 2635 3124
655 2809 3262
615 3009 3358
575 3209 3454
556 3295 3493
547 3324 3505
538 3353 3517
1028 1320 1357
885 1363 1477
742 1406 1596
642 1497 1755
631 1681 1993
618 1866 2232
621 2066 2466
631 2276 2698
641 2485 2931
641 2634 3066
640 2784 3201
630 2931 3315
603 3072 3385
576 3213 3456
560 3283 3488
550 3318 3502
539 3352 3516
1119 1553 1653
957 1592 1782
795 1630 1911
680 1716 2067
661 1893 2275
642 2071 2482
634 2262 2678
632 2459 2867
630 2657 3056
622 2795 3167
615 2932 3279
605 3052 3368
591 3134 3412
578 3217 3457
565 3271 3483
552 3312 3499
540 3352 3515
1246 1888 2042
1055 1912 2165
863 1937 2289
725 2006 2427
694 2164 2593
664 2321 2760
644 2489 2910
631 2661 3051
618 2833 3192
606 2947 3273
595 3061 3353
585 3154 3417
577 3203 3445
570 3253 3473
561 3291 3491
551 3323 3504
541 3354 3517
1392 2273 2478
1165 2279 2587
939 2284 2697
774 2332 2810
729 2463 2930
684 2594 3051
653 2731 3151
629 2872 3243
605 3012 3334
591 3096 3380
577 3180 3427
567 3246 3464
562 3276 3479
557 3305 3495
552 3326 3505
547 3342 3513
543 3358 3520
1537 2658 2914
1276 2645 3010
1016 2632 3105
822 2658 3194
763 2762 3268
704 2866 3341
661 2974 3393
627 3082 3434
592 3191 3475
576 3245 3488
560 3299 3501
548 3338 3511
546 3348 3514
545 3358 3517
544 3361 3519
544 3362 3521
544 3362 3523
527 374 445
517 422 696
507 470 947
515 539 1253
557 653 1667
600 766 2081
649 875 2408
702 983 2693
756 1091 2978
789 1152 3090
822 1213 3202
847 1262 3281
856 1286 3297
865 1310 3313
871 1342 3321
877 1379 3325
882 1415 3329
530 427 435
525 469 648
521 512 860
533 588 1145
577 732 1576
621 876 2008
670 1009 2348
720 1136 2644
770 1264 2939
802 1343 3063
833 1423 3188
857 1488 3278
865 1527 3301
874 1565 3324
878 1610 3334
880 1657 3338
883 1704 3342
533 479 426
534 517 599
535 554 772
551 637 1037
597 811 1486
643 985 1935
690 1142 2288
737 1289 2594
784 1437 2900
815 1534 3037
845 1632 3174
868 1714 3276
875 1768 3305
882 1821 3334
885 1877 3347
884 1934 3351
883 1992 3356
560 532 430
559 567 574
558 602 718
571 688 961
613 875 1403
655 1061 1845
699 1245 2212
744 1428 2541
790 1611 2870
817 1729 3019
844 1847 3168
864 1948 3279
869 2014 3313
873 2081 3348
871 2145 3363
866 2208 3369
861 2272 3375
634 587 460
617 624 595
600 661 729
597 741 948
622 906 1335
647 1071 1723
686 1291 2103
732 1540 2480
778 1788 2858
799 1933 3016
819 2077 3175
832 2198 3294
830 2274 3332
827 2349 3371
818 2415 3389
805 2476 3397
793 2537 3405
708 641 491
675 681 616
642 720 740
622 794 934
630 937 1267
638 1080 1600
672 1337 1995
719 1651 2420
766 1966 2845
780 2136 3014
794 2306 3183
800 2448 3309
791 2533 3351
781 2618 3393
765 2685 3414
745 2744 3425
725 2802 3435
797 701 540
747 744 661
697 787 782
661 861 965
651 998 1270
641 1136 1576
667 1384 1952
710 1687 2365
753 1991 2777
758 2211 2973
763 2432 3170
761 2612 3317
746 2711 3366
731 2809 3414
711 2877 3437
690 2931 3448
669 2984 3459
892 762 599
826 809 719
760 856 840
707 934 1017
678 1075 1309
650 1215 1600
665 1431 1943
701 1686 2311
738 1940 2680
734 2223 2914
730 2507 3148
720 2733 3322
699 2848 3378
678 2962 3434
658 3031 3459
639 3077 3470
619 3124 3481
988 824 658
906 875 778
824 926 898
753 1008 1070
706 1151 1347
658 1294 1624
663 1478 1933
693 1684 2258
723 1890 2583
710 2235 2854
696 2581 3125
678 2855 3327
652 2985 3390
625 3115 3453
605 3185 3481
587 3224 3492
570 3264 3503
1102 946 799
998 1002 930
894 1058 1060
804 1143 1233
739 1284 1491
675 1426 1749
667 1610 2038
688 1815 2343
709 2021 2647
702 2298 2880
695 2574 3112
679 2814 3293
644 2979 3373
610 3144 3452
588 3224 3486
574 3260 3497
559 3297 3508
1216 1068 941
1091 1129 1082
965 1190 1223
854 1277 1396
773 1417 1635
691 1557 1874
671 1741 2143
683 1947 2427
695 2152 2711
695 2360 2905
694 2568 3099
680 2773 3260
637 2973 3355
594 3173 3451
572 3262 3491
560 3296 3502
548 3329 3514
1338 1231 1126
1190 1294 1277
1042 1358 1428
910 1445 1602
811 1581 1821
711 1717 2040
679 1896 2284
680 2097 2541
680 2298 2798
683 2456 2957
685 2614 3117
672 2786 3256
628 2990 3353
584 3194 3451
562 3284 3492
552 3318 3505
541 3352 3517
1474 1476 1396
1302 1537 1557
1130 1598 1719
976 1681 1892
858 1807 2090
739 1932 2287
692 2099 2497
679 2287 2713
666 2475 2930
662 2619 3063
657 2764 3197
644 2909 3310
614 3054 3381
585 3199 3453
566 3273 3487
554 3313 3502
541 3352 3517
1611 1721 1666
1415 1780 1838
1218 1839 2010
1042 1917 2183
905 2032 2359
768 2148 2535
704 2302 2710
678 2477 2886
652 2651 3061
641 2783 3169
630 2915 3277
617 3031 3364
601 3117 3410
585 3204 3456
570 3262 3482
556 3307 3499
541 3353 3516
1769 2055 2022
1549 2100 2184
1328 2144 2346
1127 2205 2503
962 2302 2648
797 2399 2794
716 2531 2931
676 2681 3064
636 2831 3197
621 2940 3275
606 3048 3352
593 3138 3414
584 3191 3442
575 3243 3471
565 3284 3489
553 3319 3503
542 3355 3516
1938 2435 2420
1693 2458 2563
1449 2481 2705
1221 2521 2837
1024 2595 2948
827 2669 3059
726 2774 3156
672 2894 3245
619 3014 3334
602 3094 3380
584 3174 3426
571 3237 3462
566 3269 3477
560 3300 3493
554 3322 3503
549 3340 3510
543 3358 3517
2106 2814 2818
1838 2816 2941
1570 2817 3064
1315 2836 3172
1086 2887 3248
857 2938 3325
736 3016 3381
669 3106 3426
602 3197 3472
582 3248 3486
563 3299 3500
549 3336 3510
547 3346 3512
545 3357 3514
544 3360 3516
544 3361 3517
544 3361 3518
685 381 522
636 413 715
587 445 909
564 506 1186
593 622 1631
622 739 2077
664 847 2419
713 951 2709
763 1055 3000
793 1109 3107
823 1162 3215
845 1203 3291
851 1218 3304
857 1234 3318
861 1253 3324
864 1273 3326
867 1294 3328
660 435 484
637 466 659
614 496 834
606 559 1095
630 686 1530
653 812 1965
690 935 2314
734 1057 2620
778 1178 2926
807 1254 3055
837 1329 3184
860 1391 3277
867 1426 3300
875 1461 3323
879 1499 3332
881 1537 3335
883 1576 3338
635 489 447
638 518 603
640 548 759
648 612 1005
666 749 1429
685 885 1853
716 1023 2209
754 1162 2530
793 1301 2852
822 1398 3002
852 1496 3153
875 1579 3264
884 1634 3296
893 1689 3328
897 1745 3341
898 1801 3344
899 1857 3348
653 550 439
667 579 579
680 608 720
691 674 947
699 814 1348
706 953 1748
732 1112 2111
767 1281 2456
801 1450 2801
829 1569 2967
856 1689 3134
877 1792 3259
885 1863 3298
893 1934 3337
894 2003 3354
891 2071 3359
889 2140 3364
758 623 490
752 656 621
746 688 752
737 752 955
723 881 1305
709 1010 1654
728 1202 2027
763 1427 2411
798 1651 2795
819 1792 2968
840 1933 3142
854 2054 3271
855 2133 3314
856 2213 3356
849 2286 3376
838 2354 3384
827 2423 3392
862 697 541
837 732 662
811 768 783
783 830 964
747 948 1262
712 1066 1561
724 1292 1943
759 1572 2366
794 1852 2790
809 2015 2969
824 2177 3149
832 2315 3284
825 2404 3329
819 2493 3375
804 2568 3398
784 2637 3409
765 2706 3421
984 771 604
939 813 727
894 855 850
844 920 1021
784 1031 1287
723 1143 1553
723 1361 1914
753 1634 2322
783 1906 2730
789 2117 2935
795 2327 3140
794 2501 3294
780 2603 3345
767 2705 3396
748 2781 3422
726 2845 3435
704 2910 3447
1114 847 674
1049 897 804
985 946 934
913 1014 1102
826 1122 1345
739 1229 1588
725 1421 1913
746 1654 2278
768 1887 2643
763 2158 2883
759 2430 3124
749 2650 3303
728 2766 3361
707 2882 3420
686 2959 3447
665 3017 3460
644 3074 3473
1244 923 744
1160 980 882
1076 1037 1019
982 1109 1184
869 1213 1403
755 1316 1623
726 1480 1911
739 1673 2233
753 1867 2556
738 2200 2831
723 2533 3107
703 2798 3313
676 2929 3378
648 3060 3443
625 3137 3473
604 3188 3486
584 3238 3499
1406 1060 880
1293 1126 1037
1180 1191 1194
1058 1267 1367
918 1363 1569
778 1460 1771
733 1619 2035
735 1810 2331
738 2000 2627
729 2268 2862
720 2536 3098
701 2770 3282
664 2937 3363
627 3104 3445
603 3190 3480
586 3235 3493
569 3280 3506
1569 1198 1017
1426 1272 1193
1284 1345 1370
1134 1424 1549
967 1514 1734
801 1603 1919
740 1758 2159
732 1946 2429
723 2134 2698
720 2336 2893
717 2539 3088
699 2741 3251
653 2944 3349
607 3148 3446
582 3242 3487
568 3282 3500
553 3322 3513
1738 1375 1189
1566 1454 1382
1395 1534 1576
1216 1613 1761
1022 1694 1930
828 1774 2099
749 1921 2314
728 2102 2552
708 2283 2791
706 2437 2950
705 2592 3109
688 2764 3249
641 2971 3349
593 3179 3448
569 3274 3491
556 3312 3504
543 3350 3518
1920 1632 1434
1719 1711 1638
1518 1790 1842
1310 1865 2030
1085 1932 2186
860 1999 2343
762 2132 2528
726 2298 2729
691 2464 2929
683 2604 3060
675 2744 3192
658 2887 3304
626 3036 3378
593 3185 3451
572 3264 3486
558 3308 3502
543 3352 3517
2103 1889 1680
1873 1968 1894
1642 2047 2108
1404 2117 2299
1148 2171 2443
893 2224 2587
775 2343 2743
724 2494 2905
674 2645 3066
659 2771 3171
645 2897 3275
629 3011 3360
611 3101 3407
593 3190 3454
576 3254 3481
559 3303 3499
543 3353 3517
2292 2223 2002
2043 2287 2203
1794 2350 2403
1528 2405 2579
1229 2441 2704
931 2477 2828
787 2574 2953
721 2702 3077
655 2829 3201
636 2933 3276
617 3036 3351
602 3123 3411
591 3178 3440
581 3233 3469
569 3278 3488
556 3316 3502
543 3355 3516
2484 2596 2362
2221 2636 2538
1959 2677 2713
1668 2709 2864
1319 2727 2966
971 2744 3068
799 2816 3160
716 2916 3248
633 3016 3335
613 3092 3380
592 3167 3425
576 3228 3460
569 3262 3475
563 3295 3490
556 3319 3500
550 3338 3507
544 3357 3514
2676 2969 2723
2400 2986 2873
2124 3003 3023
1808 3014 3150
1409 3012 3229
1010 3010 3308
811 3058 3368
712 3131 3418
612 3203 3468
589 3251 3483
566 3299 3498
550 3334 3509
547 3345 3510
545 3356 3512
544 3360 3512
544 3360 3513
544 3360 3513
886 396 613
824 415 778
761 434 942
715 484 1194
702 593 1621
690 702 2048
711 809 2394
748 915 2699
786 1021 3005
810 1071 3113
834 1121 3221
850 1158 3298
853 1168 3310
855 1179 3322
857 1188 3327
857 1197 3327
858 1207 3328
830 447 546
805 469 704
780 491 861
758 540 1101
743 644 1505
728 749 1909
744 863 2260
774 981 2583
805 1099 2906
828 1172 3042
851 1245 3178
868 1305 3276
873 1337 3300
878 1368 3323
880 1400 3332
881 1430 3333
