src-tauri/resources/luts/像梦像风像雨.cube
# Converted from .3dl using Python
LUT_3D_SIZE 9
DOMAIN_MIN 0.0 0.0 0.0
DOMAIN_MAX 1.0 1.0 1.0
0.094407 0.094407 0.094407
0.109543 0.126732 0.252950
0.133658 0.175218 0.436634
0.162648 0.231914 0.615187
0.192150 0.288866 0.758338
0.210621 0.324525 0.818112
0.220626 0.347358 0.844279
0.226013 0.367368 0.851462
0.230118 0.394305 0.854284
0.110570 0.120318 0.103899
0.110056 0.143920 0.201385
0.135454 0.224218 0.395844
0.170344 0.323243 0.607234
0.198820 0.403284 0.756285
0.214982 0.453309 0.819908
0.222165 0.487686 0.850180
0.223704 0.515392 0.859928
0.222678 0.545408 0.863007
0.131093 0.141098 0.110570
0.116470 0.162904 0.181119
0.133402 0.238840 0.350436
0.165213 0.354284 0.559261
0.194459 0.493843 0.749102
0.204720 0.569779 0.823243
0.206260 0.619292 0.859672
0.201898 0.652642 0.872755
0.194715 0.680092 0.876603
0.156234 0.161621 0.122370
0.128527 0.184197 0.183427
0.133145 0.247819 0.321447
0.156491 0.360954 0.510775
0.185480 0.532324 0.724474
0.187789 0.650847 0.820934
0.182658 0.722935 0.868651
0.173166 0.762955 0.885839
0.162391 0.784505 0.890713
0.187532 0.185993 0.146485
0.146485 0.209338 0.199076
0.139302 0.279374 0.330939
0.153925 0.378912 0.501539
0.178040 0.490508 0.669831
0.171626 0.674448 0.806311
0.161108 0.780144 0.872755
0.149820 0.829400 0.895331
0.142637 0.843766 0.899692
0.221652 0.240636 0.222165
0.165983 0.265264 0.276039
0.148281 0.338892 0.394048
0.154695 0.442278 0.545408
0.170857 0.556696 0.699076
0.172396 0.666239 0.797845
0.159312 0.770139 0.862494
0.144176 0.841970 0.896357
0.139302 0.856080 0.901488
0.263725 0.338635 0.348127
0.190354 0.360698 0.409441
0.161878 0.431247 0.511288
0.159312 0.530015 0.632632
0.164443 0.637506 0.751924
0.164187 0.714212 0.821190
0.154695 0.788096 0.868394
0.143663 0.842227 0.894818
0.138276 0.859928 0.902001
0.319651 0.484351 0.523858
0.221396 0.496922 0.587224
0.178040 0.555156 0.665213
0.165213 0.638533 0.746537
0.158543 0.726783 0.818881
0.152642 0.785275 0.860185
0.148025 0.821703 0.883787
0.143920 0.844279 0.895588
0.138789 0.860441 0.902258
0.394305 0.681888 0.747563
0.260646 0.675218 0.796562
0.195741 0.708569 0.838379
0.169574 0.762955 0.870446
0.151873 0.818625 0.891483
0.143663 0.846331 0.898153
0.140072 0.858902 0.901488
0.139559 0.862237 0.902771
0.139559 0.862494 0.903797
0.175731 0.097742 0.133915
0.150590 0.114161 0.233197
0.152129 0.159569 0.418420
0.170344 0.217291 0.620575
0.195741 0.270652 0.769625
0.211134 0.298102 0.824782
0.218317 0.312468 0.847614
0.220883 0.321447 0.852745
0.222422 0.331965 0.853771
0.162904 0.125449 0.114674
0.164187 0.140585 0.194715
0.170857 0.192150 0.366598
0.183684 0.262442 0.566701
0.203438 0.333761 0.731657
0.218574 0.383787 0.808876
0.226783 0.419189 0.845562
0.230118 0.447665 0.857106
0.230631 0.476398 0.858902
0.194459 0.159826 0.125705
0.191380 0.176501 0.192919
0.185480 0.226013 0.334787
0.186762 0.308363 0.520010
0.204720 0.423551 0.717034
0.215495 0.495895 0.806054
0.219343 0.547204 0.850180
0.217804 0.586455 0.866085
0.212160 0.621601 0.870190
0.252437 0.197794 0.154951
0.229348 0.219343 0.218061
0.201129 0.264495 0.330169
0.185480 0.349153 0.491021
0.200872 0.488969 0.700359
0.203951 0.596973 0.805541
0.200103 0.667778 0.858132
0.191893 0.713443 0.877886
0.180605 0.746537 0.884300
0.319138 0.236788 0.190867
0.276039 0.266034 0.261416
0.222935 0.311185 0.359928
0.186249 0.379682 0.490251
0.193176 0.478964 0.655721
0.185480 0.649820 0.797075
0.173422 0.751411 0.866598
0.160339 0.804772 0.890970
0.149820 0.830682 0.897640
0.402514 0.307337 0.260903
0.329400 0.345049 0.351462
0.248076 0.388404 0.444844
0.189841 0.451001 0.553874
0.185480 0.547460 0.692150
0.183940 0.651360 0.792201
0.167522 0.755259 0.859159
0.149307 0.831709 0.894561
0.141868 0.852232 0.901231
0.492560 0.418676 0.367881
0.389430 0.459210 0.472550
0.278348 0.495639 0.560800
0.195485 0.546947 0.648538
0.177270 0.632119 0.751411
0.173166 0.703951 0.818881
0.160595 0.778861 0.866598
0.146742 0.837353 0.894305
0.139302 0.859928 0.902258
0.587994 0.570292 0.513597
0.460236 0.602873 0.616470
0.315290 0.626219 0.693689
0.201898 0.660339 0.757568
0.168035 0.725757 0.821190
0.158286 0.778861 0.859672
0.151616 0.815290 0.882504
0.145972 0.840944 0.894818
0.139302 0.860698 0.902001
0.686506 0.761673 0.698563
0.544895 0.770395 0.775526
0.361467 0.772704 0.828374
0.208055 0.784505 0.864033
0.157004 0.821703 0.889687
0.145203 0.846331 0.897383
0.140328 0.858132 0.900462
0.139559 0.861980 0.900975
0.139559 0.861980 0.901231
0.300667 0.109800 0.188558
0.288096 0.115444 0.287327
0.246280 0.145203 0.426116
0.210621 0.192919 0.589790
0.216265 0.253207 0.763468
0.221652 0.282453 0.825038
0.222422 0.296306 0.849923
0.221139 0.301437 0.854284
0.220883 0.304515 0.854284
0.252694 0.129810 0.136480
0.272960 0.143150 0.223448
0.256542 0.169574 0.355054
0.232683 0.212930 0.521036
0.230375 0.277065 0.711647
0.232427 0.323756 0.801693
0.231914 0.355054 0.843509
0.230375 0.378143 0.855567
0.229861 0.399436 0.856337
0.254233 0.168035 0.128784
0.276296 0.190867 0.203951
0.270395 0.219087 0.319138
0.255772 0.268599 0.477168
0.252694 0.355567 0.681888
0.252437 0.422524 0.788866
0.248332 0.471267 0.842740
0.242175 0.508979 0.861724
0.234479 0.542329 0.864546
0.308107 0.221396 0.159569
0.312211 0.253463 0.225757
0.298358 0.283992 0.322217
0.279374 0.337096 0.462032
0.269112 0.437404 0.659056
0.262955 0.534890 0.782709
0.251668 0.603130 0.846845
0.237301 0.651873 0.871729
0.221139 0.690354 0.877373
0.415854 0.285788 0.223448
0.394305 0.325552 0.285788
0.350949 0.354797 0.367881
0.302463 0.396101 0.479477
0.265777 0.471780 0.628784
0.244484 0.616213 0.778348
0.221139 0.708569 0.855054
0.197281 0.764751 0.884556
0.174962 0.799897 0.893279
0.537712 0.380965 0.304002
0.488199 0.420472 0.379169
0.414828 0.446639 0.461775
0.333504 0.479990 0.557978
0.260646 0.541560 0.673679
0.240893 0.633402 0.778604
0.208055 0.732940 0.851206
0.175475 0.811955 0.891483
0.156747 0.840688 0.899949
0.653925 0.505900 0.402001
0.581067 0.542073 0.487943
0.479733 0.562083 0.572088
0.365316 0.584659 0.655721
0.253463 0.627758 0.740636
0.224731 0.691124 0.809902
0.195228 0.763982 0.861211
0.168548 0.826321 0.892766
0.148794 0.857619 0.902514
0.759877 0.655208 0.521293
0.672140 0.681888 0.606721
0.546178 0.691893 0.685736
0.398666 0.700872 0.756029
0.245767 0.724218 0.814777
0.202925 0.768086 0.854541
0.179066 0.803746 0.879425
0.163930 0.834017 0.893792
0.146998 0.861211 0.902258
0.850436 0.822473 0.665983
0.761160 0.831709 0.729605
0.615187 0.826578 0.790918
0.434069 0.819908 0.843509
0.239867 0.824269 0.881221
0.183684 0.843253 0.894561
0.156747 0.854797 0.899949
0.148281 0.860954 0.900975
0.146998 0.861980 0.900975
0.455105 0.128271 0.260646
0.470754 0.128527 0.374295
0.407901 0.141611 0.470241
0.323499 0.173679 0.582350
0.274500 0.231144 0.744228
0.258081 0.269882 0.820677
0.243202 0.288610 0.851975
0.232170 0.294767 0.857106
0.227553 0.295793 0.856593
0.376090 0.137250 0.173679
0.415598 0.151360 0.271165
0.392766 0.161878 0.373268
0.341970 0.183684 0.503848
0.297332 0.232170 0.686762
0.273987 0.277578 0.793740
0.253976 0.305541 0.842996
0.239610 0.322473 0.856593
0.232170 0.334787 0.856080
0.337352 0.172140 0.137250
0.381991 0.202925 0.220883
0.388917 0.219856 0.320164
0.369933 0.243202 0.454336
0.336839 0.293740 0.642124
0.312981 0.354028 0.771934
0.290405 0.397640 0.837866
0.271165 0.430221 0.860698
0.257055 0.457158 0.861467
0.359159 0.230375 0.153925
0.394305 0.276039 0.223448
0.410210 0.301437 0.314264
0.404053 0.329143 0.439200
0.373781 0.381478 0.610570
0.349667 0.465367 0.757568
0.323756 0.528476 0.837353
0.297845 0.576193 0.869164
0.273474 0.614674 0.872755
0.462032 0.308620 0.227040
0.475629 0.364033 0.279631
0.469215 0.392509 0.358389
0.440995 0.417650 0.462801
0.389174 0.462032 0.592355
0.357619 0.578502 0.753720
0.324782 0.661621 0.842483
0.289892 0.719087 0.880452
0.252950 0.759107 0.889174
0.618266 0.434838 0.333761
0.607748 0.478964 0.378912
0.575167 0.502822 0.454336
0.511031 0.520267 0.548230
0.405593 0.544638 0.649307
0.358645 0.619292 0.759877
0.303746 0.709595 0.841201
0.252181 0.786814 0.889174
0.214212 0.822986 0.899179
0.751924 0.579015 0.436378
0.727040 0.608004 0.482555
0.675988 0.624936 0.557465
0.580554 0.633915 0.643407
0.421755 0.639302 0.724218
0.344792 0.685480 0.797075
0.285788 0.750128 0.854284
0.237558 0.812981 0.891483
0.193689 0.853258 0.903797
0.855824 0.727296 0.539764
0.825808 0.741406 0.585428
0.766547 0.749615 0.655977
0.647768 0.749615 0.733710
0.438173 0.739610 0.800667
0.324012 0.764495 0.846075
0.262186 0.794253 0.875834
0.224987 0.827347 0.893792
0.185736 0.863007 0.904566
0.922268 0.865316 0.648025
0.895588 0.869164 0.682145
0.841457 0.867624 0.738327
0.711134 0.858645 0.803232
0.455875 0.839918 0.862237
0.304259 0.844279 0.888661
0.224474 0.852232 0.899949
0.192919 0.860185 0.902771
0.184967 0.864033 0.903027
0.623910 0.150847 0.351975
0.647512 0.151103 0.452796
0.629297 0.159056 0.562083
0.550282 0.174962 0.657517
0.390970 0.199590 0.715752
0.335813 0.253207 0.813494
0.291432 0.279887 0.854028
0.260133 0.289123 0.861724
0.244228 0.290149 0.860441
0.530272 0.151360 0.229861
0.571575 0.164956 0.321703
0.580554 0.174192 0.433556
0.536942 0.183427 0.547717
0.420985 0.197537 0.647255
0.360698 0.250128 0.780144
0.309903 0.280913 0.842996
0.271934 0.296306 0.860954
0.250128 0.302976 0.859159
0.470241 0.178553 0.168548
0.518728 0.209338 0.249102
0.542586 0.230118 0.355310
0.526424 0.240636 0.475115
0.455105 0.241406 0.596716
0.394818 0.294253 0.753976
0.342483 0.332478 0.835300
0.301180 0.359928 0.864033
0.274500 0.379938 0.863776
0.441508 0.223961 0.157004
0.492047 0.276296 0.227809
0.521550 0.312211 0.323756
0.525141 0.329656 0.437917
0.498204 0.325552 0.564392
0.448948 0.389430 0.736018
0.402771 0.442535 0.831709
0.361724 0.485377 0.871216
0.327604 0.518214 0.873525
0.442022 0.280144 0.184710
0.493843 0.357106 0.250898
0.523089 0.406362 0.334787
0.540021 0.433556 0.434838
0.555670 0.444074 0.549513
0.533350 0.540534 0.726013
0.504361 0.619548 0.832991
0.466906 0.678810 0.882504
0.419446 0.715495 0.887635
0.635454 0.442278 0.331195
0.652642 0.507440 0.369933
0.655721 0.546178 0.430990
0.647255 0.563109 0.515392
0.630323 0.562853 0.623140
0.551821 0.616727 0.739097
0.477681 0.691380 0.831709
0.408928 0.760903 0.889174
0.345305 0.799641 0.900462
0.791175 0.616727 0.457671
0.789636 0.655721 0.482812
0.777578 0.678040 0.529502
0.752181 0.685480 0.602360
0.711390 0.680349 0.705747
0.560031 0.697794 0.782453
0.459723 0.744484 0.847358
0.382504 0.800924 0.891739
0.300667 0.846845 0.907132
0.896614 0.775782 0.562083
0.889174 0.788866 0.581067
0.872499 0.795793 0.618009
0.841457 0.796049 0.681375
0.790662 0.789379 0.780657
0.559774 0.779118 0.835813
0.432530 0.793740 0.872755
0.356850 0.825295 0.895844
0.280144 0.866342 0.909441
0.938686 0.890970 0.642894
0.935351 0.892509 0.655721
0.925090 0.892766 0.683684
0.902258 0.889944 0.738071
0.860698 0.881734 0.830426
0.552335 0.857106 0.878912
0.378912 0.853515 0.901231
0.300667 0.860441 0.907645
0.276809 0.868394 0.908158
0.761673 0.188302 0.472807
0.781426 0.195998 0.556696
0.780913 0.210108 0.650590
0.748589 0.225757 0.739354
0.672909 0.238584 0.808107
0.532324 0.245254 0.842996
0.427912 0.262699 0.863776
0.354797 0.279631 0.871216
0.308363 0.283479 0.867368
0.682658 0.176244 0.332991
0.715752 0.192663 0.407645
0.729605 0.206773 0.506670
0.717804 0.220113 0.617753
0.672909 0.234736 0.727809
0.554387 0.240893 0.802976
0.456131 0.261160 0.850949
0.379425 0.281426 0.872242
0.325552 0.287583 0.868137
0.624423 0.188558 0.250898
0.665213 0.221139 0.315546
0.687532 0.246024 0.409954
0.689841 0.262186 0.527193
0.671626 0.269625 0.659569
0.578245 0.274500 0.766804
0.488712 0.296819 0.838635
0.410723 0.321960 0.874295
0.351719 0.335557 0.872242
0.586711 0.220626 0.219087
0.632632 0.275013 0.275269
0.658286 0.316060 0.359159
0.669574 0.340944 0.469728
0.671370 0.347101 0.605952
0.608004 0.351975 0.735249
0.533350 0.380452 0.828117
0.459466 0.415854 0.878399
0.398153 0.441765 0.880452
0.568240 0.268086 0.230888
0.619292 0.347871 0.281683
0.646742 0.405336 0.352488
0.661108 0.444587 0.447152
0.673422 0.469728 0.569010
0.647255 0.478707 0.708825
0.597229 0.522576 0.819138
0.536172 0.577476 0.885582
0.476142 0.619805 0.893279
0.630580 0.375834 0.307081
0.672396 0.463828 0.350949
0.692919 0.525654 0.409954
0.700103 0.564905 0.489482
0.702411 0.584659 0.595177
0.683427 0.597229 0.709595
0.648794 0.656747 0.818112
0.602617 0.726270 0.894048
0.549256 0.769625 0.910210
0.765521 0.565931 0.430990
0.786044 0.629297 0.460236
0.791175 0.672909 0.500513
0.785788 0.699076 0.561057
0.773987 0.709082 0.650590
0.732427 0.710621 0.751667
0.679066 0.747306 0.837353
0.614418 0.798871 0.897127
0.540021 0.845049 0.918933
0.894048 0.764751 0.557722
0.895588 0.792201 0.571832
0.888917 0.810672 0.594407
0.875064 0.820421 0.636737
0.854797 0.821960 0.711134
0.783992 0.810416 0.807850
0.688815 0.814007 0.868394
0.589020 0.834274 0.903027
0.503079 0.872755 0.922011
0.938173 0.898153 0.642894
0.936634 0.899949 0.648281
0.932786 0.901744 0.660339
0.925346 0.902514 0.691124
0.912006 0.900975 0.753207
0.827860 0.888661 0.850693
0.680092 0.876603 0.901488
0.543356 0.871216 0.920215
0.492560 0.879169 0.921755
0.864289 0.237814 0.601334
0.879425 0.253720 0.676244
0.883530 0.271421 0.751667
0.874038 0.287327 0.820164
0.847614 0.296819 0.874808
0.746537 0.286557 0.889944
0.628527 0.272447 0.894305
0.514879 0.265264 0.890457
0.426372 0.275782 0.881221
0.809902 0.216008 0.467932
0.835044 0.235505 0.527963
0.847358 0.253463 0.610313
0.847871 0.270139 0.704720
0.837353 0.286814 0.799897
0.757568 0.281939 0.851975
0.654951 0.272704 0.882247
0.548743 0.267830 0.892252
0.458184 0.275782 0.884043
0.764751 0.213186 0.380195
0.797332 0.246024 0.425603
0.815033 0.273474 0.502052
0.822730 0.294510 0.603899
0.825295 0.307850 0.724987
0.766804 0.304515 0.810672
0.680092 0.298615 0.867111
0.581837 0.296562 0.893279
0.488712 0.304259 0.888148
0.729861 0.227809 0.335044
0.768086 0.281170 0.367881
0.789379 0.324782 0.430990
0.800924 0.355567 0.525911
0.810416 0.370190 0.655208
0.774756 0.364289 0.768086
0.706773 0.362750 0.849410
0.619805 0.367881 0.893535
0.527963 0.381478 0.894561
0.706773 0.258338 0.329913
0.749615 0.336839 0.354028
0.773217 0.399949 0.400975
0.784761 0.448435 0.478964
0.791945 0.483325 0.595690
0.781683 0.470498 0.726013
0.737301 0.477681 0.829656
0.668548 0.499230 0.893535
0.585172 0.528476 0.904053
0.712673 0.345305 0.361467
0.755772 0.439969 0.386609
0.779118 0.513597 0.426372
0.790405 0.566701 0.490764
0.796562 0.599538 0.589790
0.798615 0.604926 0.709851
0.779631 0.627245 0.818625
0.739097 0.662391 0.895074
0.677014 0.707286 0.918676
0.783735 0.511801 0.438173
0.814520 0.592868 0.458440
0.829143 0.654951 0.486660
0.833504 0.697794 0.535146
0.833761 0.722165 0.616470
0.832478 0.726013 0.729092
0.811185 0.740380 0.826065
0.771678 0.769882 0.896870
0.715239 0.819908 0.930734
0.874551 0.710108 0.538225
0.887891 0.758338 0.549769
0.891739 0.795023 0.564649
0.889430 0.819651 0.596716
0.885069 0.832735 0.660082
0.877373 0.828630 0.766290
0.836583 0.826321 0.849153
0.778348 0.838379 0.906875
0.719087 0.876860 0.938173
0.939969 0.893279 0.640585
0.937917 0.899179 0.641868
0.935865 0.905080 0.644176
0.933556 0.910210 0.660595
0.931247 0.913545 0.704207
0.928168 0.907645 0.804259
0.860185 0.894561 0.884300
0.771678 0.884813 0.932786
0.707286 0.888148 0.938686
0.933043 0.292458 0.721652
0.940995 0.311185 0.792201
0.941508 0.328630 0.848640
0.938173 0.342227 0.890713
0.933299 0.350180 0.919189
0.908671 0.340944 0.931503
0.822986 0.307337 0.926886
0.708312 0.274756 0.914315
0.595690 0.269625 0.901744
0.907388 0.271421 0.623140
0.922524 0.288353 0.672653
0.927912 0.305541 0.735762
0.927912 0.322473 0.803232
0.927399 0.337096 0.865316
0.910723 0.337352 0.903540
0.840688 0.309903 0.918163
0.742432 0.280913 0.916624
0.640585 0.275269 0.906875
0.882504 0.261160 0.552335
0.904053 0.286557 0.577732
0.914828 0.311442 0.630836
0.919189 0.332478 0.705233
0.922268 0.346845 0.794510
0.911750 0.350436 0.862494
0.856080 0.328374 0.901488
0.771421 0.302976 0.916111
0.674192 0.295536 0.911237
0.860698 0.261673 0.508209
0.886865 0.304772 0.510518
0.902258 0.344023 0.544382
0.910467 0.375064 0.611852
0.914828 0.393279 0.715752
0.910723 0.394818 0.812981
0.868907 0.377116 0.878399
0.797332 0.356850 0.912519
0.704207 0.351462 0.915854
0.843766 0.273730 0.490508
0.873268 0.341457 0.475115
0.891226 0.401744 0.487173
0.900205 0.452283 0.538225
0.903027 0.490764 0.638789
0.905849 0.484864 0.759877
0.878656 0.470241 0.850436
0.822217 0.459210 0.905849
0.738584 0.464597 0.921498
0.838122 0.349153 0.489995
0.868394 0.436891 0.474859
0.886865 0.510518 0.480246
0.896357 0.568497 0.518984
0.899949 0.608261 0.604926
0.900462 0.620318 0.727809
0.884813 0.611596 0.829143
0.848127 0.609030 0.900205
0.786044 0.639046 0.931247
0.848384 0.481272 0.504874
0.875834 0.568753 0.496408
0.891996 0.639815 0.500000
0.899949 0.692919 0.530272
0.903027 0.727296 0.602873
0.903797 0.740123 0.718317
0.897640 0.736018 0.820934
0.879425 0.740123 0.899949
0.842996 0.777322 0.943561
0.881221 0.658799 0.548486
0.898923 0.723191 0.546947
0.908928 0.774243 0.549513
0.913545 0.811698 0.571319
0.915341 0.835300 0.628014
0.917137 0.840431 0.730118
0.917650 0.836839 0.829656
0.908928 0.839918 0.909697
0.882247 0.865829 0.953053
0.943561 0.871216 0.634684
0.941508 0.885582 0.633915
0.940226 0.899692 0.631349
0.939713 0.911493 0.640585
0.939713 0.919702 0.676244
0.942535 0.917137 0.761929
0.945100 0.906619 0.859415
0.929451 0.895588 0.935095
0.876860 0.890970 0.954592
0.969472 0.345049 0.817342
0.965367 0.356850 0.885839
0.958953 0.366342 0.924577
0.952796 0.372755 0.941765
0.949461 0.374295 0.945357
0.949205 0.373525 0.945100
0.940739 0.366085 0.943304
0.902771 0.335813 0.938173
0.813238 0.267060 0.928425
0.970498 0.343253 0.786814
0.971267 0.345818 0.832222
0.965880 0.355310 0.874295
0.959210 0.365316 0.907388
0.955875 0.369677 0.925603
0.954079 0.370703 0.934325
0.947152 0.367111 0.939713
0.922011 0.345818 0.940739
0.865829 0.293227 0.936634
0.970498 0.340431 0.763212
0.975115 0.345305 0.769882
0.976142 0.357876 0.795280
0.973833 0.370959 0.831195
0.968958 0.377116 0.869164
0.964341 0.378143 0.899179
0.955875 0.376347 0.923294
0.935865 0.360698 0.938173
0.896870 0.319908 0.941252
0.969215 0.338379 0.742432
0.977681 0.356337 0.707286
0.985377 0.378912 0.704464
0.988969 0.400205 0.732940
0.984351 0.414315 0.791175
0.977168 0.412519 0.849153
0.965623 0.410210 0.897640
0.946126 0.397896 0.931247
0.914572 0.365829 0.944074
0.966393 0.338635 0.720113
0.978450 0.379169 0.653155
0.989482 0.422781 0.619292
0.997178 0.464084 0.632119
0.998204 0.499230 0.706260
0.988712 0.491278 0.792458
0.975115 0.485121 0.867111
0.955362 0.473833 0.922011
0.927399 0.450231 0.947922
0.963571 0.386095 0.687789
0.976142 0.455105 0.612622
0.987943 0.517188 0.570036
0.996921 0.570036 0.574141
1.000000 0.611083 0.639302
0.992304 0.623653 0.750385
0.978964 0.618779 0.845818
0.959466 0.605182 0.916624
0.934325 0.591585 0.953309
0.961519 0.502052 0.656747
0.970498 0.579015 0.592868
0.980503 0.643663 0.552848
0.988969 0.694972 0.552591
0.994100 0.732427 0.608517
0.990251 0.748846 0.722422
0.980246 0.747050 0.830169
0.963571 0.735762 0.914315
0.940226 0.723191 0.957927
0.957671 0.658030 0.633402
0.962032 0.721909 0.595434
0.968445 0.774243 0.568240
0.975115 0.814777 0.569266
0.980246 0.842740 0.615444
0.979990 0.852488 0.718061
0.975115 0.851206 0.825552
0.964597 0.841457 0.914572
0.946896 0.826834 0.961775
0.948948 0.825552 0.624423
0.950231 0.855310 0.621857
0.953053 0.882247 0.617240
0.956388 0.904566 0.625449
0.958440 0.920472 0.661621
0.959210 0.921242 0.746024
0.959979 0.912519 0.837096
0.959723 0.898409 0.916624
0.957157 0.883273 0.965367
