src-tauri/resources/luts/像梦像风像雨.3dl
# LUT by SparkleStock. Enhanced with VOXCOLOR algorithms.
0 128 256 384 512 640 768 896 1023
368 368 368
427 494 986
521 683 1702
634 904 2398
749 1126 2956
821 1265 3189
860 1354 3291
881 1432 3319
897 1537 3330
431 469 405
429 561 785
528 874 1543
664 1260 2367
775 1572 2948
838 1767 3196
866 1901 3314
872 2009 3352
868 2126 3364
511 550 431
454 635 706
520 931 1366
644 1381 2180
758 1925 2920
798 2221 3209
804 2414 3351
787 2544 3402
759 2651 3417
609 630 477
501 718 715
519 966 1253
610 1407 1991
723 2075 2824
732 2537 3200
712 2818 3386
675 2974 3453
633 3058 3472
731 725 571
571 816 776
543 1089 1290
600 1477 1955
694 1912 2611
669 2629 3143
628 3041 3402
584 3233 3490
556 3289 3507
864 938 866
647 1034 1076
578 1321 1536
603 1724 2126
666 2170 2725
672 2597 3110
621 3002 3362
562 3282 3494
543 3337 3514
1028 1320 1357
742 1406 1596
631 1681 1993
621 2066 2466
641 2485 2931
640 2784 3201
603 3072 3385
560 3283 3488
539 3352 3516
1246 1888 2042
863 1937 2289
694 2164 2593
644 2489 2910
618 2833 3192
595 3061 3353
577 3203 3445
561 3291 3491
541 3354 3517
1537 2658 2914
1016 2632 3105
763 2762 3268
661 2974 3393
592 3191 3475
560 3299 3501
546 3348 3514
544 3361 3519
544 3362 3523
685 381 522
587 445 909
593 622 1631
664 847 2419
763 1055 3000
823 1162 3215
851 1218 3304
861 1253 3324
867 1294 3328
635 489 447
640 548 759
666 749 1429
716 1023 2209
793 1301 2852
852 1496 3153
884 1634 3296
897 1745 3341
899 1857 3348
758 623 490
746 688 752
723 881 1305
728 1202 2027
798 1651 2795
840 1933 3142
855 2133 3314
849 2286 3376
827 2423 3392
984 771 604
894 855 850
784 1031 1287
723 1361 1914
783 1906 2730
795 2327 3140
780 2603 3345
748 2781 3422
704 2910 3447
1244 923 744
1076 1037 1019
869 1213 1403
726 1480 1911
753 1867 2556
723 2533 3107
676 2929 3378
625 3137 3473
584 3238 3499
1569 1198 1017
1284 1345 1370
967 1514 1734
740 1758 2159
723 2134 2698
717 2539 3088
653 2944 3349
582 3242 3487
553 3322 3513
1920 1632 1434
1518 1790 1842
1085 1932 2186
762 2132 2528
691 2464 2929
675 2744 3192
626 3036 3378
572 3264 3486
543 3352 3517
2292 2223 2002
1794 2350 2403
1229 2441 2704
787 2574 2953
655 2829 3201
617 3036 3351
591 3178 3440
569 3278 3488
543 3355 3516
2676 2969 2723
2124 3003 3023
1409 3012 3229
811 3058 3368
612 3203 3468
566 3299 3498
547 3345 3510
544 3360 3512
544 3360 3513
1172 428 735
1123 450 1120
960 566 1661
821 752 2299
843 987 2976
864 1101 3216
867 1155 3313
862 1175 3330
861 1187 3330
985 506 532
1064 558 871
1000 661 1384
907 830 2031
898 1080 2774
906 1262 3125
904 1384 3288
898 1474 3335
896 1557 3338
991 655 502
1077 744 795
1054 854 1244
997 1047 1860
985 1386 2658
984 1647 3075
968 1837 3285
944 1984 3359
914 2114 3370
1201 863 622
1217 988 880
1163 1107 1256
1089 1314 1801
1049 1705 2569
1025 2085 3051
981 2351 3301
925 2541 3398
862 2691 3420
1621 1114 871
1537 1269 1114
1368 1383 1434
1179 1544 1869
1036 1839 2451
953 2402 3034
862 2762 3333
769 2981 3448
682 3118 3482
2096 1485 1185
1903 1639 1478
1617 1741 1800
1300 1871 2175
1016 2111 2626
939 2469 3035
811 2857 3318
684 3165 3475
611 3277 3508
2549 1972 1567
2265 2113 1902
1870 2191 2230
1424 2279 2556
988 2447 2887
876 2694 3157
761 2978 3357
657 3221 3480
580 3343 3518
2962 2554 2032
2620 2658 2365
2129 2697 2673
1554 2732 2947
958 2823 3176
791 2994 3331
698 3133 3428
639 3251 3484
573 3357 3517
3315 3206 2596
2967 3242 2844
2398 3222 3083
1692 3196 3288
935 3213 3435
716 3287 3487
611 3332 3508
578 3356 3512
573 3360 3512
1774 500 1016
1835 501 1459
1590 552 1833
1261 677 2270
1070 901 2901
1006 1052 3199
948 1125 3321
905 1149 3341
887 1153 3339
1466 535 677
1620 590 1057
1531 631 1455
1333 716 1964
1159 905 2677
1068 1082 3094
990 1191 3286
934 1257 3339
905 1305 3337
1315 671 535
1489 791 861
1516 857 1248
1442 948 1771
1313 1145 2503
1220 1380 3009
1132 1550 3266
1057 1677 3355
1002 1782 3358
1400 898 600
1537 1076 871
1599 1175 1225
1575 1283 1712
1457 1487 2380
1363 1814 2953
1262 2060 3264
1161 2246 3388
1066 2396 3402
1801 1203 885
1854 1419 1090
1829 1530 1397
1719 1628 1804
1517 1801 2309
1394 2255 2938
1266 2579 3284
1130 2803 3432
986 2959 3466
2410 1695 1301
2369 1867 1477
2242 1960 1771
1992 2028 2137
1581 2123 2531
1398 2414 2962
1184 2766 3279
983 3067 3466
835 3208 3505
2931 2257 1701
2834 2370 1881
2635 2436 2173
2263 2471 2508
1644 2492 2823
1344 2672 3107
1114 2924 3330
926 3169 3475
755 3326 3523
3336 2835 2104
3219 2890 2282
2988 2922 2557
2525 2922 2860
1708 2883 3121
1263 2980 3298
1022 3096 3414
877 3225 3484
724 3364 3526
3595 3373 2526
3491 3388 2659
3280 3382 2878
2772 3347 3131
1777 3274 3361
1186 3291 3464
875 3322 3508
752 3353 3519
721 3368 3520
2432 588 1372
2524 589 1765
2453 620 2191
2145 682 2563
1524 778 2790
1309 987 3171
1136 1091 3329
1014 1127 3359
952 1131 3354
2067 590 896
2228 643 1254
2263 679 1690
2093 715 2135
1641 770 2523
1406 975 3041
1208 1095 3286
1060 1155 3356
975 1181 3349
1833 696 657
2022 816 971
2115 897 1385
2052 938 1852
1774 941 2326
1539 1147 2939
1335 1296 3256
1174 1403 3368
1070 1481 3367
1721 873 612
1918 1077 888
2033 1217 1262
2047 1285 1707
1942 1269 2200
1750 1518 2869
1570 1725 3242
1410 1892 3396
1277 2020 3405
1723 1092 720
1925 1392 978
2039 1584 1305
2105 1690 1695
2166 1731 2142
2079 2107 2830
1966 2415 3247
1820 2646 3440
1635 2789 3460
2477 1724 1291
2544 1978 1442
2556 2129 1680
2523 2195 2009
2457 2194 2429
2151 2404 2881
1862 2695 3242
1594 2966 3466
1346 3117 3510
3084 2404 1784
3078 2556 1882
3031 2643 2064
2932 2672 2348
2773 2652 2751
2183 2720 3050
1792 2902 3303
1491 3122 3476
1172 3301 3536
3495 3024 2191
3466 3075 2265
3401 3102 2409
3280 3103 2656
3082 3077 3043
2182 3037 3258
1686 3094 3402
1391 3217 3492
1092 3377 3545
3659 3473 2506
3646 3479 2556
3606 3480 2665
3517 3469 2877
3355 3437 3237
2153 3341 3426
1477 3327 3513
1172 3354 3538
1079 3385 3540
2969 734 1843
3046 764 2170
3044 819 2536
2918 880 2882
2623 930 3150
2075 956 3286
1668 1024 3367
1383 1090 3396
1202 1105 3381
2661 687 1298
2790 751 1589
2844 806 1975
2798 858 2408
2623 915 2837
2161 939 3130
1778 1018 3317
1479 1097 3400
1269 1121 3384
2434 735 978
2593 862 1230
2680 959 1598
2689 1022 2055
2618 1051 2571
2254 1070 2989
1905 1157 3269
1601 1255 3408
1371 1308 3400
2287 860 854
2466 1072 1073
2566 1232 1400
2610 1329 1831
2617 1353 2362
2370 1372 2866
2079 1483 3228
1791 1621 3424
1552 1722 3432
2215 1045 900
2414 1356 1098
2521 1580 1374
2577 1733 1743
2625 1831 2218
2523 1866 2763
2328 2037 3193
2090 2251 3452
1856 2416 3482
2458 1465 1197
2621 1808 1368
2701 2049 1598
2729 2202 1908
2738 2279 2320
2664 2328 2766
2529 2560 3189
2349 2831 3485
2141 3000 3548
2984 2206 1680
3064 2453 1794
3084 2623 1951
3063 2725 2187
3017 2764 2536
2855 2770 2930
2647 2913 3264
2395 3114 3497
2105 3294 3582
3485 2981 2174
3491 3088 2229
3465 3160 2317
3411 3198 2482
3332 3204 2772
3056 3159 3149
2685 3173 3385
2296 3252 3520
1961 3402 3594
3657 3501 2506
3651 3508 2527
3636 3515 2574
3607 3518 2694
3555 3512 2936
3227 3464 3316
2651 3417 3514
2118 3396 3587
1920 3427 3593
3369 927 2344
3428 989 2636
3444 1058 2930
3407 1120 3197
3304 1157 3410
2910 1117 3469
2450 1062 3486
2007 1034 3471
1662 1075 3435
3157 842 1824
3255 918 2058
3303 988 2379
3305 1053 2747
3264 1118 3118
2953 1099 3321
2553 1063 3439
2139 1044 3478
1786 1075 3446
2981 831 1482
3108 959 1659
3177 1066 1957
3207 1148 2354
3217 1200 2826
2989 1187 3160
2651 1164 3380
2268 1156 3482
1905 1186 3462
2845 888 1306
2994 1096 1434
3077 1266 1680
3122 1386 2050
3159 1443 2554
3020 1420 2994
2755 1414 3311
2416 1434 3483
2058 1487 3487
2755 1007 1286
2922 1313 1380
3014 1559 1563
3059 1748 1867
3087 1884 2322
3047 1834 2830
2874 1862 3234
2606 1946 3483
2281 2060 3524
2778 1346 1409
2946 1715 1507
3037 2002 1662
3081 2209 1913
3105 2337 2299
3113 2358 2767
3039 2445 3191
2881 2582 3489
2639 2757 3581
3055 1995 1708
3175 2311 1787
3232 2553 1897
3249 2720 2086
3250 2815 2403
3245 2830 2842
3162 2886 3220
3008 3001 3496
2788 3196 3628
3409 2768 2098
3461 2956 2143
3476 3099 2201
3467 3195 2326
3450 3246 2573
3420 3230 2987
3261 3221 3310
3034 3268 3535
2803 3418 3657
3664 3482 2497
3656 3505 2502
3648 3528 2511
3639 3548 2575
3630 3561 2745
3618 3538 3135
3353 3487 3447
3008 3449 3636
2757 3462 3659
3637 1140 2813
3668 1213 3088
3670 1281 3308
3657 1334 3472
3638 1365 3583
3542 1329 3631
3208 1198 3613
2761 1071 3564
2322 1051 3515
3537 1058 2429
3596 1124 2622
3617 1191 2868
3617 1257 3131
3615 1314 3373
3550 1315 3522
3277 1208 3579
2894 1095 3573
2497 1073 3535
3440 1018 2153
3524 1117 2252
3566 1214 2459
3583 1296 2749
3595 1352 3097
3554 1366 3362
3337 1280 3514
3007 1181 3571
2628 1152 3552
3355 1020 1981
3457 1188 1990
3517 1341 2122
3549 1462 2385
3566 1533 2790
3550 1539 3169
3387 1470 3424
3108 1391 3557
2745 1370 3570
3289 1067 1912
3404 1331 1852
3474 1566 1899
3509 1763 2098
3520 1913 2490
3531 1890 2962
3425 1833 3315
3205 1790 3531
2879 1811 3592
3267 1361 1910
3385 1703 1851
3457 1990 1872
3494 2216 2023
3508 2371 2358
3510 2418 2837
3449 2384 3232
3306 2374 3509
3064 2491 3630
3307 1876 1968
3414 2217 1935
3477 2494 1949
3508 2701 2067
3520 2835 2350
3523 2885 2800
3499 2869 3200
3428 2885 3508
3286 3030 3678
3435 2568 2138
3504 2819 2132
3543 3018 2142
3561 3164 2227
3568 3256 2448
3575 3276 2846
3577 3262 3234
3543 3274 3546
3439 3375 3715
3678 3396 2474
3670 3452 2471
3665 3507 2461
3663 3553 2497
3663 3585 2636
3674 3575 2970
3684 3534 3350
3623 3491 3645
3418 3473 3721
3779 1345 3186
3763 1391 3453
3738 1428 3604
3714 1453 3671
3701 1459 3685
3700 1456 3684
3667 1427 3677
3519 1309 3657
3170 1041 3619
3783 1338 3067
3786 1348 3244
3765 1385 3408
3739 1424 3537
3726 1441 3608
3719 1445 3642
3692 1431 3663
3594 1348 3667
3375 1143 3651
3783 1327 2975
3801 1346 3001
3805 1395 3100
3796 1446 3240
3777 1470 3388
3759 1474 3505
3726 1467 3599
3648 1406 3657
3496 1247 3669
3778 1319 2894
3811 1389 2757
3841 1477 2746
3855 1560 2857
3837 1615 3084
3809 1608 3310
3764 1599 3499
3688 1551 3630
3565 1426 3680
3767 1320 2807
3814 1478 2546
3857 1648 2414
3887 1809 2464
3891 1946 2753
3854 1915 3089
3801 1891 3380
3724 1847 3594
3615 1755 3695
3756 1505 2681
3805 1774 2388
3851 2016 2222
3886 2222 2238
3898 2382 2492
3868 2431 2925
3816 2412 3297
3740 2359 3573
3642 2306 3716
3748 1957 2560
3783 2257 2311
3822 2509 2155
3855 2709 2154
3875 2855 2372
3860 2919 2816
3821 2912 3236
3756 2868 3564
3665 2819 3734
3733 2565 2469
3750 2814 2321
3775 3018 2215
3801 3176 2219
3821 3285 2399
3820 3323 2799
3801 3318 3218
3760 3280 3565
3691 3223 3749
3699 3218 2434
3704 3334 2424
3715 3439 2406
3728 3526 2438
3736 3588 2579
3739 3591 2908
3742 3557 3263
3741 3502 3573
3731 3443 3763
