src-tauri/resources/luts/像梦像风像雨.cube
# Converted from .3dl using Python
LUT_3D_SIZE 5
DOMAIN_MIN 0.0 0.0 0.0
DOMAIN_MAX 1.0 1.0 1.0
0.094407 0.094407 0.094407
0.133658 0.175218 0.436634
0.192150 0.288866 0.758338
0.220626 0.347358 0.844279
0.230118 0.394305 0.854284
0.131093 0.141098 0.110570
0.133402 0.238840 0.350436
0.194459 0.493843 0.749102
0.206260 0.619292 0.859672
0.194715 0.680092 0.876603
0.187532 0.185993 0.146485
0.139302 0.279374 0.330939
0.178040 0.490508 0.669831
0.161108 0.780144 0.872755
0.142637 0.843766 0.899692
0.263725 0.338635 0.348127
0.161878 0.431247 0.511288
0.164443 0.637506 0.751924
0.154695 0.788096 0.868394
0.138276 0.859928 0.902001
0.394305 0.681888 0.747563
0.195741 0.708569 0.838379
0.151873 0.818625 0.891483
0.140072 0.858902 0.901488
0.139559 0.862494 0.903797
0.300667 0.109800 0.188558
0.246280 0.145203 0.426116
0.216265 0.253207 0.763468
0.222422 0.296306 0.849923
0.220883 0.304515 0.854284
0.254233 0.168035 0.128784
0.270395 0.219087 0.319138
0.252694 0.355567 0.681888
0.248332 0.471267 0.842740
0.234479 0.542329 0.864546
0.415854 0.285788 0.223448
0.350949 0.354797 0.367881
0.265777 0.471780 0.628784
0.221139 0.708569 0.855054
0.174962 0.799897 0.893279
0.653925 0.505900 0.402001
0.479733 0.562083 0.572088
0.253463 0.627758 0.740636
0.195228 0.763982 0.861211
0.148794 0.857619 0.902514
0.850436 0.822473 0.665983
0.615187 0.826578 0.790918
0.239867 0.824269 0.881221
0.156747 0.854797 0.899949
0.146998 0.861980 0.900975
0.623910 0.150847 0.351975
0.629297 0.159056 0.562083
0.390970 0.199590 0.715752
0.291432 0.279887 0.854028
0.244228 0.290149 0.860441
0.470241 0.178553 0.168548
0.542586 0.230118 0.355310
0.455105 0.241406 0.596716
0.342483 0.332478 0.835300
0.274500 0.379938 0.863776
0.442022 0.280144 0.184710
0.523089 0.406362 0.334787
0.555670 0.444074 0.549513
0.504361 0.619548 0.832991
0.419446 0.715495 0.887635
0.791175 0.616727 0.457671
0.777578 0.678040 0.529502
0.711390 0.680349 0.705747
0.459723 0.744484 0.847358
0.300667 0.846845 0.907132
0.938686 0.890970 0.642894
0.925090 0.892766 0.683684
0.860698 0.881734 0.830426
0.378912 0.853515 0.901231
0.276809 0.868394 0.908158
0.864289 0.237814 0.601334
0.883530 0.271421 0.751667
0.847614 0.296819 0.874808
0.628527 0.272447 0.894305
0.426372 0.275782 0.881221
0.764751 0.213186 0.380195
0.815033 0.273474 0.502052
0.825295 0.307850 0.724987
0.680092 0.298615 0.867111
0.488712 0.304259 0.888148
0.706773 0.258338 0.329913
0.773217 0.399949 0.400975
0.791945 0.483325 0.595690
0.737301 0.477681 0.829656
0.585172 0.528476 0.904053
0.783735 0.511801 0.438173
0.829143 0.654951 0.486660
0.833761 0.722165 0.616470
0.811185 0.740380 0.826065
0.715239 0.819908 0.930734
0.939969 0.893279 0.640585
0.935865 0.905080 0.644176
0.931247 0.913545 0.704207
0.860185 0.894561 0.884300
0.707286 0.888148 0.938686
0.969472 0.345049 0.817342
0.958953 0.366342 0.924577
0.949461 0.374295 0.945357
0.940739 0.366085 0.943304
0.813238 0.267060 0.928425
0.970498 0.340431 0.763212
0.976142 0.357876 0.795280
0.968958 0.377116 0.869164
0.955875 0.376347 0.923294
0.896870 0.319908 0.941252
0.966393 0.338635 0.720113
0.989482 0.422781 0.619292
0.998204 0.499230 0.706260
0.975115 0.485121 0.867111
0.927399 0.450231 0.947922
0.961519 0.502052 0.656747
0.980503 0.643663 0.552848
0.994100 0.732427 0.608517
0.980246 0.747050 0.830169
0.940226 0.723191 0.957927
0.948948 0.825552 0.624423
0.953053 0.882247 0.617240
0.958440 0.920472 0.661621
0.959979 0.912519 0.837096
0.957157 0.883273 0.965367
