src-tauri/resources/luts/像梦像风像雨.cube
# Converted from .3dl using Python
LUT_3D_SIZE 17
DOMAIN_MIN 0.0 0.0 0.0
DOMAIN_MAX 1.0 1.0 1.0
0.094407 0.094407 0.094407
0.102104 0.110570 0.173679
0.109543 0.126732 0.252950
0.119548 0.146998 0.338635
0.133658 0.175218 0.436634
0.148025 0.203438 0.534633
0.162648 0.231914 0.615187
0.177527 0.260390 0.686762
0.192150 0.288866 0.758338
0.201385 0.306567 0.788096
0.210621 0.324525 0.818112
0.217804 0.339148 0.839405
0.220626 0.347358 0.844279
0.223704 0.355567 0.848897
0.226013 0.367368 0.851462
0.228066 0.380708 0.852745
0.230118 0.394305 0.854284
0.102617 0.107491 0.099025
0.106208 0.121344 0.163161
0.109800 0.135198 0.227296
0.118009 0.158286 0.306567
0.134684 0.199590 0.416111
0.151360 0.240893 0.525911
0.166496 0.277578 0.611339
0.181119 0.311698 0.684197
0.195485 0.346075 0.757311
0.204207 0.367624 0.788096
0.212930 0.388917 0.818881
0.219343 0.406875 0.841457
0.221396 0.417650 0.847101
0.223704 0.428425 0.852745
0.224987 0.441252 0.855824
0.225757 0.455618 0.857106
0.226270 0.469728 0.858645
0.110570 0.120318 0.103899
0.110313 0.132119 0.152642
0.110056 0.143920 0.201385
0.116470 0.169831 0.274500
0.135454 0.224218 0.395844
0.154438 0.278348 0.517188
0.170344 0.323243 0.607234
0.184710 0.363263 0.681888
0.198820 0.403284 0.756285
0.207029 0.428425 0.788096
0.214982 0.453309 0.819908
0.220883 0.474346 0.843509
0.222165 0.487686 0.850180
0.223704 0.501026 0.856850
0.223704 0.515392 0.859928
0.223191 0.530272 0.861467
0.222678 0.545408 0.863007
0.119805 0.132119 0.107748
0.115700 0.142381 0.145716
0.111852 0.152899 0.183427
0.115700 0.179836 0.250128
0.135454 0.239867 0.374295
0.154951 0.300154 0.498461
0.170857 0.353771 0.593381
0.185223 0.404053 0.673679
0.199590 0.454592 0.753976
0.206516 0.484607 0.787583
0.213699 0.514623 0.821190
0.218317 0.540021 0.846331
0.218574 0.555670 0.854028
0.219087 0.571319 0.861724
0.217804 0.586711 0.865316
0.215752 0.601847 0.866855
0.213699 0.616727 0.868651
0.131093 0.141098 0.110570
0.123653 0.151873 0.145972
0.116470 0.162904 0.181119
0.116983 0.187276 0.241149
0.133402 0.238840 0.350436
0.149820 0.290405 0.459466
0.165213 0.354284 0.559261
0.179836 0.424064 0.654182
0.194459 0.493843 0.749102
0.199590 0.531811 0.786044
0.204720 0.569779 0.823243
0.207799 0.601077 0.850949
0.206260 0.619292 0.859672
0.204977 0.637506 0.868394
0.201898 0.652642 0.872755
0.198307 0.666496 0.874808
0.194715 0.680092 0.876603
0.142124 0.150334 0.113391
0.131606 0.161621 0.145972
0.121088 0.172653 0.178810
0.118266 0.194459 0.232170
0.131606 0.237558 0.326321
0.144946 0.280657 0.420729
0.159312 0.354541 0.525141
0.174448 0.444074 0.634684
0.189328 0.533350 0.744228
0.192663 0.579015 0.784761
0.195998 0.624679 0.825038
0.197024 0.662134 0.855310
0.193946 0.682658 0.865316
0.190867 0.703438 0.875321
0.186249 0.718574 0.880195
0.180862 0.731144 0.882504
0.175475 0.743715 0.884813
0.156234 0.161621 0.122370
0.142381 0.172909 0.152899
0.128527 0.184197 0.183427
0.122627 0.205747 0.233197
0.133145 0.247819 0.321447
0.143407 0.289636 0.409954
0.156491 0.360954 0.510775
0.170857 0.446639 0.617496
0.185480 0.532324 0.724474
0.186506 0.591585 0.772704
0.187789 0.650847 0.820934
0.187019 0.698563 0.857106
0.182658 0.722935 0.868651
0.178297 0.747563 0.880195
0.173166 0.762955 0.885839
0.167778 0.773730 0.888148
0.162391 0.784505 0.890713
0.171883 0.173679 0.134428
0.154695 0.185223 0.162904
0.137506 0.196768 0.191380
0.128527 0.219087 0.239354
0.136224 0.263468 0.326321
0.143663 0.307850 0.413289
0.155208 0.369933 0.506157
0.168291 0.440739 0.601591
0.181632 0.511544 0.697024
0.180605 0.586968 0.755516
0.179579 0.662647 0.813751
0.177270 0.722678 0.857106
0.171883 0.751667 0.870703
0.166496 0.780400 0.884556
0.161621 0.796049 0.890457
0.157004 0.805028 0.892766
0.152642 0.814264 0.895074
0.187532 0.185993 0.146485
0.167009 0.197537 0.172909
0.146485 0.209338 0.199076
0.134428 0.232683 0.245254
0.139302 0.279374 0.330939
0.144176 0.326065 0.416880
0.153925 0.378912 0.501539
0.165983 0.434838 0.585685
0.178040 0.490508 0.669831
0.174962 0.582606 0.738071
0.171626 0.674448 0.806311
0.167522 0.746793 0.857106
0.161108 0.780144 0.872755
0.154438 0.813494 0.888661
0.149820 0.829400 0.895331
0.146229 0.836583 0.897383
0.142637 0.843766 0.899692
0.204464 0.213443 0.184197
0.180349 0.225244 0.210877
0.156234 0.237301 0.237558
0.141098 0.261160 0.282196
0.143663 0.309133 0.362494
0.146485 0.356850 0.443048
0.154182 0.410467 0.523345
0.164443 0.467163 0.603899
0.174448 0.523602 0.684454
0.173166 0.596973 0.743202
0.172140 0.670344 0.802206
0.168548 0.733196 0.847871
0.160082 0.775013 0.867624
0.151873 0.817086 0.887635
0.146998 0.835813 0.895844
0.143920 0.842740 0.898153
0.140841 0.849923 0.900718
0.221652 0.240636 0.222165
0.193689 0.252950 0.249102
0.165983 0.265264 0.276039
0.147512 0.289892 0.318881
0.148281 0.338892 0.394048
0.149051 0.387635 0.469215
0.154695 0.442278 0.545408
0.162648 0.499487 0.622370
0.170857 0.556696 0.699076
0.171626 0.611339 0.748333
0.172396 0.666239 0.797845
0.169574 0.719600 0.838635
0.159312 0.770139 0.862494
0.149307 0.820677 0.886609
0.144176 0.841970 0.896357
0.141611 0.849153 0.898923
0.139302 0.856080 0.901488
0.240636 0.278861 0.272447
0.208825 0.290918 0.300410
0.176757 0.303232 0.328630
0.155208 0.327860 0.370190
0.153925 0.376860 0.439200
0.152642 0.425859 0.508209
0.155977 0.479990 0.578245
0.161878 0.536685 0.648794
0.167522 0.593381 0.719600
0.169061 0.634684 0.760390
0.170344 0.675988 0.801437
0.168035 0.720626 0.836839
0.157773 0.771934 0.861467
0.147512 0.823243 0.886095
0.142637 0.845305 0.896101
0.140328 0.852745 0.899179
0.138020 0.860185 0.902258
0.263725 0.338635 0.348127
0.227040 0.349667 0.378912
0.190354 0.360698 0.409441
0.164700 0.384043 0.450231
0.161878 0.431247 0.511288
0.158543 0.478707 0.572601
0.159312 0.530015 0.632632
0.161878 0.583889 0.692150
0.164443 0.637506 0.751924
0.164443 0.675731 0.786557
0.164187 0.714212 0.821190
0.161621 0.751924 0.850436
0.154695 0.788096 0.868394
0.147768 0.824269 0.886609
0.143663 0.842227 0.894818
0.141098 0.851206 0.898409
0.138276 0.859928 0.902001
0.287070 0.398409 0.424064
0.245511 0.408415 0.457158
0.203951 0.418163 0.490251
0.174448 0.440226 0.530272
0.169574 0.485634 0.583633
0.164700 0.531298 0.636737
0.162648 0.580298 0.687019
0.162134 0.630836 0.735505
0.161621 0.681632 0.783992
0.159569 0.717034 0.812468
0.157773 0.752181 0.841201
0.155208 0.782966 0.864033
0.151616 0.804002 0.875321
0.148281 0.825295 0.886865
0.144946 0.839148 0.893535
0.141611 0.849666 0.897640
0.138533 0.859928 0.901744
0.319651 0.484351 0.523858
0.270652 0.490508 0.555413
0.221396 0.496922 0.587224
0.185993 0.514623 0.622627
0.178040 0.555156 0.665213
0.170344 0.595434 0.708055
0.165213 0.638533 0.746537
0.161878 0.682658 0.782709
0.158543 0.726783 0.818881
0.155464 0.756029 0.839661
0.152642 0.785275 0.860185
0.150077 0.809133 0.876603
0.148025 0.821703 0.883787
0.146229 0.834531 0.890970
0.143920 0.844279 0.895588
0.141355 0.852488 0.898923
0.138789 0.860441 0.902258
0.357106 0.583120 0.635711
0.298871 0.584659 0.663674
0.240893 0.585941 0.691893
0.198563 0.598256 0.720882
0.187019 0.631863 0.751667
0.175475 0.665469 0.782709
0.167522 0.700616 0.808363
0.161365 0.736788 0.831965
0.155208 0.772704 0.855310
0.151616 0.794253 0.867111
0.148025 0.815803 0.879169
0.145459 0.832735 0.888661
0.144176 0.840431 0.892509
0.142894 0.847871 0.896614
0.141611 0.853258 0.899179
0.140328 0.857363 0.901231
0.139302 0.861467 0.903027
0.394305 0.681888 0.747563
0.327347 0.678553 0.772191
0.260646 0.675218 0.796562
0.210877 0.681888 0.819395
0.195741 0.708569 0.838379
0.180605 0.735249 0.857106
0.169574 0.762955 0.870446
0.160852 0.790662 0.880965
0.151873 0.818625 0.891483
0.147768 0.832478 0.894818
0.143663 0.846331 0.898153
0.140585 0.856337 0.900718
0.140072 0.858902 0.901488
0.139815 0.861467 0.902258
0.139559 0.862237 0.902771
0.139559 0.862494 0.903284
0.139559 0.862494 0.903797
0.135198 0.095947 0.114161
0.132632 0.108261 0.178553
0.130067 0.120575 0.242945
0.132119 0.138276 0.321447
0.142894 0.167522 0.427655
0.153925 0.196511 0.533864
0.166496 0.224474 0.617753
0.180092 0.252181 0.690867
0.193946 0.279887 0.763982
0.202411 0.295536 0.792714
0.210877 0.311185 0.821447
0.217291 0.323756 0.841714
0.219600 0.329913 0.845818
0.221909 0.336070 0.849923
0.223448 0.344279 0.851975
0.224987 0.353771 0.853002
0.226270 0.363007 0.854028
0.135967 0.109543 0.111596
0.134684 0.120318 0.166239
0.133658 0.131349 0.220626
0.136737 0.150847 0.293740
0.148025 0.187789 0.404310
0.159312 0.224731 0.515136
0.171883 0.258851 0.602360
0.184710 0.291432 0.678297
0.197537 0.324269 0.753976
0.205747 0.344536 0.785788
0.213699 0.365059 0.817855
0.219856 0.381734 0.840944
0.221909 0.391739 0.846845
0.224218 0.401488 0.852745
0.225244 0.413032 0.855310
0.225757 0.425090 0.856337
0.226526 0.437147 0.857363
0.136737 0.122884 0.109287
0.136993 0.132632 0.153669
0.137250 0.142124 0.198050
0.141355 0.163417 0.266034
0.153155 0.208055 0.381221
0.164956 0.252694 0.496408
0.177014 0.292971 0.586968
0.189071 0.330682 0.665469
0.201129 0.368651 0.743971
0.209082 0.393535 0.779118
0.216778 0.418676 0.814264
0.222678 0.439713 0.840431
0.224474 0.453566 0.847871
0.226270 0.467163 0.855310
0.227040 0.481529 0.858645
0.226783 0.496152 0.859672
0.226526 0.511031 0.860954
0.143663 0.136480 0.110313
0.143407 0.145459 0.147255
0.143150 0.154438 0.184197
0.146485 0.176501 0.246537
0.157260 0.224474 0.359928
0.168035 0.272191 0.473320
0.179323 0.319395 0.567470
0.190867 0.366342 0.651873
0.202668 0.413289 0.736275
0.209595 0.443561 0.774500
0.216521 0.473833 0.812724
0.221652 0.499743 0.841201
0.222935 0.516675 0.849923
0.223961 0.533864 0.858902
0.223448 0.550282 0.862750
0.222165 0.566444 0.864289
0.220883 0.582863 0.865829
0.162648 0.150590 0.118009
0.158286 0.160082 0.152642
0.153925 0.169574 0.187019
0.153155 0.190097 0.243202
0.159569 0.232427 0.342483
0.165983 0.274756 0.442022
0.175988 0.331195 0.539507
0.187789 0.395074 0.636224
0.199590 0.458697 0.733196
0.204977 0.495895 0.773730
0.210108 0.532837 0.814520
0.213443 0.563879 0.845049
0.212930 0.583376 0.854797
0.212160 0.602617 0.864802
0.209851 0.619548 0.869420
0.206516 0.635198 0.871473
0.203438 0.650847 0.873525
0.181632 0.164443 0.125962
0.173166 0.174705 0.158030
0.164700 0.184710 0.189841
0.159569 0.203694 0.239610
0.161621 0.240380 0.325038
0.163674 0.277065 0.410467
0.172396 0.342996 0.511801
0.184454 0.423551 0.620831
0.196511 0.504361 0.729861
0.200103 0.547973 0.773217
0.203694 0.591585 0.816573
0.205233 0.628014 0.848897
0.202925 0.649820 0.859672
0.200359 0.671626 0.870446
0.196254 0.688815 0.875834
0.191124 0.703951 0.878656
0.185993 0.718830 0.881221
0.204464 0.179836 0.138533
0.191637 0.190867 0.169574
0.178810 0.201898 0.200616
0.169574 0.220883 0.247563
0.167009 0.256029 0.325808
0.164443 0.291432 0.404310
0.171113 0.355054 0.500770
0.182145 0.432786 0.606721
0.193176 0.510775 0.712417
0.194459 0.567214 0.762699
0.195741 0.623910 0.813238
0.195228 0.670087 0.850949
0.191380 0.695485 0.863520
0.187532 0.720626 0.875834
0.182401 0.738071 0.881734
0.177014 0.751924 0.884556
0.171626 0.765521 0.887378
0.228835 0.195485 0.153669
0.211904 0.207542 0.184454
0.194972 0.219600 0.215495
0.181375 0.239610 0.260903
0.173935 0.275782 0.335813
0.166752 0.311698 0.410467
0.170600 0.367111 0.498461
0.179836 0.432530 0.592868
0.189328 0.497691 0.687532
0.188302 0.570292 0.747563
0.187276 0.643150 0.807594
0.184710 0.701129 0.852232
0.179323 0.730631 0.866598
0.173935 0.759877 0.880965
0.168805 0.777578 0.887378
0.163930 0.789379 0.890200
0.158799 0.801437 0.893022
0.253463 0.211390 0.168805
0.232427 0.224474 0.199590
0.211390 0.237558 0.230375
0.193176 0.258594 0.274500
0.181119 0.295280 0.345562
0.168805 0.331965 0.416624
0.170087 0.379169 0.495895
0.177783 0.432016 0.579271
0.185480 0.484864 0.662647
0.182145 0.573371 0.732170
0.178553 0.662134 0.801693
0.173935 0.732427 0.853515
0.167265 0.765777 0.869677
0.160339 0.799128 0.885839
0.155208 0.817086 0.893022
0.150590 0.827091 0.895844
0.146229 0.837353 0.898666
0.282709 0.242689 0.204977
0.256029 0.257055 0.238584
0.229348 0.271421 0.271934
0.206260 0.293227 0.316316
0.189584 0.329400 0.382504
0.173166 0.365829 0.448692
0.171113 0.413032 0.522832
0.176501 0.465623 0.601077
0.181888 0.518471 0.679066
0.180092 0.589533 0.738840
0.178297 0.660339 0.798358
0.174192 0.721909 0.844792
0.165213 0.764238 0.865316
0.156491 0.806567 0.885582
0.150847 0.827091 0.894305
0.147255 0.836326 0.897127
0.143407 0.845818 0.899949
0.311955 0.273987 0.241406
0.279887 0.289636 0.277578
0.247563 0.305285 0.313751
0.219087 0.327604 0.358132
0.198307 0.363520 0.419446
0.177270 0.399436 0.480759
0.172140 0.446639 0.549769
0.175218 0.499487 0.622627
0.178297 0.552078 0.695485
0.178297 0.605439 0.745254
0.178040 0.658799 0.795023
0.174448 0.711390 0.836326
0.163417 0.762699 0.860698
0.152386 0.814007 0.885326
0.146742 0.836839 0.895588
0.143663 0.845562 0.898409
0.140585 0.854028 0.901488
0.343253 0.315803 0.288866
0.305285 0.331965 0.327604
0.267317 0.348384 0.366342
0.233453 0.370703 0.410980
0.208055 0.405593 0.467163
0.182401 0.440482 0.523345
0.174192 0.486403 0.585941
0.174448 0.537968 0.651873
0.174448 0.589533 0.717804
0.175218 0.630067 0.758594
0.175731 0.670600 0.799641
0.172396 0.714725 0.835300
0.161108 0.767060 0.860185
0.149820 0.819395 0.885326
0.144176 0.842483 0.895844
0.141611 0.851206 0.899179
0.138789 0.859928 0.902258
0.378143 0.378656 0.358132
0.334017 0.394305 0.399436
0.289892 0.409954 0.440995
0.250385 0.431247 0.485377
0.220113 0.463571 0.536172
0.189584 0.495639 0.586711
0.177527 0.538481 0.640585
0.174192 0.586711 0.695998
0.170857 0.634941 0.751667
0.169831 0.671883 0.785788
0.168548 0.709082 0.820164
0.165213 0.746280 0.849153
0.157517 0.783479 0.867368
0.150077 0.820677 0.885839
0.145203 0.839661 0.894561
0.142124 0.849923 0.898409
0.138789 0.859928 0.902258
0.413289 0.441508 0.427399
0.363007 0.456644 0.471524
0.312468 0.471780 0.515649
0.267317 0.491791 0.560031
0.232170 0.521293 0.605182
0.197024 0.551052 0.650334
0.180605 0.590559 0.695228
0.173935 0.635454 0.740380
0.167265 0.680092 0.785275
0.164443 0.713956 0.812981
0.161621 0.747819 0.840688
0.158286 0.777578 0.863007
0.154182 0.799641 0.874808
0.150077 0.821960 0.886609
0.146229 0.836839 0.893279
0.142637 0.848384 0.897640
0.138789 0.860185 0.902001
0.453822 0.527193 0.518728
0.397383 0.538738 0.560287
0.340688 0.550026 0.601847
0.289123 0.565675 0.642124
0.246793 0.590559 0.679323
0.204464 0.615444 0.716778
0.183684 0.649307 0.751924
0.173422 0.687789 0.786044
0.163161 0.726270 0.820164
0.159312 0.754233 0.840174
0.155464 0.781939 0.859928
0.152129 0.805028 0.875834
0.149820 0.818625 0.883017
0.147512 0.831965 0.890457
0.144946 0.842483 0.895074
0.141868 0.851462 0.898666
0.139046 0.860698 0.902001
0.497178 0.624679 0.620831
0.434325 0.630580 0.657517
0.371729 0.636480 0.693946
0.313238 0.646742 0.727809
0.262699 0.665726 0.756285
0.212160 0.684710 0.784761
0.186249 0.711647 0.809646
0.172396 0.742432 0.832478
0.158799 0.773217 0.855310
0.154438 0.793740 0.867111
0.149820 0.814264 0.878912
0.146485 0.830426 0.888148
0.145203 0.838635 0.891996
0.143663 0.846588 0.896101
0.142124 0.852232 0.898666
0.140841 0.856850 0.900462
0.139302 0.861467 0.902258
0.540277 0.721909 0.722935
0.471524 0.722422 0.754489
0.402771 0.722678 0.786044
0.337352 0.727553 0.813751
0.278604 0.740636 0.833248
0.219856 0.753720 0.853002
0.188815 0.773730 0.867368
0.171626 0.796819 0.878912
0.154438 0.820164 0.890713
0.149307 0.833248 0.894305
0.144433 0.846331 0.897896
0.140841 0.855824 0.900462
0.140328 0.858389 0.900975
0.139815 0.861211 0.901488
0.139559 0.861980 0.902001
0.139559 0.862237 0.902258
0.139559 0.862237 0.902514
0.175731 0.097742 0.133915
0.163161 0.105952 0.183427
0.150590 0.114161 0.233197
0.144690 0.129810 0.304259
0.152129 0.159569 0.418420
0.159569 0.189584 0.532837
0.170344 0.217291 0.620575
0.182914 0.243971 0.694972
0.195741 0.270652 0.769625
0.203438 0.284505 0.797075
0.211134 0.298102 0.824782
0.216778 0.308620 0.844279
0.218317 0.312468 0.847614
0.219856 0.316573 0.851206
0.220883 0.321447 0.852745
0.221652 0.326578 0.853258
0.222422 0.331965 0.853771
0.169318 0.111596 0.124166
0.163417 0.119548 0.169061
0.157517 0.127245 0.213956
0.155464 0.143407 0.280913
0.161621 0.175988 0.392509
0.167522 0.208312 0.504105
0.177014 0.239867 0.593638
0.188302 0.271165 0.672140
0.199590 0.302206 0.750641
0.207029 0.321703 0.783735
0.214725 0.340944 0.816829
0.220626 0.356850 0.840688
0.222422 0.365829 0.846588
0.224474 0.374808 0.852488
0.225500 0.384556 0.854797
0.226013 0.394305 0.855567
0.226526 0.404310 0.856337
0.162904 0.125449 0.114674
0.163674 0.132889 0.154695
0.164187 0.140585 0.194715
0.166239 0.157004 0.257825
0.170857 0.192150 0.366598
0.175731 0.227040 0.475372
0.183684 0.262442 0.566701
0.193433 0.298102 0.649051
0.203438 0.333761 0.731657
0.210877 0.358645 0.770139
0.218574 0.383787 0.808876
0.224474 0.405080 0.837353
0.226783 0.419189 0.845562
0.229092 0.433299 0.853771
0.230118 0.447665 0.857106
0.230375 0.462032 0.857876
0.230631 0.476398 0.858902
0.167522 0.141098 0.112622
0.171113 0.148538 0.148538
0.174448 0.155977 0.184710
0.177270 0.172909 0.242945
0.179323 0.208825 0.345818
0.181119 0.244484 0.448435
0.187789 0.285275 0.541560
0.196768 0.328630 0.630067
0.205490 0.371986 0.718574
0.212673 0.402514 0.761160
0.219600 0.433299 0.804002
0.224987 0.459723 0.836070
0.227040 0.477937 0.846075
0.229092 0.496152 0.856080
0.229348 0.513853 0.860441
0.228579 0.531298 0.861724
0.228066 0.548999 0.863007
0.194459 0.159826 0.125705
0.192919 0.168291 0.159312
0.191380 0.176501 0.192919
0.189071 0.192919 0.244997
0.185480 0.226013 0.334787
0.181888 0.259107 0.424320
0.186762 0.308363 0.520010
0.195741 0.366085 0.618522
0.204720 0.423551 0.717034
0.210108 0.459723 0.761416
0.215495 0.495895 0.806054
0.219087 0.526937 0.839148
0.219343 0.547204 0.850180
0.219600 0.567727 0.860954
0.217804 0.586455 0.866085
0.214982 0.603899 0.868137
0.212160 0.621601 0.870190
0.221139 0.178810 0.138789
0.214725 0.187789 0.169831
0.208055 0.197024 0.200872
0.200872 0.212930 0.247306
0.191637 0.243202 0.323756
0.182658 0.273474 0.400462
0.185736 0.331452 0.498461
0.194715 0.403284 0.606978
0.203694 0.475115 0.715752
0.207542 0.516932 0.761673
0.211390 0.558492 0.807850
0.213443 0.593894 0.842483
0.211647 0.616727 0.854028
0.210108 0.639559 0.865829
0.206260 0.658799 0.871729
0.201129 0.676501 0.874551
0.196254 0.694202 0.877630
0.252437 0.197794 0.154951
0.240893 0.208568 0.186506
0.229348 0.219343 0.218061
0.216521 0.236018 0.261929
0.201129 0.264495 0.330169
0.185480 0.293227 0.398409
0.185480 0.349153 0.491021
0.193176 0.419189 0.595690
0.200872 0.488969 0.700359
0.202411 0.543099 0.752950
0.203951 0.596973 0.805541
0.203694 0.641611 0.845049
0.200103 0.667778 0.858132
0.196768 0.693946 0.871216
0.191893 0.713443 0.877886
0.186249 0.729861 0.881221
0.180605 0.746537 0.884300
0.285788 0.217291 0.172909
0.269112 0.230118 0.206260
0.252694 0.242689 0.239610
0.234223 0.260133 0.282709
0.211904 0.287840 0.345049
0.189584 0.315290 0.407388
0.185993 0.364546 0.490764
0.191380 0.424320 0.584402
0.197024 0.484094 0.678040
0.195741 0.553617 0.739610
0.194715 0.623397 0.801437
0.192150 0.679836 0.847358
0.186762 0.709595 0.862237
0.181375 0.739354 0.877373
0.175988 0.759107 0.884300
0.170600 0.773987 0.887635
0.165213 0.788610 0.890970
0.319138 0.236788 0.190867
0.297588 0.251411 0.226270
0.276039 0.266034 0.261416
0.251924 0.284505 0.303746
0.222935 0.311185 0.359928
0.193689 0.337609 0.416367
0.186249 0.379682 0.490251
0.189584 0.429194 0.572858
0.193176 0.478964 0.655721
0.189328 0.564392 0.726270
0.185480 0.649820 0.797075
0.180349 0.717804 0.849923
0.173422 0.751411 0.866598
0.166239 0.785018 0.883273
0.160339 0.804772 0.890970
0.154951 0.817855 0.894305
0.149820 0.830682 0.897640
0.360698 0.271934 0.225757
0.331709 0.288866 0.266034
0.302719 0.305541 0.306311
0.271421 0.325038 0.350693
0.235505 0.349667 0.402514
0.199590 0.374551 0.454336
0.188045 0.415341 0.522063
0.188558 0.464341 0.597999
0.189328 0.513084 0.673935
0.187019 0.581837 0.734223
0.184710 0.650590 0.794767
0.179836 0.710621 0.841970
0.170344 0.753463 0.862750
0.160852 0.796306 0.883787
0.154695 0.818368 0.892766
0.150334 0.829913 0.896101
0.145972 0.841457 0.899436
0.402514 0.307337 0.260903
0.365829 0.326321 0.306054
0.329400 0.345049 0.351462
0.290918 0.365316 0.397383
0.248076 0.388404 0.444844
0.205490 0.411237 0.492304
0.189841 0.451001 0.553874
0.187789 0.499230 0.623140
0.185480 0.547460 0.692150
0.184710 0.599282 0.742175
0.183940 0.651360 0.792201
0.179323 0.703181 0.834017
0.167522 0.755259 0.859159
0.155721 0.807594 0.884043
0.149307 0.831709 0.894561
0.145716 0.841970 0.897896
0.141868 0.852232 0.901231
0.445870 0.352745 0.305028
0.401744 0.373012 0.354541
0.357876 0.393535 0.404310
0.311955 0.413802 0.451770
0.262186 0.434582 0.495126
0.212417 0.455105 0.538481
0.192150 0.492817 0.593638
0.186762 0.539251 0.654695
0.181632 0.585685 0.716008
0.181119 0.625192 0.756798
0.180862 0.664956 0.797589
0.176501 0.709082 0.833504
0.164443 0.762186 0.859159
0.152129 0.815546 0.884556
0.145972 0.839918 0.895588
0.142637 0.849666 0.898923
0.139302 0.859415 0.902514
0.492560 0.418676 0.367881
0.440995 0.438943 0.420215
0.389430 0.459210 0.472550
0.336070 0.478450 0.520780
0.278348 0.495639 0.560800
0.220626 0.512827 0.601077
0.195485 0.546947 0.648538
0.186249 0.589533 0.700103
0.177270 0.632119 0.751411
0.175218 0.668035 0.785018
0.173166 0.703951 0.818881
0.168805 0.740636 0.847614
0.160595 0.778861 0.866598
0.152129 0.817086 0.885326
0.146742 0.837353 0.894305
0.143150 0.848640 0.898409
0.139302 0.859928 0.902258
0.539507 0.484607 0.430990
0.480503 0.504874 0.485890
0.421242 0.525141 0.540790
0.360185 0.543099 0.589790
0.294510 0.556952 0.626732
0.229092 0.570549 0.663674
0.198820 0.601077 0.703694
0.185736 0.639815 0.745254
0.172909 0.678553 0.786557
0.169061 0.710877 0.813494
0.165469 0.743202 0.840174
0.161365 0.772447 0.861980
0.156747 0.795536 0.874038
0.152129 0.818368 0.886095
0.147768 0.834787 0.893022
0.143407 0.847358 0.897640
0.139302 0.860185 0.902258
0.587994 0.570292 0.513597
0.524115 0.586711 0.565162
0.460236 0.602873 0.616470
0.391996 0.616983 0.661621
0.315290 0.626219 0.693689
0.238840 0.635454 0.725500
0.201898 0.660339 0.757568
0.184967 0.693176 0.789379
0.168035 0.725757 0.821190
0.163161 0.752437 0.840431
0.158286 0.778861 0.859672
0.154438 0.801180 0.875064
0.151616 0.815290 0.882504
0.149051 0.829400 0.889944
0.145972 0.840944 0.894818
0.142637 0.850693 0.898409
0.139302 0.860698 0.902001
0.637250 0.665983 0.605952
0.569779 0.676244 0.651103
0.502565 0.686762 0.695998
0.427912 0.694972 0.734736
0.338379 0.699590 0.760903
0.249102 0.703951 0.787070
0.204977 0.722422 0.810672
0.183684 0.748076 0.833248
0.162391 0.773730 0.855567
0.157260 0.793227 0.867111
0.151873 0.812468 0.878656
0.147768 0.828117 0.887635
0.145972 0.836839 0.891483
0.144433 0.845305 0.895331
0.142637 0.851462 0.897896
0.141098 0.856337 0.899692
0.139559 0.861211 0.901488
0.686506 0.761673 0.698563
0.615700 0.766034 0.737045
0.544895 0.770395 0.775526
0.463828 0.773217 0.808107
0.361467 0.772704 0.828374
0.259107 0.772191 0.848640
0.208055 0.784505 0.864033
0.182658 0.803232 0.876860
0.157004 0.821703 0.889687
0.151103 0.834017 0.893535
0.145203 0.846331 0.897383
0.141098 0.855310 0.900205
0.140328 0.858132 0.900462
0.139815 0.860954 0.900975
0.139559 0.861980 0.900975
0.139559 0.861980 0.901231
0.139559 0.861980 0.901231
0.227296 0.101591 0.157260
0.211390 0.106465 0.199590
0.195228 0.111339 0.241662
0.183427 0.124166 0.306311
0.180092 0.152129 0.415854
0.177014 0.180092 0.525398
0.182401 0.207542 0.614161
0.191893 0.234736 0.692406
0.201642 0.261929 0.770908
0.207799 0.274756 0.798615
0.213956 0.287583 0.826321
0.218061 0.297075 0.846075
0.218830 0.299641 0.849153
0.219343 0.302463 0.852232
0.219856 0.304772 0.853515
0.219856 0.307081 0.853515
0.220113 0.309646 0.853771
0.212930 0.114674 0.140072
