src-tauri/resources/luts/大片质感.3dl
# LUT by SparkleStock. Enhanced with VOXCOLOR algorithms.
0 64 128 192 256 320 384 448 512 576 640 704 768 832 896 960 1023
48 112 993
99 190 1047
120 263 1081
145 345 1114
176 424 1144
207 514 1181
240 627 1202
270 749 1225
306 863 1266
374 946 1306
438 1014 1338
515 1130 1391
613 1207 1431
732 1264 1451
879 1340 1489
1036 1412 1537
1217 1489 1585
90 189 1038
99 202 1045
121 263 1074
151 351 1121
183 438 1153
210 518 1183
241 628 1205
270 748 1233
304 863 1270
362 948 1310
429 1014 1351
504 1114 1394
597 1183 1434
720 1234 1476
864 1300 1532
1018 1353 1599
1172 1428 1669
116 257 1073
127 265 1080
131 278 1084
149 354 1121
179 450 1159
210 533 1192
244 650 1219
268 757 1246
301 864 1292
354 945 1340
403 1010 1390
465 1104 1447
547 1174 1503
658 1206 1561
770 1236 1630
873 1245 1700
993 1259 1774
141 351 1102
151 374 1122
155 386 1129
154 417 1139
173 511 1176
200 599 1217
230 718 1251
255 819 1297
273 915 1338
314 982 1398
362 1046 1458
411 1134 1527
467 1177 1599
537 1195 1679
607 1176 1760
672 1154 1850
746 1123 1920
157 560 1129
163 590 1149
165 609 1168
160 636 1178
159 687 1205
175 764 1252
197 856 1303
226 953 1360
248 1029 1417
264 1107 1472
297 1162 1549
343 1211 1626
375 1206 1706
416 1191 1799
455 1161 1896
487 1124 2004
527 1069 2082
160 903 1163
165 928 1184
163 948 1208
156 966 1224
148 979 1247
147 994 1290
162 1076 1360
183 1166 1426
209 1235 1487
229 1281 1553
241 1325 1634
269 1325 1739
284 1275 1824
311 1226 1923
328 1179 2014
342 1125 2104
361 1073 2189
157 1297 1175
151 1275 1206
149 1291 1238
147 1321 1280
138 1325 1322
139 1344 1373
140 1366 1428
151 1430 1505
165 1508 1580
180 1527 1654
184 1515 1740
196 1492 1859
207 1432 1950
220 1357 2041
232 1291 2126
240 1239 2223
253 1215 2340
140 1666 1197
146 1675 1239
140 1682 1290
132 1699 1336
125 1709 1395
121 1729 1453
109 1745 1506
108 1760 1576
116 1809 1662
123 1802 1755
129 1765 1860
132 1748 1980
134 1714 2088
133 1650 2187
135 1581 2273
140 1523 2367
152 1500 2511
104 2054 1213
113 2066 1266
115 2091 1330
112 2116 1392
100 2130 1449
89 2141 1520
72 2161 1581
62 2171 1653
61 2187 1734
62 2139 1825
65 2085 1935
68 2059 2055
68 2062 2203
66 2035 2320
65 1987 2433
66 1943 2546
77 1893 2676
63 2439 1225
65 2452 1286
66 2471 1355
66 2504 1426
60 2516 1494
50 2521 1568
51 2538 1651
45 2549 1728
45 2567 1812
43 2564 1909
39 2506 2018
44 2460 2151
45 2451 2305
45 2464 2463
44 2476 2602
46 2469 2728
53 2419 2840
49 2784 1247
49 2800 1323
49 2819 1386
49 2845 1453
47 2860 1530
38 2860 1606
45 2878 1700
47 2892 1795
44 2911 1887
35 2922 1991
32 2926 2107
34 2878 2252
34 2844 2396
36 2853 2560
34 2910 2738
35 2963 2881
45 2962 2998
47 3081 1270
48 3097 1357
47 3114 1431
47 3134 1492
47 3149 1561
45 3165 1641
46 3172 1743
46 3189 1852
43 3210 1961
31 3222 2068
24 3224 2186
32 3233 2330
32 3208 2496
34 3192 2643
36 3219 2819
26 3270 2966
32 3304 3088
36 3274 1305
41 3285 1382
38 3296 1452
37 3311 1526
40 3323 1606
36 3332 1685
36 3343 1770
36 3349 1873
36 3357 1984
32 3370 2111
27 3381 2249
31 3392 2397
30 3385 2551
28 3365 2690
31 3360 2829
29 3383 2963
22 3407 3061
32 3388 1321
33 3397 1392
34 3410 1470
32 3421 1549
32 3429 1632
29 3430 1714
30 3442 1802
32 3453 1898
32 3460 2002
30 3465 2127
26 3473 2267
32 3485 2428
28 3476 2564
24 3472 2705
24 3458 2822
28 3459 2932
25 3472 3023
32 3448 1320
31 3468 1388
28 3481 1467
30 3488 1554
28 3491 1642
21 3481 1726
22 3487 1813
30 3508 1913
32 3517 2009
32 3521 2126
28 3526 2258
28 3527 2411
27 3527 2558
22 3523 2684
27 3529 2819
29 3521 2918
23 3520 2989
32 3481 1326
28 3507 1398
24 3514 1476
26 3516 1557
29 3524 1643
21 3522 1730
20 3523 1816
27 3537 1915
32 3551 2016
32 3555 2122
31 3555 2242
23 3553 2388
24 3555 2536
26 3555 2672
23 3556 2794
29 3563 2902
29 3555 2972
32 3523 1329
22 3529 1413
28 3544 1499
36 3547 1577
41 3552 1662
33 3555 1745
30 3555 1825
24 3559 1909
28 3571 2010
32 3583 2128
32 3583 2246
32 3573 2375
32 3575 2520
32 3580 2668
28 3575 2792
22 3575 2879
32 3587 2946
80 167 1035
103 202 1053
120 263 1081
145 345 1114
176 424 1144
207 514 1181
240 627 1202
270 749 1225
306 863 1266
374 946 1306
438 1014 1338
516 1130 1391
615 1206 1432
737 1262 1456
890 1335 1498
1052 1405 1554
1234 1478 1620
94 200 1045
118 268 1077
146 335 1105
178 425 1143
210 515 1179
243 616 1212
267 709 1234
304 826 1270
359 925 1312
432 1005 1359
514 1077 1404
610 1147 1456
737 1207 1504
875 1251 1558
1013 1284 1624
1148 1304 1687
1292 1333 1758
116 266 1073
142 349 1110
153 380 1121
182 454 1153
217 554 1192
251 655 1230
285 759 1269
315 853 1305
370 936 1355
440 1014 1409
516 1083 1461
622 1138 1524
722 1178 1593
827 1198 1652
935 1192 1725
1031 1171 1800
1139 1160 1897
142 381 1105
171 491 1143
179 526 1157
181 535 1171
212 634 1212
244 726 1256
276 821 1311
307 920 1358
345 985 1401
410 1046 1466
476 1112 1532
558 1154 1603
628 1167 1688
698 1155 1770
765 1120 1860
831 1075 1946
903 1036 2040
162 618 1136
194 726 1172
201 768 1196
199 781 1215
200 810 1244
228 878 1293
251 965 1360
282 1046 1419
314 1116 1474
358 1158 1539
415 1194 1622
475 1213 1705
509 1197 1796
552 1167 1891
598 1113 1992
643 1055 2096
690 1000 2191
176 966 1167
209 1049 1206
213 1075 1234
211 1086 1263
206 1097 1294
203 1103 1336
222 1185 1415
245 1238 1478
272 1286 1549
301 1321 1622
337 1326 1713
382 1310 1815
395 1261 1910
424 1219 2016
456 1162 2112
491 1097 2205
516 1026 2299
195 1326 1179
208 1394 1226
207 1412 1265
208 1423 1310
204 1428 1357
206 1443 1415
207 1469 1480
218 1519 1561
231 1548 1636
241 1549 1721
250 1533 1826
269 1491 1936
284 1432 2036
298 1365 2129
310 1311 2225
327 1268 2330
351 1246 2459
176 1713 1204
201 1785 1259
195 1791 1314
186 1798 1367
180 1812 1427
177 1823 1490
169 1829 1555
165 1856 1631
170 1870 1721
170 1855 1818
169 1835 1941
172 1806 2069
176 1761 2181
180 1693 2275
190 1618 2365
201 1563 2471
218 1552 2609
144 2115 1216
152 2181 1277
149 2201 1345
140 2211 1414
128 2225 1480
121 2234 1552
109 2230 1626
99 2256 1700
92 2274 1785
88 2225 1886
88 2184 2012
90 2160 2153
93 2160 2304
91 2113 2424
90 2050 2531
106 1988 2640
127 1954 2761
78 2506 1227
80 2552 1296
83 2574 1369
80 2592 1442
75 2610 1520
67 2615 1597
65 2625 1683
61 2649 1771
59 2670 1861
56 2661 1961
55 2601 2081
60 2561 2236
64 2562 2414
64 2578 2576
62 2564 2703
72 2535 2816
89 2494 2921
54 2844 1251
54 2885 1332
55 2905 1398
56 2925 1465
57 2948 1545
52 2949 1631
53 2973 1728
54 2992 1832
52 3010 1935
49 3024 2043
49 3022 2167
52 2971 2320
53 2940 2498
54 2974 2676
55 3019 2834
58 3042 2960
70 3026 3058
57 3127 1263
55 3153 1363
53 3172 1436
54 3191 1501
57 3212 1575
56 3227 1659
54 3241 1764
55 3258 1882
52 3274 1998
48 3282 2115
46 3285 2245
49 3292 2395
51 3265 2566
51 3264 2727
54 3294 2895
52 3324 3029
56 3333 3132
61 3308 1282
56 3315 1374
55 3328 1456
54 3345 1535
55 3359 1617
54 3371 1701
54 3383 1784
52 3394 1897
52 3406 2019
51 3416 2147
49 3419 2283
51 3419 2442
48 3420 2590
49 3406 2735
51 3407 2875
52 3427 3008
52 3438 3098
69 3424 1296
57 3424 1385
56 3434 1468
55 3446 1552
54 3455 1642
52 3463 1730
53 3479 1807
53 3486 1907
52 3491 2022
53 3497 2150
51 3500 2289
52 3507 2455
49 3502 2599
49 3499 2739
50 3487 2864
52 3494 2974
51 3502 3060
70 3491 1284
58 3491 1379
54 3496 1464
58 3505 1554
57 3511 1646
51 3512 1735
51 3519 1815
54 3531 1916
54 3538 2024
53 3544 2146
52 3547 2282
51 3551 2443
50 3548 2593
48 3547 2730
51 3548 2861
53 3546 2960
51 3548 3021
68 3519 1277
60 3525 1379
53 3529 1464
52 3535 1553
54 3542 1643
50 3547 1734
50 3549 1816
52 3556 1920
54 3567 2031
53 3572 2141
52 3573 2270
49 3576 2423
48 3576 2580
48 3578 2723
48 3577 2840
53 3584 2949
54 3584 3007
68 3542 1269
55 3543 1381
53 3553 1475
56 3560 1562
61 3568 1657
54 3572 1745
53 3578 1829
51 3576 1919
52 3587 2029
54 3599 2146
52 3600 2275
52 3593 2411
50 3598 2570
48 3600 2720
48 3600 2835
48 3602 2916
54 3615 2991
112 241 1065
124 269 1077
123 276 1084
145 345 1114
176 424 1144
207 514 1181
240 627 1202
270 749 1225
306 863 1266
374 946 1306
439 1012 1340
519 1121 1396
628 1194 1442
755 1247 1473
929 1316 1529
1112 1370 1591
1297 1426 1661
115 257 1073
145 331 1105
161 364 1113
190 444 1146
222 532 1184
256 632 1220
283 723 1248
324 834 1287
386 929 1331
464 1001 1387
558 1068 1437
676 1129 1489
809 1177 1544
951 1208 1601
1084 1228 1673
1212 1226 1741
1355 1230 1820
123 289 1077
163 383 1115
192 465 1144
228 548 1175
269 646 1222
304 745 1273
350 842 1324
402 916 1369
474 990 1417
571 1061 1473
676 1114 1529
793 1147 1597
916 1161 1672
1027 1158 1735
1128 1122 1817
1215 1085 1898
1334 1053 1992
150 425 1108
193 538 1141
226 638 1177
237 661 1195
280 748 1243
315 832 1307
354 919 1369
408 989 1425
465 1049 1469
559 1100 1536
658 1142 1608
756 1149 1683
837 1129 1772
912 1099 1866
998 1054 1959
1080 1000 2045
1162 952 2143
184 675 1141
224 786 1169
257 883 1209
268 910 1232
276 923 1272
305 980 1339
339 1049 1411
388 1121 1480
441 1175 1542
505 1196 1609
587 1210 1695
656 1204 1787
713 1161 1881
773 1109 1985
832 1052 2088
892 1000 2194
966 958 2289
214 1017 1171
248 1113 1203
281 1178 1242
292 1192 1282
291 1198 1321
288 1195 1373
320 1251 1459
354 1306 1533
395 1338 1611
434 1344 1692
493 1325 1786
546 1297 1899
574 1248 1999
626 1195 2104
675 1134 2203
717 1070 2302
766 1016 2401
235 1378 1189
263 1450 1227
288 1507 1275
298 1522 1325
300 1520 1381
306 1532 1446
303 1546 1529
308 1589 1614
322 1595 1694
338 1574 1789
364 1536 1899
408 1486 2018
422 1428 2117
451 1379 2217
473 1323 2317
498 1287 2429
538 1282 2571
223 1761 1209
256 1835 1260
271 1882 1320
268 1889 1376
265 1891 1444
264 1897 1520
256 1901 1597
243 1924 1681
237 1929 1774
234 1900 1880
238 1878 2015
250 1842 2153
258 1777 2266
271 1713 2366
285 1645 2459
299 1609 2566
320 1618 2713
185 2179 1220
197 2233 1285
206 2277 1355
202 2281 1425
191 2293 1499
177 2303 1578
163 2307 1663
153 2323 1743
141 2353 1836
133 2308 1949
133 2265 2082
137 2244 2242
144 2222 2395
146 2168 2517
153 2091 2618
174 2028 2727
192 2015 2840
111 2568 1227
115 2614 1304
119 2657 1380
121 2665 1453
117 2681 1533
103 2695 1616
98 2712 1717
92 2730 1808
86 2761 1906
82 2751 2017
84 2692 2151
96 2653 2316
100 2653 2504
101 2659 2667
105 2628 2783
119 2580 2887
143 2540 2986
71 2903 1246
75 2951 1336
76 2986 1414
81 2998 1481
89 3016 1561
79 3030 1650
78 3058 1755
80 3073 1864
75 3095 1977
70 3108 2095
69 3104 2237
82 3053 2395
89 3031 2577
85 3059 2764
91 3095 2914
101 3094 3021
119 3068 3106
89 3174 1251
80 3207 1355
79 3231 1441
78 3246 1512
89 3263 1591
90 3279 1681
84 3293 1787
85 3310 1906
79 3330 2032
70 3338 2156
66 3342 2302
72 3347 2472
84 3316 2636
81 3316 2803
88 3342 2963
91 3355 3073
103 3348 3164
99 3338 1263
87 3349 1358
84 3361 1450
84 3377 1538
89 3394 1627
88 3407 1715
87 3415 1800
83 3424 1915
79 3435 2041
76 3446 2172
76 3450 2313
86 3449 2484
75 3450 2635
76 3437 2782
83 3442 2924
88 3456 3047
93 3454 3128
129 3452 1270
106 3451 1364
97 3458 1457
91 3466 1551
88 3478 1646
85 3485 1737
89 3497 1817
87 3504 1918
84 3510 2041
90 3518 2173
84 3519 2306
89 3524 2478
78 3523 2629
78 3519 2771
81 3515 2894
87 3522 3006
95 3523 3090
132 3515 1251
115 3514 1360
97 3513 1453
97 3517 1552
93 3524 1648
85 3525 1743
87 3535 1828
95 3547 1928
94 3553 2041
93 3559 2169
91 3562 2304
86 3566 2465
84 3566 2620
78 3562 2763
86 3566 2895
93 3567 2991
93 3567 3048
122 3543 1239
112 3546 1354
94 3542 1452
90 3545 1550
91 3552 1645
88 3555 1742
89 3559 1831
94 3568 1934
96 3579 2049
91 3585 2163
87 3587 2293
83 3590 2451
80 3592 2607
80 3595 2755
80 3595 2875
93 3600 2983
97 3602 3035
120 3560 1228
105 3557 1347
98 3565 1462
96 3571 1552
98 3580 1652
93 3583 1746
93 3586 1841
89 3587 1934
92 3598 2047
95 3611 2172
88 3615 2300
84 3613 2446
83 3615 2599
77 3619 2749
75 3617 2868
80 3618 2948
96 3631 3022
145 325 1098
154 348 1116
150 346 1110
150 349 1116
180 420 1144
212 510 1181
243 624 1202
271 748 1227
308 861 1269
380 943 1316
449 1004 1353
536 1097 1412
671 1159 1469
817 1208 1516
992 1254 1578
1182 1299 1642
1360 1325 1704
147 340 1109
186 420 1128
202 439 1133
222 455 1144
250 531 1183
285 625 1226
313 716 1265
354 819 1310
418 925 1356
505 993 1409
611 1047 1462
750 1104 1518
882 1135 1583
1021 1150 1646
1149 1146 1716
1269 1129 1798
