src-tauri/resources/luts/大片质感.cube
# Converted from .3dl (size 17x17x17) using Python
LUT_3D_SIZE 5
DOMAIN_MIN 0.0 0.0 0.0
DOMAIN_MAX 1.0 1.0 1.0
0.011722 0.027350 0.242491
0.042247 0.101832 0.274725
0.100366 0.207814 0.303053
0.351160 0.335775 0.362393
0.707692 0.473016 0.430037
0.038339 0.136752 0.275702
0.080830 0.196093 0.263736
0.348474 0.319902 0.242247
0.670574 0.425397 0.314530
0.919902 0.627106 0.446398
0.025397 0.501587 0.296215
0.085714 0.545788 0.290843
0.547985 0.535287 0.260806
0.832967 0.647375 0.326496
0.947985 0.750672 0.411966
0.008791 0.799512 0.318681
0.052259 0.826374 0.298901
0.577289 0.807326 0.312088
0.856410 0.784127 0.355311
0.929670 0.808547 0.366300
0.007814 0.860317 0.324542
0.085226 0.864469 0.293285
0.621734 0.837607 0.302076
0.828327 0.813187 0.343101
0.895482 0.817094 0.351893
0.042979 0.103541 0.279365
0.049573 0.103541 0.280098
0.178999 0.183883 0.313797
0.482784 0.286203 0.370696
0.772650 0.481319 0.459585
0.038828 0.167766 0.294261
0.156532 0.261783 0.317949
0.452747 0.319902 0.323810
0.738950 0.388278 0.358974
0.953358 0.601954 0.490354
0.024420 0.520147 0.353846
0.120391 0.569231 0.357265
0.568498 0.538462 0.342125
0.817582 0.603663 0.374847
0.965812 0.685226 0.443468
0.009768 0.811477 0.392186
0.047375 0.834188 0.403175
0.597558 0.808791 0.400000
0.854945 0.785348 0.424908
0.953358 0.793407 0.416361
0.010012 0.867399 0.405861
0.063736 0.874481 0.409768
0.642247 0.863004 0.407814
0.873016 0.834676 0.449084
0.924298 0.839316 0.444200
0.074725 0.210745 0.309158
0.078632 0.206593 0.314042
0.190965 0.187302 0.350672
0.548474 0.270330 0.412943
0.841026 0.446398 0.499878
0.060562 0.251282 0.346032
0.243712 0.297924 0.413187
0.514530 0.305739 0.448107
0.799023 0.377534 0.499634
0.963126 0.563126 0.583394
0.014896 0.534066 0.423443
0.095482 0.586813 0.473993
0.626862 0.573138 0.516972
0.830281 0.601709 0.536508
0.976801 0.633211 0.555311
0.008791 0.819780 0.484493
0.046886 0.841026 0.509646
0.615140 0.824908 0.565568
0.851282 0.787546 0.565568
0.970208 0.790232 0.563614
0.006838 0.872039 0.490842
0.060317 0.875946 0.515263
0.641270 0.873016 0.581197
0.905983 0.871795 0.605372
0.952381 0.881074 0.611966
0.149695 0.294750 0.349451
0.180952 0.274969 0.366056
0.350916 0.227106 0.406105
0.636874 0.240049 0.455922
0.900366 0.416850 0.568987
0.091575 0.294506 0.416606
0.337241 0.257631 0.499145
0.608547 0.278388 0.555067
0.883272 0.402198 0.611722
0.969231 0.606593 0.697924
0.016606 0.503541 0.537973
0.095482 0.565812 0.622466
0.738462 0.523321 0.690843
0.899145 0.630525 0.705739
0.976801 0.666178 0.724054
0.007326 0.826618 0.622955
0.044689 0.845910 0.658852
0.494017 0.837607 0.687668
0.887424 0.812943 0.725031
0.978510 0.805128 0.735287
0.007814 0.873016 0.615385
0.053724 0.883761 0.648107
0.552869 0.876923 0.691575
0.932357 0.882051 0.739438
0.966789 0.884737 0.750183
0.297192 0.363614 0.387057
0.339927 0.290354 0.431258
0.484249 0.175580 0.497680
0.779976 0.241026 0.586813
0.942369 0.433944 0.652991
0.128694 0.261050 0.508425
0.419536 0.219780 0.610989
0.741880 0.217582 0.689622
0.930891 0.368987 0.737241
0.979243 0.649573 0.758242
0.018803 0.462271 0.653480
0.153602 0.519902 0.728449
0.748230 0.455189 0.765324
0.941148 0.589011 0.770208
0.982173 0.767033 0.773138
0.005372 0.831990 0.747497
0.055922 0.842735 0.771184
0.537973 0.819292 0.776068
0.935043 0.815873 0.782173
0.976801 0.854701 0.788523
0.007814 0.875946 0.719414
0.060317 0.887668 0.747009
0.527473 0.883761 0.757509
0.925519 0.883516 0.778022
0.969719 0.883761 0.781929
