src-tauri/resources/luts/大片质感.3dl
# LUT by SparkleStock. Enhanced with VOXCOLOR algorithms.
0 128 256 384 512 640 768 896 1023
48 112 993
120 263 1081
176 424 1144
240 627 1202
306 863 1266
438 1014 1338
613 1207 1431
879 1340 1489
1217 1489 1585
116 257 1073
131 278 1084
179 450 1159
244 650 1219
301 864 1292
403 1010 1390
547 1174 1503
770 1236 1630
993 1259 1774
157 560 1129
165 609 1168
159 687 1205
197 856 1303
248 1029 1417
297 1162 1549
375 1206 1706
455 1161 1896
527 1069 2082
157 1297 1175
149 1291 1238
138 1325 1322
140 1366 1428
165 1508 1580
184 1515 1740
207 1432 1950
232 1291 2126
253 1215 2340
104 2054 1213
115 2091 1330
100 2130 1449
72 2161 1581
61 2187 1734
65 2085 1935
68 2062 2203
65 1987 2433
77 1893 2676
49 2784 1247
49 2819 1386
47 2860 1530
45 2878 1700
44 2911 1887
32 2926 2107
34 2844 2396
34 2910 2738
45 2962 2998
36 3274 1305
38 3296 1452
40 3323 1606
36 3343 1770
36 3357 1984
27 3381 2249
30 3385 2551
31 3360 2829
22 3407 3061
32 3448 1320
28 3481 1467
28 3491 1642
22 3487 1813
32 3517 2009
28 3526 2258
27 3527 2558
27 3529 2819
23 3520 2989
32 3523 1329
28 3544 1499
41 3552 1662
30 3555 1825
28 3571 2010
32 3583 2246
32 3575 2520
28 3575 2792
32 3587 2946
112 241 1065
123 276 1084
176 424 1144
240 627 1202
306 863 1266
439 1012 1340
628 1194 1442
929 1316 1529
1297 1426 1661
123 289 1077
192 465 1144
269 646 1222
350 842 1324
474 990 1417
676 1114 1529
916 1161 1672
1128 1122 1817
1334 1053 1992
184 675 1141
257 883 1209
276 923 1272
339 1049 1411
441 1175 1542
587 1210 1695
713 1161 1881
832 1052 2088
966 958 2289
235 1378 1189
288 1507 1275
300 1520 1381
303 1546 1529
322 1595 1694
364 1536 1899
422 1428 2117
473 1323 2317
538 1282 2571
185 2179 1220
206 2277 1355
191 2293 1499
163 2307 1663
141 2353 1836
133 2265 2082
144 2222 2395
153 2091 2618
192 2015 2840
71 2903 1246
76 2986 1414
89 3016 1561
78 3058 1755
75 3095 1977
69 3104 2237
89 3031 2577
91 3095 2914
119 3068 3106
99 3338 1263
84 3361 1450
89 3394 1627
87 3415 1800
79 3435 2041
76 3450 2313
75 3450 2635
83 3442 2924
93 3454 3128
132 3515 1251
97 3513 1453
93 3524 1648
87 3535 1828
94 3553 2041
91 3562 2304
84 3566 2620
86 3566 2895
93 3567 3048
120 3560 1228
98 3565 1462
98 3580 1652
93 3586 1841
92 3598 2047
88 3615 2300
83 3615 2599
75 3617 2868
96 3631 3022
173 417 1125
188 423 1136
203 424 1147
257 609 1208
322 846 1286
484 989 1389
741 1126 1499
1090 1182 1627
1392 1189 1766
221 491 1108
364 676 1160
428 694 1231
524 837 1379
655 976 1503
905 1070 1603
1162 1056 1760
1368 956 1941
1587 863 2136
331 803 1080
513 969 1148
641 1072 1302
787 1149 1505
998 1220 1692
1204 1174 1849
1381 1055 2044
1535 954 2275
1718 900 2502
483 1454 1136
621 1540 1190
749 1607 1364
767 1624 1590
862 1622 1832
918 1555 2051
997 1458 2283
1155 1349 2514
1339 1349 2781
351 2235 1191
450 2284 1279
493 2331 1463
455 2345 1691
391 2403 1941
336 2373 2240
391 2317 2549
502 2155 2777
629 2129 2983
160 3011 1227
207 3051 1381
229 3080 1567
231 3107 1788
194 3183 2067
170 3201 2353
205 3150 2727
224 3154 3002
280 3051 3144
214 3384 1224
187 3398 1432
194 3416 1651
196 3434 1837
192 3444 2087
186 3458 2368
183 3464 2698
204 3454 2983
229 3451 3158
323 3509 1220
263 3525 1437
228 3531 1665
215 3531 1871
229 3549 2094
221 3561 2350
205 3576 2666
217 3579 2938
233 3575 3086
349 3540 1201
299 3568 1428
261 3581 1678
251 3586 1889
247 3587 2110
242 3613 2358
220 3619 2654
223 3631 2921
247 3635 3059
252 612 1164
321 598 1175
386 579 1202
398 578 1259
451 773 1362
665 961 1451
1017 1042 1585
1324 1008 1722
1592 896 1895
458 765 1086
718 864 1149
846 841 1263
898 837 1426
1076 946 1614
1287 1014 1702
1516 955 1848
1746 823 2052
1988 745 2279
753 1097 1019
1025 1167 1105
1217 1207 1304
1330 1194 1532
1544 1215 1789
1708 1156 1979
1895 1051 2150
2114 946 2401
2350 867 2675
1109 1506 1035
1326 1554 1102
1471 1590 1318
1619 1639 1620
1771 1619 1936
1946 1550 2213
2115 1403 2461
2225 1245 2707
2361 1241 2937
1020 2234 1066
1206 2246 1180
1316 2266 1395
1400 2303 1696
1393 2377 2039
1472 2374 2393
1646 2207 2679
1802 2068 2902
1993 2074 3075
726 3016 1175
880 3011 1291
978 3016 1525
994 3034 1810
936 3122 2154
837 3185 2456
905 3088 2819
1082 3004 3033
1326 2890 3143
884 3374 1206
880 3384 1401
933 3388 1659
886 3388 1927
863 3427 2202
790 3446 2460
513 3450 2740
575 3453 3018
655 3437 3171
1172 3474 1187
1098 3497 1412
1036 3510 1680
985 3514 1959
979 3537 2216
926 3551 2469
604 3561 2716
609 3573 2974
671 3574 3104
1403 3504 1175
1322 3547 1382
1216 3559 1675
1111 3570 1981
1117 3574 2239
1047 3591 2474
747 3603 2721
748 3613 2949
841 3623 3074
411 851 1241
595 795 1228
733 753 1285
788 735 1384
782 767 1436
1072 916 1512
1437 930 1663
1705 799 1824
1983 719 2038
914 1011 1096
1284 1015 1159
1464 965 1311
1577 944 1518
1643 946 1682
1827 987 1822
2024 947 1951
2286 849 2192
2608 790 2438
1427 1310 992
1695 1302 1089
1854 1310 1326
1969 1276 1586
2107 1252 1835
2285 1232 2089
2492 1140 2273
2774 1034 2555
3038 891 2824
1856 1702 993
1983 1684 1071
2085 1698 1335
2189 1731 1656
2392 1707 1969
2576 1675 2307
2784 1525 2576
2999 1334 2841
3130 1308 3052
2244 2192 1068
2266 2177 1150
2328 2205 1401
2407 2249 1731
2567 2347 2117
2849 2350 2510
3024 2143 2829
3001 1871 3010
3064 1864 3134
2254 2942 1178
2274 2913 1270
2326 2902 1500
2386 2933 1828
2520 3045 2247
2564 3110 2581
2611 2990 2873
2714 2798 3044
2811 2726 3145
2364 3306 1278
2410 3307 1411
2447 3312 1638
2461 3342 1935
2519 3378 2316
2489 3412 2617
2023 3430 2816
2072 3399 3066
2203 3355 3178
2450 3408 1248
2499 3447 1439
2539 3485 1686
2559 3514 1997
2557 3533 2354
2503 3539 2638
2086 3558 2826
1785 3558 3017
1885 3571 3128
2546 3430 1237
2613 3480 1429
2630 3534 1670
2613 3565 1988
2626 3575 2380
2588 3579 2643
2264 3591 2832
2078 3609 3012
2160 3619 3102
771 1100 1359
1083 1025 1337
1294 953 1394
1454 916 1492
1578 942 1573
1726 918 1595
1980 862 1753
2279 776 1968
2636 783 2228
1541 1232 1178
1919 1173 1225
2104 1088 1367
2225 1044 1582
2312 1050 1790
2435 1039 1891
2665 1029 2070
2933 968 2342
3208 852 2610
2105 1504 1072
2307 1434 1128
2451 1420 1367
2556 1361 1630
2705 1338 1924
2912 1337 2161
3140 1306 2394
3383 1203 2697
3558 1044 2953
2513 1884 1073
2581 1819 1118
2661 1819 1381
2761 1840 1706
2939 1798 2052
3184 1831 2378
3400 1714 2688
3586 1578 2947
3658 1494 3118
2866 2414 1153
2870 2367 1231
2877 2345 1451
2926 2357 1779
3076 2463 2191
3347 2498 2554
3489 2333 2866
3555 2087 3040
3597 2015 3154
3089 2892 1275
3061 2861 1379
3069 2852 1589
3091 2863 1891
3207 2935 2296
3321 3022 2627
3459 2945 2929
3555 2797 3092
3530 2630 3173
3150 3203 1417
3172 3218 1549
3211 3233 1747
3221 3245 1995
3259 3292 2325
3332 3336 2663
3230 3387 2910
3311 3370 3103
3368 3295 3182
3156 3348 1388
3238 3376 1569
3315 3415 1799
3334 3463 2049
3349 3515 2361
3388 3533 2716
3278 3550 2936
3097 3564 3081
3128 3551 3178
3127 3365 1355
3228 3416 1534
3329 3460 1781
3394 3524 2063
3451 3572 2423
3503 3590 2774
3359 3589 2949
3222 3603 3081
3174 3615 3142
1438 1375 1484
1764 1288 1487
1977 1172 1518
2118 1124 1613
2246 1107 1691
2381 1042 1745
2608 983 1867
2894 958 2107
3194 987 2403
2185 1492 1368
2491 1413 1379
2667 1308 1491
2794 1260 1687
2915 1265 1904
3061 1295 2052
3242 1271 2197
3439 1229 2477
3622 1136 2756
2746 1742 1288
2914 1643 1293
3026 1590 1470
3133 1542 1729
3272 1546 2046
3450 1609 2311
3617 1647 2505
3745 1598 2794
3812 1511 3019
3137 2156 1302
3175 2030 1289
3226 1977 1480
3279 1955 1765
3405 1921 2130
3572 1988 2496
3735 2087 2772
3842 2057 2987
3879 1958 3141
3411 2651 1337
3386 2574 1393
3348 2472 1535
3335 2416 1805
3400 2464 2197
3559 2489 2584
3682 2582 2890
3791 2481 3073
3854 2412 3154
3534 3033 1407
3503 2996 1513
3450 2929 1655
3406 2866 1881
3437 2897 2264
3529 2956 2630
3646 3017 2930
3762 3005 3132
3827 2944 3191
3507 3211 1455
3532 3232 1604
3501 3216 1740
3474 3209 1977
3486 3225 2316
3544 3275 2671
3634 3329 2969
3768 3363 3155
3829 3341 3203
3445 3307 1439
3504 3343 1611
3533 3387 1795
3542 3430 2048
3570 3490 2380
3611 3520 2716
3697 3543 2995
3739 3565 3133
3767 3563 3202
3392 3330 1405
3483 3374 1587
3575 3418 1839
3645 3492 2147
3710 3570 2479
3772 3602 2789
3818 3612 3028
3796 3611 3132
3790 3618 3186
2104 1601 1612
2314 1590 1640
2510 1544 1686
2699 1485 1764
2883 1457 1865
3063 1386 1976
3258 1338 2109
3435 1274 2263
3617 1214 2544
2834 1896 1652
3086 1832 1649
3205 1742 1717
3330 1708 1882
3434 1702 2071
3554 1711 2251
3668 1688 2419
3755 1711 2605
3847 1668 2862
3346 2157 1588
3483 2058 1596
3562 1979 1708
3628 1935 1926
3699 1950 2206
3784 1986 2489
3855 2089 2703
3908 2210 2883
3943 2110 3073
3636 2555 1596
3670 2417 1583
3689 2282 1683
3712 2200 1903
3753 2168 2237
3807 2221 2585
3863 2343 2866
3930 2542 3021
3966 2470 3147
3744 2890 1571
3753 2810 1622
3722 2644 1679
3701 2517 1874
3718 2513 2222
3776 2508 2602
3831 2624 2921
3896 2791 3104
3957 2834 3157
3775 3162 1557
3772 3097 1640
3732 2980 1698
3705 2895 1909
3725 2908 2269
3763 2918 2631
3815 2985 2959
3883 3126 3159
3965 3173 3200
3747 3289 1488
3752 3288 1616
3727 3246 1710
3715 3223 1947
3726 3234 2302
3757 3261 2675
3814 3304 2996
3896 3385 3188
3962 3442 3212
3671 3334 1444
3709 3370 1597
3712 3414 1747
3711 3450 2006
3739 3497 2359
3779 3520 2724
3830 3538 3021
3908 3572 3185
3963 3584 3217
3573 3318 1413
3643 3363 1598
3713 3426 1850
3742 3520 2127
3805 3586 2503
3859 3610 2821
3916 3605 3052
3955 3621 3171
3961 3635 3202
2898 1937 1761
3042 1969 1825
3164 1971 1882
3288 1918 1947
3444 1828 2047
3575 1764 2193
3687 1707 2330
3788 1686 2507
3859 1777 2674
3463 2291 1841
3598 2279 1918
3655 2206 1985
3737 2169 2106
3785 2148 2265
3849 2120 2457
3886 2102 2636
3927 2199 2813
3971 2315 2970
3767 2568 1828
3841 2533 1911
3904 2465 2008
3939 2357 2179
3944 2306 2389
3959 2359 2644
3969 2484 2858
3992 2613 3008
4010 2660 3105
3895 2898 1797
3923 2860 1903
3967 2660 1940
3984 2473 2074
3987 2373 2360
3986 2418 2663
3985 2548 2929
3998 2775 3072
4008 2855 3149
3882 3074 1687
3920 3005 1788
3955 2806 1816
3982 2664 1985
4000 2593 2274
4000 2614 2645
4000 2728 2965
4001 2916 3135
4022 3141 3166
3855 3203 1597
3883 3122 1664
3934 3007 1725
3969 2926 1943
3991 2915 2285
4021 2927 2647
4005 2996 2986
4015 3148 3183
4023 3322 3199
3807 3311 1500
3861 3291 1591
3904 3249 1705
3943 3215 1936
3973 3236 2308
3996 3262 2676
4007 3297 3011
4006 3391 3213
4000 3500 3229
3748 3342 1451
3791 3374 1586
3857 3431 1732
3917 3471 1993
3953 3510 2345
3972 3524 2718
3983 3544 3029
3990 3563 3207
3987 3587 3202
3667 3346 1441
3712 3371 1577
3785 3437 1819
3840 3534 2116
3900 3608 2506
3939 3612 2827
3959 3623 3072
3971 3619 3182
3971 3619 3202
