src-tauri/resources/luts/大片质感.3dl
# LUT by SparkleStock. Enhanced with VOXCOLOR algorithms.
0 256 512 768 1023
48 112 993
176 424 1144
306 863 1266
613 1207 1431
1217 1489 1585
157 560 1129
159 687 1205
248 1029 1417
375 1206 1706
527 1069 2082
104 2054 1213
100 2130 1449
61 2187 1734
68 2062 2203
77 1893 2676
36 3274 1305
40 3323 1606
36 3357 1984
30 3385 2551
22 3407 3061
32 3523 1329
41 3552 1662
28 3571 2010
32 3575 2520
32 3587 2946
173 417 1125
203 424 1147
322 846 1286
741 1126 1499
1392 1189 1766
331 803 1080
641 1072 1302
998 1220 1692
1381 1055 2044
1718 900 2502
351 2235 1191
493 2331 1463
391 2403 1941
391 2317 2549
629 2129 2983
214 3384 1224
194 3416 1651
192 3444 2087
183 3464 2698
229 3451 3158
349 3540 1201
261 3581 1678
247 3587 2110
220 3619 2654
247 3635 3059
411 851 1241
733 753 1285
782 767 1436
1437 930 1663
1983 719 2038
1427 1310 992
1854 1310 1326
2107 1252 1835
2492 1140 2273
3038 891 2824
2244 2192 1068
2328 2205 1401
2567 2347 2117
3024 2143 2829
3064 1864 3134
2364 3306 1278
2447 3312 1638
2519 3378 2316
2023 3430 2816
2203 3355 3178
2546 3430 1237
2630 3534 1670
2626 3575 2380
2264 3591 2832
2160 3619 3102
1438 1375 1484
1977 1172 1518
2246 1107 1691
2608 983 1867
3194 987 2403
2746 1742 1288
3026 1590 1470
3272 1546 2046
3617 1647 2505
3812 1511 3019
3411 2651 1337
3348 2472 1535
3400 2464 2197
3682 2582 2890
3854 2412 3154
3507 3211 1455
3501 3216 1740
3486 3225 2316
3634 3329 2969
3829 3341 3203
3392 3330 1405
3575 3418 1839
3710 3570 2479
3818 3612 3028
3790 3618 3186
2898 1937 1761
3164 1971 1882
3444 1828 2047
3687 1707 2330
3859 1777 2674
3767 2568 1828
3904 2465 2008
3944 2306 2389
3969 2484 2858
4010 2660 3105
3882 3074 1687
3955 2806 1816
4000 2593 2274
4000 2728 2965
4022 3141 3166
3807 3311 1500
3904 3249 1705
3973 3236 2308
4007 3297 3011
4000 3500 3229
3667 3346 1441
3785 3437 1819
3900 3608 2506
3959 3623 3072
3971 3619 3202
