src-tauri/resources/luts/大片质感.cube
# Converted from .3dl (size 17x17x17) using Python
LUT_3D_SIZE 9
DOMAIN_MIN 0.0 0.0 0.0
DOMAIN_MAX 1.0 1.0 1.0
0.011722 0.027350 0.242491
0.027350 0.058852 0.260073
0.042247 0.101832 0.274725
0.061538 0.149451 0.284249
0.100366 0.207814 0.303053
0.188278 0.268620 0.331868
0.351160 0.335775 0.362393
0.513797 0.390965 0.393651
0.707692 0.473016 0.430037
0.028327 0.062759 0.262027
0.030037 0.070574 0.263004
0.053968 0.119902 0.270574
0.111844 0.186813 0.265201
0.223199 0.246886 0.267643
0.376313 0.300855 0.287668
0.533578 0.364347 0.334066
0.692064 0.463004 0.403419
0.845665 0.559463 0.449573
0.038339 0.136752 0.275702
0.044933 0.164835 0.278632
0.080830 0.196093 0.263736
0.183883 0.267888 0.248840
0.348474 0.319902 0.242247
0.514042 0.367277 0.261783
0.670574 0.425397 0.314530
0.817094 0.526740 0.387790
0.919902 0.627106 0.446398
0.038339 0.316728 0.286935
0.057387 0.336508 0.290354
0.117949 0.355067 0.277411
0.270818 0.367766 0.252747
0.453236 0.415629 0.242491
0.613675 0.460073 0.262027
0.766056 0.526496 0.317949
0.887912 0.623932 0.389744
0.951160 0.707692 0.438828
0.025397 0.501587 0.296215
0.045177 0.532112 0.297924
0.085714 0.545788 0.290843
0.249084 0.545543 0.260317
0.547985 0.535287 0.260806
0.699878 0.589499 0.281563
0.832967 0.647375 0.326496
0.914286 0.705739 0.383639
0.947985 0.750672 0.411966
0.011966 0.679853 0.304518
0.017338 0.708913 0.304274
0.039072 0.735287 0.299634
0.177289 0.736508 0.286935
0.550427 0.718437 0.287668
0.754335 0.706227 0.311355
0.863004 0.740659 0.343590
0.921856 0.772161 0.380220
0.941392 0.782173 0.389988
0.008791 0.799512 0.318681
0.024176 0.815140 0.308425
0.052259 0.826374 0.298901
0.215873 0.823932 0.294506
0.577289 0.807326 0.312088
0.769231 0.782173 0.346032
0.856410 0.784127 0.355311
0.915018 0.803175 0.363370
0.929670 0.808547 0.366300
0.007814 0.842002 0.322344
0.032234 0.858364 0.305495
0.078877 0.856899 0.297924
0.286203 0.848352 0.289866
0.598291 0.832234 0.304762
0.770696 0.817582 0.338950
0.841270 0.807570 0.351404
0.896459 0.814164 0.352625
0.915263 0.816117 0.354335
0.007814 0.860317 0.324542
0.029304 0.869353 0.299878
0.085226 0.864469 0.293285
0.342613 0.855678 0.286935
0.621734 0.837607 0.302076
0.763614 0.821734 0.330891
0.828327 0.813187 0.343101
0.872527 0.810256 0.345055
0.895482 0.817094 0.351893
0.029304 0.064225 0.263980
0.030037 0.067399 0.264713
0.045910 0.103297 0.277411
0.078388 0.146032 0.286935
0.145299 0.194139 0.299878
0.264469 0.250305 0.326496
0.430769 0.314530 0.363126
0.565079 0.388278 0.400488
0.742857 0.480830 0.445665
0.031990 0.067888 0.264713
0.046886 0.113553 0.279365
0.088889 0.165079 0.283272
0.175336 0.210989 0.280586
0.313553 0.247863 0.283028
0.468620 0.286447 0.299145
0.608303 0.345055 0.336752
0.753602 0.447375 0.402686
0.878632 0.556532 0.468376
0.040293 0.148718 0.285226
0.062759 0.215629 0.295238
0.125275 0.236630 0.280342
0.250305 0.284982 0.269841
0.413919 0.317949 0.265934
0.563370 0.350183 0.275458
0.711600 0.401221 0.315751
0.850549 0.502564 0.389744
0.937973 0.618559 0.466667
0.036386 0.315263 0.302320
0.070330 0.368010 0.311355
0.151648 0.376068 0.290598
0.323810 0.379487 0.269109
0.484249 0.411233 0.261538
0.630281 0.444200 0.273016
0.775336 0.495726 0.314774
0.896215 0.590232 0.386569
0.957998 0.698413 0.464713
0.028083 0.510623 0.324786
0.050305 0.556044 0.330891
0.109890 0.557753 0.312332
0.294506 0.548474 0.288156
0.553358 0.531624 0.280830
0.700855 0.578022 0.300611
0.826862 0.628571 0.340171
0.916484 0.686203 0.396093
0.957265 0.733822 0.436630
0.011966 0.688401 0.338462
0.018559 0.729182 0.345299
0.050549 0.745055 0.337241
0.214896 0.735287 0.315263
0.555311 0.711355 0.310134
0.747497 0.698657 0.336752
0.855433 0.731624 0.369475
0.921123 0.756288 0.400488
0.948230 0.762393 0.406349
0.009280 0.804884 0.354579
0.020513 0.820757 0.354090
0.045665 0.829792 0.349695
0.214896 0.826374 0.342125
0.588523 0.807570 0.344567
0.774603 0.785836 0.378266
0.862515 0.789255 0.391697
0.916239 0.802930 0.394628
0.942857 0.803663 0.388523
0.006838 0.850061 0.358242
0.023687 0.857875 0.354823
0.064225 0.860806 0.350916
0.268132 0.853968 0.344811
0.610256 0.841758 0.351404
0.790720 0.824420 0.383150
0.855678 0.816361 0.393407
0.905739 0.822955 0.389988
0.925763 0.823932 0.387302
0.006838 0.865446 0.366056
0.023932 0.870574 0.357021
0.073016 0.871306 0.348718
0.322833 0.866178 0.337485
0.638095 0.849817 0.348962
0.788278 0.834188 0.374603
0.850549 0.823932 0.387546
0.889621 0.821245 0.390232
0.906471 0.823199 0.385104
0.042979 0.103541 0.279365
0.042979 0.103541 0.279365
0.049573 0.103541 0.280098
0.094261 0.141392 0.293529
0.178999 0.183883 0.313797
0.315995 0.232723 0.340415
0.482784 0.286203 0.370696
0.612943 0.377045 0.411722
0.772650 0.481319 0.459585
0.043712 0.109890 0.283028
0.065690 0.157753 0.298413
0.104518 0.169475 0.300611
0.206593 0.205372 0.308425
0.357509 0.235653 0.320147
0.513797 0.265690 0.333822
0.651282 0.319414 0.364103
0.782662 0.425397 0.419292
0.892552 0.538706 0.484737
0.038828 0.167766 0.294261
0.067399 0.225397 0.310623
0.156532 0.261783 0.317949
0.297192 0.294750 0.318437
0.452747 0.319902 0.323810
0.598535 0.346764 0.333822
0.738950 0.388278 0.358974
0.869841 0.483272 0.417094
0.953358 0.601954 0.490354
0.033700 0.323565 0.322833
0.073260 0.371184 0.337241
0.182906 0.392430 0.333089
0.359219 0.388278 0.321856
0.509158 0.414652 0.326007
0.649817 0.444200 0.337241
0.787790 0.482784 0.361416
0.900855 0.557265 0.410989
0.968742 0.649573 0.473748
0.024420 0.520147 0.353846
0.046642 0.559951 0.366056
0.120391 0.569231 0.357265
0.321368 0.553358 0.340659
0.568498 0.538462 0.342125
0.702564 0.572650 0.354335
0.817582 0.603663 0.374847
0.908913 0.645665 0.410012
0.965812 0.685226 0.443468
0.011477 0.698413 0.373626
0.021734 0.736508 0.381197
0.055922 0.752137 0.382662
0.238828 0.736508 0.372405
0.568010 0.708669 0.366300
0.749451 0.696459 0.388034
0.842491 0.715263 0.404151
0.911355 0.727717 0.414652
0.960684 0.734310 0.421245
0.009768 0.811477 0.392186
0.021734 0.828816 0.397314
0.047375 0.834188 0.403175
0.227839 0.827350 0.405128
0.597558 0.808791 0.400000
0.784127 0.789499 0.426618
0.854945 0.785348 0.424908
0.910134 0.792674 0.417582
0.953358 0.793407 0.416361
0.006838 0.852503 0.400977
0.022711 0.860562 0.402442
0.055678 0.862271 0.406593
0.252991 0.857143 0.410256
0.620024 0.851038 0.411722
0.809524 0.833944 0.439316
0.862759 0.827106 0.438339
0.906471 0.833700 0.426618
0.941880 0.837851 0.422955
0.010012 0.867399 0.405861
0.023932 0.874237 0.403419
0.063736 0.874481 0.409768
0.296948 0.869109 0.409035
0.642247 0.863004 0.407814
0.812943 0.844933 0.434921
0.873016 0.834676 0.449084
0.906716 0.836630 0.451770
0.924298 0.839316 0.444200
0.058608 0.153114 0.293529
0.058608 0.153114 0.293529
0.062759 0.148718 0.294994
0.097192 0.141148 0.307448
0.192430 0.179487 0.337973
0.355067 0.223687 0.364347
0.517216 0.274481 0.393895
0.659096 0.362637 0.430769
0.802930 0.468376 0.475458
0.059585 0.158730 0.297680
0.085470 0.205617 0.323321
0.127961 0.204396 0.336752
0.219292 0.204396 0.348230
0.385104 0.230525 0.370696
0.543346 0.254945 0.386325
0.682296 0.307692 0.411966
0.813187 0.417094 0.459585
0.912576 0.529670 0.514286
0.048107 0.209035 0.318193
0.082784 0.256166 0.344567
0.192186 0.280586 0.367521
0.324786 0.291575 0.374115
0.480830 0.311600 0.387302
0.624176 0.332357 0.398046
0.765079 0.376557 0.422222
0.885958 0.472527 0.470330
0.961905 0.575580 0.532112
0.034188 0.333578 0.348718
0.073993 0.377534 0.373382
0.187302 0.396581 0.388278
0.395360 0.400244 0.395604
0.534554 0.422711 0.404396
0.674237 0.449328 0.416606
0.800733 0.477411 0.431013
0.906471 0.537241 0.464713
0.972894 0.603907 0.506471
0.017582 0.527717 0.386081
0.039805 0.563370 0.406105
0.111111 0.572650 0.412943
0.341880 0.562393 0.414164
0.587790 0.549206 0.422711
0.714530 0.575580 0.434432
0.814408 0.589988 0.440781
0.903785 0.614652 0.457631
0.972405 0.650549 0.484737
0.010989 0.702808 0.415140
0.019048 0.746764 0.428571
0.056410 0.758730 0.436630
0.242735 0.740904 0.442002
0.582662 0.716239 0.446398
0.754823 0.699145 0.461783
0.831746 0.699878 0.459341
0.904762 0.706960 0.466178
0.969231 0.714530 0.474481
0.008791 0.816361 0.432234
0.021245 0.833944 0.439560
0.047863 0.838584 0.448596
0.216361 0.827350 0.470574
0.600977 0.816117 0.472527
0.786569 0.792430 0.487179
0.848352 0.783639 0.482784
0.907204 0.787057 0.475458
0.962882 0.785104 0.472772
0.005372 0.851526 0.442735
0.021245 0.863248 0.446398
0.052503 0.862271 0.456899
0.240537 0.858120 0.478388
0.624908 0.858120 0.487668
0.814164 0.845665 0.500366
0.864957 0.837607 0.500122
0.906227 0.842491 0.489866
0.956532 0.847619 0.486691
0.007326 0.868132 0.445665
0.022711 0.875702 0.449573
0.061294 0.875702 0.461294
0.271306 0.871795 0.483761
0.638095 0.870574 0.485470
0.828816 0.860562 0.503785
0.890110 0.852747 0.524298
0.913797 0.859585 0.519414
0.937729 0.863004 0.516728
0.074725 0.210745 0.309158
0.074725 0.210745 0.309158
0.078632 0.206593 0.314042
0.110134 0.188767 0.332601
0.190965 0.187302 0.350672
0.385348 0.230037 0.384127
0.548474 0.270330 0.412943
0.704029 0.355800 0.455433
0.841026 0.446398 0.499878
0.073504 0.210989 0.315507
0.115751 0.241758 0.346032
0.159951 0.238339 0.367033
0.262759 0.231013 0.394139
0.401221 0.231013 0.410745
0.564591 0.256410 0.437118
0.711844 0.308913 0.464957
0.838584 0.415629 0.505739
0.924298 0.524542 0.553114
0.060562 0.251282 0.346032
0.107692 0.286935 0.376557
0.243712 0.297924 0.413187
0.377045 0.296703 0.436874
0.514530 0.305739 0.448107
0.660562 0.326740 0.469841
0.799023 0.377534 0.499634
0.903297 0.476190 0.538706
0.963126 0.563126 0.583394
0.040293 0.368254 0.385836
0.078632 0.389499 0.413675
0.210501 0.396093 0.447375
0.432479 0.395360 0.472772
0.584127 0.416850 0.480830
0.717705 0.439072 0.501099
0.831502 0.469109 0.520147
0.916484 0.529426 0.546276
0.973626 0.579487 0.576313
0.014896 0.534066 0.423443
0.034432 0.574603 0.448352
0.095482 0.586813 0.473993
0.340171 0.580464 0.497924
0.626862 0.573138 0.516972
0.751160 0.601465 0.535043
0.830281 0.601709 0.536508
0.907937 0.613675 0.542613
0.976801 0.633211 0.555311
0.010745 0.710867 0.460806
0.018315 0.755800 0.482784
0.047375 0.777289 0.504762
0.228571 0.762393 0.526007
0.615385 0.743590 0.548718
0.783150 0.716728 0.560684
0.839316 0.707448 0.552869
0.909646 0.710134 0.554090
0.974603 0.711844 0.557998
0.008791 0.819780 0.484493
0.019292 0.838828 0.498413
0.046886 0.841026 0.509646
0.210745 0.836874 0.537729
0.615140 0.824908 0.565568
0.795849 0.803907 0.567766
0.851282 0.787546 0.565568
0.909890 0.789744 0.562149
0.970208 0.790232 0.563614
0.007814 0.858852 0.490598
0.022955 0.867643 0.498413
0.055922 0.866667 0.511355
0.239072 0.863736 0.541148
0.624420 0.862759 0.574847
0.817827 0.858364 0.576557
0.871795 0.852259 0.581197
0.913065 0.853968 0.576068
0.965324 0.857143 0.572650
0.006838 0.872039 0.490842
0.022466 0.878632 0.499878
0.060317 0.875946 0.515263
0.272772 0.872772 0.546764
0.641270 0.873016 0.581197
0.842735 0.872283 0.591697
0.905983 0.871795 0.605372
0.929182 0.875702 0.611233
0.952381 0.881074 0.611966
0.106960 0.247619 0.326740
0.107204 0.247131 0.327228
0.118193 0.241514 0.339194
0.162393 0.234676 0.354335
0.261783 0.223687 0.369231
0.421490 0.224176 0.389499
0.581441 0.254457 0.426129
0.747985 0.338462 0.482540
0.873016 0.430769 0.535531
0.098413 0.246642 0.339438
0.165079 0.272039 0.373382
0.221001 0.261294 0.391453
0.314286 0.247619 0.415629
0.446154 0.241026 0.444933
0.594628 0.253724 0.461783
0.747497 0.316239 0.501099
0.867888 0.417827 0.549695
0.939927 0.517705 0.600000
0.072527 0.283761 0.378266
0.143346 0.295482 0.413919
0.294017 0.286691 0.451526
0.417094 0.282295 0.483272
0.557998 0.300855 0.510134
0.711111 0.326496 0.527717
0.842491 0.392918 0.564347
0.924054 0.484982 0.607814
0.966789 0.576068 0.645665
0.044933 0.369963 0.424908
0.088889 0.375092 0.463736
0.224176 0.379731 0.500855
0.475214 0.378510 0.540415
0.629060 0.409035 0.563370
0.777534 0.447131 0.580708
0.872283 0.485470 0.609524
0.929670 0.542369 0.631258
0.973382 0.590476 0.650305
0.015873 0.509158 0.472527
0.032479 0.553114 0.508425
0.082051 0.579487 0.547009
0.359463 0.579731 0.584371
0.695727 0.573871 0.612943
0.817338 0.610012 0.623687
0.869109 0.607814 0.631013
0.922100 0.612454 0.635409
0.976801 0.638339 0.645910
0.007814 0.714530 0.514530
0.016850 0.757998 0.546276
0.041514 0.781685 0.574603
0.204396 0.777778 0.599756
0.626129 0.759463 0.630281
0.810989 0.737973 0.641514
0.861783 0.721856 0.642247
0.918926 0.712576 0.642491
0.981929 0.714774 0.646398
0.006593 0.825641 0.549206
0.018559 0.842491 0.564835
0.045421 0.844444 0.578266
0.192918 0.841514 0.600733
0.607814 0.833211 0.639072
0.813675 0.814652 0.650305
0.865446 0.799756 0.652259
0.917460 0.796337 0.653236
0.975824 0.796581 0.653480
0.006838 0.861050 0.551404
0.022222 0.869841 0.562637
0.053968 0.869597 0.573871
0.226129 0.867155 0.602930
0.611233 0.864225 0.644200
0.827350 0.862759 0.663248
0.881807 0.859585 0.663248
0.922833 0.859585 0.665201
0.969963 0.860562 0.663736
0.007814 0.874969 0.548474
0.021490 0.882784 0.561661
0.059096 0.882295 0.575824
0.255678 0.876923 0.604151
0.631990 0.873993 0.645421
0.855433 0.876679 0.677411
0.921123 0.879609 0.681075
0.942369 0.881563 0.688889
0.961905 0.882051 0.690354
0.149695 0.294750 0.349451
0.153358 0.291575 0.352137
0.180952 0.274969 0.366056
0.248352 0.254457 0.387057
0.350916 0.227106 0.406105
0.483516 0.210501 0.428083
0.636874 0.240049 0.455922
0.795604 0.326740 0.515018
0.900366 0.416850 0.568987
0.133578 0.286691 0.367033
0.223687 0.283516 0.408303
0.283761 0.257875 0.429792
0.370208 0.233211 0.451282
0.494261 0.231258 0.476435
0.650794 0.251282 0.505495
0.791697 0.310379 0.536508
0.895727 0.412210 0.590720
0.948962 0.513309 0.643712
0.091575 0.294506 0.416606
0.174115 0.283516 0.459341
0.337241 0.257631 0.499145
0.462759 0.256654 0.525031
0.608547 0.278388 0.555067
0.766789 0.318926 0.584615
0.883272 0.402198 0.611722
0.941392 0.510134 0.660073
0.969231 0.606593 0.697924
0.050549 0.349695 0.476190
0.103053 0.348718 0.516972
0.243468 0.356044 0.557509
0.516484 0.342613 0.600977
0.679853 0.372405 0.629060
0.830281 0.418559 0.656410
0.912088 0.509646 0.676923
0.943346 0.572161 0.699878
0.973138 0.622222 0.715263
0.016606 0.503541 0.537973
0.035165 0.542613 0.584860
0.095482 0.565812 0.622466
0.401954 0.538950 0.654212
0.738462 0.523321 0.690843
0.852015 0.569719 0.699878
0.899145 0.630525 0.705739
0.935531 0.640781 0.713309
0.976801 0.666178 0.724054
0.008303 0.694506 0.585104
0.021734 0.740171 0.629304
0.050061 0.769231 0.665934
0.221001 0.754090 0.688401
0.637607 0.730159 0.701587
0.844689 0.719170 0.715263
0.890354 0.736752 0.715507
0.931624 0.728938 0.722589
0.978022 0.731624 0.729182
0.007326 0.826618 0.622955
0.018315 0.842491 0.643468
0.044689 0.845910 0.658852
0.125275 0.842491 0.669109
0.494017 0.837607 0.687668
0.788767 0.827106 0.710623
0.887424 0.812943 0.725031
0.931380 0.806838 0.731624
0.978510 0.805128 0.735287
0.006593 0.861294 0.624664
0.020513 0.870818 0.639805
0.050061 0.873260 0.651038
0.147497 0.869597 0.663248
0.509402 0.868864 0.690110
0.800488 0.866911 0.716972
0.902808 0.865201 0.731380
0.935287 0.863980 0.737729
0.972650 0.865446 0.739683
0.007814 0.873016 0.615385
0.020269 0.882784 0.634676
0.053724 0.883761 0.648107
0.182418 0.879853 0.664469
0.552869 0.876923 0.691575
0.820269 0.876435 0.720147
0.932357 0.882051 0.739438
0.956288 0.880342 0.745299
0.966789 0.884737 0.750183
0.214652 0.327228 0.363614
0.226862 0.321368 0.373382
0.266178 0.288645 0.397314
0.323321 0.246154 0.420513
0.416361 0.195116 0.445421
0.556532 0.189499 0.480586
0.706716 0.233944 0.514530
0.838828 0.311111 0.552625
0.925031 0.411722 0.612210
0.188034 0.301832 0.398046
0.275458 0.273993 0.443712
0.334066 0.233455 0.473993
0.426374 0.200977 0.501099
0.558242 0.207326 0.535287
0.716239 0.236386 0.571917
0.839805 0.300122 0.604884
0.916972 0.417827 0.636142
0.958974 0.536996 0.686935
0.111111 0.283516 0.463004
0.203175 0.256899 0.509890
0.374847 0.232967 0.555556
0.516239 0.231013 0.586325
0.677411 0.252503 0.623932
0.826129 0.293773 0.658608
0.914530 0.390232 0.682296
0.954335 0.539683 0.704029
0.974847 0.638095 0.734554
0.056654 0.315263 0.519170
0.115507 0.323077 0.565812
0.282051 0.329426 0.613919
0.543346 0.304029 0.661050
0.732357 0.325763 0.693773
0.875702 0.385348 0.719658
0.938217 0.502320 0.729426
0.959707 0.620757 0.737729
0.976313 0.677656 0.750183
0.015873 0.485226 0.594139
0.037363 0.510623 0.639316
0.122589 0.526252 0.678144
0.440049 0.505006 0.708669
0.732845 0.456899 0.735043
0.868132 0.509646 0.742369
0.925763 0.605861 0.750427
0.951404 0.681563 0.757998
0.977045 0.712088 0.765568
0.008303 0.710623 0.668620
0.022222 0.755800 0.711600
0.054701 0.770208 0.733089
0.264225 0.733578 0.740659
0.662759 0.683272 0.743346
0.868132 0.683028 0.755067
0.918681 0.733822 0.764835
0.948230 0.763370 0.771429
0.980464 0.768742 0.777289
0.007570 0.820513 0.690843
0.020269 0.840537 0.714042
0.049817 0.843468 0.728449
0.140415 0.843223 0.736996
0.505983 0.830037 0.748718
0.808547 0.822955 0.757753
0.920147 0.821245 0.770452
0.951404 0.826618 0.778510
0.978266 0.828083 0.784615
0.006593 0.861783 0.688401
0.021001 0.870818 0.706960
0.052991 0.873993 0.717460
0.148718 0.872527 0.726252
0.435897 0.868864 0.736752
0.756288 0.870330 0.752381
0.913065 0.870574 0.765079
0.954335 0.872283 0.777778
0.974359 0.870085 0.783150
0.006838 0.873016 0.681807
0.018315 0.883272 0.700366
0.054457 0.886691 0.713309
0.182662 0.882295 0.720147
0.507448 0.881319 0.735531
0.786813 0.879853 0.752381
0.926984 0.881807 0.764835
0.965812 0.884249 0.774359
0.969719 0.883761 0.777045
0.297192 0.363614 0.387057
0.316728 0.348230 0.405617
0.339927 0.290354 0.431258
0.388767 0.218803 0.462759
0.484249 0.175580 0.497680
0.643712 0.191209 0.544078
0.779976 0.241026 0.586813
0.883272 0.296459 0.621245
0.942369 0.433944 0.652991
0.242491 0.307448 0.433211
0.325763 0.257143 0.486447
0.387546 0.210745 0.521612
0.485470 0.181929 0.556532
0.636874 0.192918 0.595360
0.783394 0.208059 0.637363
0.884493 0.277411 0.673016
0.939438 0.407326 0.698901
0.969719 0.565324 0.725275
0.128694 0.261050 0.508425
0.235897 0.233944 0.558974
0.419536 0.219780 0.610989
0.573871 0.211722 0.653236
0.741880 0.217582 0.689622
0.868864 0.254945 0.721123
0.930891 0.368987 0.737241
0.962882 0.515263 0.750427
0.979243 0.649573 0.758242
0.061783 0.296703 0.571429
0.131380 0.313065 0.627839
0.326984 0.329426 0.679121
0.576557 0.303053 0.717216
0.764347 0.319414 0.745299
0.893284 0.364835 0.761416
0.947253 0.478144 0.767033
0.968498 0.603175 0.768498
0.978755 0.697192 0.768987
0.018803 0.462271 0.653480
0.046886 0.492063 0.693529
0.153602 0.519902 0.728449
0.486691 0.506471 0.750916
0.748230 0.455189 0.765324
0.878388 0.492063 0.770208
0.941148 0.589011 0.770208
0.966300 0.692064 0.770940
0.982173 0.767033 0.773138
0.010989 0.723321 0.732112
0.029060 0.749206 0.758486
0.068376 0.745055 0.767766
0.323810 0.705739 0.767521
0.686447 0.665690 0.768010
0.862027 0.642247 0.774847
0.934554 0.718926 0.779243
0.968254 0.774847 0.781441
0.982418 0.811233 0.781197
0.005372 0.831990 0.747497
0.022711 0.843468 0.763858
0.055922 0.842735 0.771184
0.159951 0.839316 0.774359
0.537973 0.819292 0.776068
0.822466 0.804640 0.777045
0.935043 0.815873 0.782173
0.967521 0.840537 0.784371
0.976801 0.854701 0.788523
0.005617 0.859585 0.729915
0.022711 0.871062 0.744322
0.056899 0.873016 0.753602
0.163858 0.872772 0.757998
0.460317 0.872039 0.763858
0.763858 0.867155 0.776068
0.919902 0.870085 0.781929
0.967766 0.875214 0.785592
0.973626 0.875946 0.781929
0.007814 0.875946 0.719414
0.023443 0.886691 0.737973
0.060317 0.887668 0.747009
0.205372 0.884737 0.750672
0.527473 0.883761 0.757509
0.775092 0.882784 0.767277
0.925519 0.883516 0.778022
0.967277 0.887668 0.781929
0.969719 0.883761 0.781929
