src-tauri/resources/luts/大片质感.cube
# Converted from .3dl (size 17x17x17) using Python
LUT_3D_SIZE 17
DOMAIN_MIN 0.0 0.0 0.0
DOMAIN_MAX 1.0 1.0 1.0
0.011722 0.027350 0.242491
0.019536 0.040781 0.252747
0.027350 0.058852 0.260073
0.035409 0.079365 0.268132
0.042247 0.101832 0.274725
0.048352 0.125031 0.280586
0.061538 0.149451 0.284249
0.076190 0.177045 0.294506
0.100366 0.207814 0.303053
0.134066 0.237851 0.315018
0.188278 0.268620 0.331868
0.262027 0.304518 0.347741
0.351160 0.335775 0.362393
0.431258 0.362882 0.379731
0.513797 0.390965 0.393651
0.607570 0.428083 0.410745
0.707692 0.473016 0.430037
0.021978 0.046154 0.253480
0.022955 0.048840 0.255189
0.028083 0.062759 0.262027
0.035897 0.083028 0.270818
0.046398 0.105739 0.275214
0.061294 0.130891 0.274237
0.086935 0.163370 0.275702
0.121368 0.193651 0.278144
0.163370 0.222711 0.284249
0.219780 0.251770 0.294017
0.291331 0.280586 0.307448
0.373382 0.313065 0.324786
0.446398 0.350427 0.350427
0.522100 0.387546 0.375824
0.607326 0.429304 0.402930
0.697436 0.473504 0.424176
0.789255 0.518926 0.443223
0.028327 0.062759 0.262027
0.028327 0.064957 0.262027
0.030037 0.070574 0.263004
0.038584 0.090598 0.268376
0.053968 0.119902 0.270574
0.077167 0.151404 0.266667
0.111844 0.186813 0.265201
0.161416 0.218803 0.263736
0.223199 0.246886 0.267643
0.297436 0.273504 0.276190
0.376313 0.300855 0.287668
0.459096 0.330159 0.306471
0.533578 0.364347 0.334066
0.609768 0.408547 0.367521
0.692064 0.463004 0.403419
0.773382 0.515995 0.431258
0.845665 0.559463 0.449573
0.034432 0.085714 0.269109
0.034676 0.093040 0.269841
0.036630 0.103785 0.270574
0.043956 0.114286 0.267399
0.066667 0.148474 0.265201
0.098413 0.188523 0.259585
0.143590 0.223687 0.255189
0.205372 0.253724 0.252503
0.285470 0.277900 0.250061
0.371917 0.304029 0.258364
0.451526 0.330403 0.271551
0.529915 0.356532 0.293040
0.607326 0.389744 0.321612
0.685470 0.434921 0.358242
0.764347 0.493529 0.397314
0.830281 0.552137 0.431258
0.890598 0.595116 0.450794
0.038339 0.136752 0.275702
0.039560 0.150916 0.277411
0.044933 0.164835 0.278632
0.056166 0.177045 0.275458
0.080830 0.196093 0.263736
0.123810 0.233211 0.256899
0.183883 0.267888 0.248840
0.261538 0.296459 0.244444
0.348474 0.319902 0.242247
0.435897 0.342125 0.247619
0.514042 0.367277 0.261783
0.589499 0.391941 0.284737
0.670574 0.425397 0.314530
0.746276 0.471306 0.349451
0.817094 0.526740 0.387790
0.873748 0.584860 0.423932
0.919902 0.627106 0.446398
0.039072 0.220513 0.284005
0.042979 0.235897 0.284982
0.052259 0.248352 0.285958
0.069841 0.258608 0.280098
0.100611 0.272527 0.266422
0.151160 0.283272 0.255433
0.225885 0.313553 0.247619
0.318437 0.342369 0.241270
0.408059 0.364835 0.239560
0.489866 0.385348 0.244200
0.565812 0.409035 0.259341
0.642735 0.432723 0.279121
0.724298 0.470085 0.313553
0.799267 0.517216 0.348474
0.861050 0.570208 0.385104
0.906471 0.625641 0.421245
0.938706 0.668376 0.442247
0.038339 0.316728 0.286935
0.047619 0.323810 0.287912
0.057387 0.336508 0.290354
0.076679 0.347009 0.288889
0.117949 0.355067 0.277411
0.178022 0.360440 0.263980
0.270818 0.367766 0.252747
0.366056 0.394139 0.245665
0.453236 0.415629 0.242491
0.534799 0.435409 0.248107
0.613675 0.460073 0.262027
0.691087 0.492552 0.285714
0.766056 0.526496 0.317949
0.833700 0.570696 0.353358
0.887912 0.623932 0.389744
0.927961 0.674237 0.422222
0.951160 0.707692 0.438828
0.034188 0.406838 0.292308
0.042979 0.418315 0.294017
0.054457 0.430037 0.295238
0.072039 0.440293 0.294506
0.112332 0.445665 0.283516
0.179243 0.447863 0.267155
0.284493 0.449084 0.255922
0.408547 0.452503 0.249573
0.497680 0.472527 0.249573
0.576313 0.493773 0.255922
0.656166 0.520391 0.269353
0.734066 0.553602 0.291087
0.802442 0.587546 0.319658
0.859341 0.621001 0.350427
0.904029 0.667155 0.384127
0.935287 0.707937 0.411722
0.952381 0.733333 0.426129
0.025397 0.501587 0.296215
0.035165 0.516484 0.296948
0.045177 0.532112 0.297924
0.057875 0.541636 0.298901
0.085714 0.545788 0.290843
0.140659 0.547009 0.272527
0.249084 0.545543 0.260317
0.408059 0.538950 0.258364
0.547985 0.535287 0.260806
0.623932 0.562149 0.268620
0.699878 0.589499 0.281563
0.772650 0.618803 0.300122
0.832967 0.647375 0.326496
0.881319 0.676190 0.352625
0.914286 0.705739 0.383639
0.935775 0.735531 0.405372
0.947985 0.750672 0.411966
0.015385 0.595604 0.299145
0.019048 0.611966 0.299634
0.027106 0.627106 0.299634
0.038095 0.640049 0.300122
0.057875 0.645177 0.296459
0.098168 0.646398 0.284005
0.208303 0.645177 0.272283
0.389744 0.637851 0.268132
0.546032 0.628327 0.273016
0.657631 0.630769 0.283516
0.735775 0.654212 0.294994
0.802686 0.678632 0.312576
0.852259 0.700855 0.334554
0.892796 0.723321 0.358974
0.918926 0.741636 0.381441
0.934310 0.756532 0.398046
0.945299 0.766545 0.401709
0.011966 0.679853 0.304518
0.013187 0.694506 0.305495
0.017338 0.708913 0.304274
0.025153 0.725275 0.302564
0.039072 0.735287 0.299634
0.071306 0.737485 0.294750
0.177289 0.736508 0.286935
0.376557 0.730647 0.281807
0.550427 0.718437 0.287668
0.666178 0.705983 0.301343
0.754335 0.706227 0.311355
0.817094 0.722344 0.327228
0.863004 0.740659 0.343590
0.897924 0.759951 0.362637
0.921856 0.772161 0.380220
0.933333 0.777045 0.387790
0.941392 0.782173 0.389988
0.011477 0.752381 0.310134
0.013919 0.763614 0.308425
0.021734 0.775092 0.305495
0.030281 0.787546 0.301587
0.041270 0.798046 0.297924
0.068376 0.801221 0.294506
0.184127 0.799756 0.293773
0.388034 0.793407 0.296948
0.568010 0.779243 0.309646
0.681319 0.764103 0.326984
0.765079 0.755556 0.342857
0.824420 0.760928 0.347253
0.867155 0.769231 0.354090
0.900122 0.781197 0.362149
0.921856 0.790720 0.370208
0.931868 0.794139 0.373382
0.935043 0.797070 0.375824
0.008791 0.799512 0.318681
0.014896 0.807814 0.313065
0.024176 0.815140 0.308425
0.036142 0.821978 0.303541
0.052259 0.826374 0.298901
0.087668 0.828327 0.295971
0.215873 0.823932 0.294506
0.405128 0.818071 0.297924
0.577289 0.807326 0.312088
0.691087 0.793651 0.330647
0.769231 0.782173 0.346032
0.817827 0.778510 0.352137
0.856410 0.784127 0.355311
0.892063 0.794872 0.358974
0.915018 0.803175 0.363370
0.926007 0.806838 0.366300
0.929670 0.808547 0.366300
0.007814 0.827350 0.322589
0.016850 0.836142 0.316484
0.031502 0.842979 0.310134
0.047131 0.844933 0.304274
0.067888 0.844689 0.299634
0.113309 0.843712 0.296215
0.251526 0.839316 0.294506
0.429792 0.833211 0.297680
0.586569 0.823932 0.308913
0.696703 0.814408 0.327717
0.771917 0.804640 0.343834
0.815629 0.798535 0.351160
0.844689 0.797314 0.354090
0.881807 0.803419 0.355067
0.906227 0.810745 0.357021
0.919170 0.814408 0.360684
0.923565 0.815385 0.361172
0.007814 0.842002 0.322344
0.017094 0.852503 0.313553
0.032234 0.858364 0.305495
0.053968 0.858364 0.301832
0.078877 0.856899 0.297924
0.135043 0.854212 0.293773
0.286203 0.848352 0.289866
0.458364 0.841514 0.294017
0.598291 0.832234 0.304762
0.698657 0.823932 0.322344
0.770696 0.817582 0.338950
0.813919 0.811233 0.347741
0.841270 0.807570 0.351404
0.871551 0.808791 0.352625
0.896459 0.814164 0.352625
0.908669 0.816117 0.353602
0.915263 0.816117 0.354335
0.007814 0.850061 0.323810
0.016606 0.859341 0.311844
0.029792 0.865201 0.302564
0.049817 0.863980 0.297924
0.082540 0.861050 0.295971
0.148474 0.859096 0.292064
0.311844 0.853968 0.288156
0.480342 0.845421 0.292796
0.611966 0.835653 0.303297
0.700855 0.826618 0.319414
0.766300 0.821001 0.334554
0.808547 0.815873 0.343590
0.835165 0.810989 0.347741
0.862515 0.809768 0.349939
0.883516 0.812943 0.350672
0.895971 0.816117 0.351648
0.902320 0.814652 0.351893
0.007814 0.860317 0.324542
0.016606 0.864957 0.309890
0.029304 0.869353 0.299878
0.048596 0.868376 0.296215
0.085226 0.864469 0.293285
0.170208 0.860317 0.289133
0.342613 0.855678 0.286935
0.501832 0.847619 0.291331
0.621734 0.837607 0.302076
0.704762 0.828816 0.316972
0.763614 0.821734 0.330891
0.803907 0.816850 0.339683
0.828327 0.813187 0.343101
0.850549 0.810256 0.344078
0.872527 0.810256 0.345055
0.886691 0.813187 0.348230
0.895482 0.817094 0.351893
0.024176 0.046398 0.255678
0.025153 0.049328 0.257143
0.030281 0.065690 0.263004
0.037607 0.084982 0.272527
0.045665 0.105006 0.278877
0.054457 0.124786 0.283272
0.071551 0.148474 0.287668
0.094750 0.176068 0.294017
0.125519 0.203907 0.301832
0.168987 0.232479 0.313309
0.231990 0.264225 0.330891
0.318926 0.299878 0.349695
0.398535 0.330159 0.365324
0.468620 0.360195 0.381685
0.541636 0.393162 0.399267
0.630769 0.437118 0.419292
0.726496 0.479365 0.438095
0.024176 0.049328 0.255189
0.028816 0.065446 0.263004
0.035409 0.080830 0.269841
0.045421 0.102564 0.275458
0.060073 0.126252 0.278144
0.080098 0.151404 0.278144
0.114286 0.176557 0.279365
0.157998 0.200244 0.281074
0.207570 0.223932 0.286691
0.273260 0.247619 0.295238
0.347009 0.275214 0.307937
0.422711 0.306960 0.326252
0.493529 0.340659 0.348718
0.564591 0.379976 0.373626
0.642979 0.427839 0.404151
0.726252 0.476435 0.430769
0.809524 0.515995 0.448352
0.031013 0.064713 0.263736
0.034676 0.085226 0.271062
0.039805 0.093529 0.272283
0.052503 0.117216 0.275946
0.073504 0.146520 0.275458
0.103053 0.176801 0.272039
0.147985 0.201954 0.269841
0.206349 0.226129 0.268620
0.272527 0.248596 0.271062
0.348718 0.271062 0.278877
0.428327 0.295482 0.290110
0.504762 0.322100 0.306227
0.573871 0.355800 0.332112
0.647375 0.401465 0.366056
0.726740 0.457387 0.402930
0.800000 0.513065 0.436142
0.863248 0.557021 0.457143
0.036874 0.091331 0.273993
0.041758 0.119902 0.279121
0.047131 0.131380 0.278632
0.061538 0.141148 0.273504
0.088645 0.175336 0.270818
0.126740 0.209280 0.266178
0.182662 0.235165 0.261783
0.252991 0.258120 0.257387
0.332112 0.280098 0.257387
0.412210 0.300611 0.263248
0.489377 0.321856 0.273260
0.564591 0.346032 0.290354
0.639316 0.378755 0.318193
0.714042 0.424664 0.354823
0.789988 0.484982 0.396337
0.853236 0.545055 0.434432
0.901832 0.591453 0.458852
0.039805 0.144078 0.280586
0.047375 0.177289 0.286203
0.054701 0.191941 0.285470
0.072039 0.202930 0.279853
0.104518 0.220024 0.269353
0.149695 0.247619 0.261783
0.218071 0.274481 0.254945
0.299390 0.298413 0.250549
0.383639 0.318681 0.248596
0.465201 0.337241 0.251526
0.542125 0.357021 0.260806
0.616361 0.379487 0.280586
0.692064 0.412698 0.309646
0.768010 0.459096 0.347253
0.834921 0.515018 0.386813
0.888645 0.577045 0.427595
0.928205 0.626862 0.459096
0.040293 0.226618 0.289133
0.051038 0.256166 0.294506
0.060562 0.271795 0.293773
0.081074 0.279121 0.285714
0.120879 0.289133 0.273260
0.178266 0.296703 0.262027
0.258120 0.320391 0.252015
0.347253 0.345055 0.246886
0.432723 0.363858 0.244444
0.509646 0.379487 0.246398
0.586081 0.399512 0.257631
0.661050 0.422466 0.278388
0.736508 0.456410 0.308425
0.811233 0.502808 0.345788
0.871795 0.556777 0.383150
0.915507 0.614164 0.422955
0.946764 0.669353 0.457143
0.036874 0.311355 0.294506
0.050794 0.340415 0.299390
0.064225 0.354090 0.299634
0.088156 0.361661 0.292796
0.134554 0.365324 0.281074
0.200733 0.368987 0.267888
0.295482 0.373871 0.255678
0.387302 0.393407 0.248596
0.468132 0.412454 0.245177
0.545299 0.429060 0.248352
0.621245 0.449573 0.259341
0.696703 0.476190 0.281074
0.769719 0.510623 0.310134
0.839560 0.556288 0.347009
0.893284 0.607570 0.383883
0.930159 0.659341 0.421734
0.953114 0.705006 0.453480
0.035653 0.409035 0.302564
0.049084 0.435897 0.307448
0.062515 0.448107 0.307692
0.084982 0.454945 0.303297
0.131624 0.455433 0.290843
0.205128 0.455433 0.275946
0.305006 0.453480 0.264225
0.421001 0.453968 0.256899
0.507937 0.470818 0.254701
0.584371 0.491087 0.260317
0.662027 0.514774 0.273016
0.737241 0.544567 0.293529
0.802930 0.575580 0.320391
0.862759 0.612943 0.352625
0.909402 0.659341 0.389255
0.939683 0.701587 0.422955
0.954335 0.731380 0.446886
0.027595 0.504518 0.309158
0.037118 0.532601 0.311844
0.048107 0.545299 0.313797
0.065446 0.551404 0.309646
0.098901 0.553114 0.298901
0.160928 0.551648 0.283028
0.274237 0.546276 0.272527
0.420757 0.538217 0.266178
0.548962 0.533333 0.264957
0.625641 0.557753 0.273993
0.701099 0.583150 0.287912
0.771917 0.611722 0.305495
0.831013 0.638828 0.331380
0.881074 0.668376 0.360928
0.915751 0.697680 0.389744
0.939927 0.730647 0.417827
0.951404 0.747985 0.430525
0.015873 0.598779 0.314042
0.019536 0.623199 0.316484
0.028083 0.638339 0.318437
0.041514 0.648596 0.316972
0.066667 0.651526 0.308913
0.114042 0.648840 0.294506
0.230037 0.643712 0.283516
0.401709 0.635653 0.278388
0.548962 0.625153 0.281807
0.655433 0.626862 0.290354
0.733333 0.648107 0.304029
0.796337 0.671062 0.320147
0.847863 0.693040 0.343101
0.891087 0.715018 0.369475
0.920635 0.735043 0.392674
0.936996 0.750916 0.409035
0.947253 0.761416 0.415385
0.011966 0.683761 0.323077
0.013187 0.704518 0.325275
0.018315 0.720635 0.326252
0.027106 0.733333 0.325031
0.043712 0.741392 0.319658
0.083761 0.740659 0.308181
0.200000 0.735531 0.296948
0.387546 0.729182 0.291331
0.551648 0.716728 0.296948
0.663492 0.704029 0.310379
0.749695 0.702808 0.322589
0.811722 0.718193 0.337241
0.860562 0.737729 0.357509
0.898413 0.756532 0.380220
0.923321 0.768498 0.395604
0.936020 0.772161 0.401221
0.943590 0.774847 0.402686
0.011722 0.756288 0.331380
0.013431 0.769963 0.332845
0.019536 0.783150 0.330891
0.028083 0.793407 0.327717
0.039805 0.801954 0.323565
0.070085 0.805128 0.317216
0.194139 0.800733 0.308913
0.395116 0.789499 0.305983
0.565812 0.775092 0.312332
0.675702 0.760928 0.328449
0.758730 0.750672 0.345543
0.820024 0.753846 0.353846
0.866667 0.769963 0.369475
0.900122 0.783883 0.383639
0.922100 0.792430 0.391697
0.933822 0.793651 0.392186
0.939683 0.793651 0.390476
0.010012 0.802198 0.337485
0.013675 0.809524 0.335531
0.021245 0.817827 0.331624
0.031746 0.824664 0.326984
0.047131 0.828571 0.323321
0.082540 0.829548 0.320879
0.214408 0.826374 0.316484
0.410745 0.818803 0.317460
0.582418 0.807814 0.326496
0.693773 0.795849 0.343834
0.770940 0.785592 0.360684
0.821734 0.781929 0.370696
0.862515 0.787790 0.374603
0.895482 0.798535 0.379976
0.917705 0.806838 0.384371
0.929670 0.808791 0.383394
0.936264 0.808059 0.379731
0.008059 0.829548 0.339927
0.013919 0.836142 0.338217
0.025885 0.842735 0.333089
0.039316 0.846398 0.327473
0.058852 0.846398 0.323810
0.101832 0.844933 0.321123
0.248107 0.841514 0.317216
0.431990 0.835653 0.318926
0.591697 0.826374 0.328449
0.703053 0.817094 0.346764
0.777778 0.808303 0.362637
0.821001 0.801465 0.371917
0.852503 0.800733 0.373626
0.885226 0.807326 0.374847
0.909890 0.814896 0.377289
0.922589 0.817094 0.377534
0.928205 0.816361 0.375336
0.007570 0.846886 0.338950
0.014164 0.852503 0.336752
0.028083 0.858120 0.332112
0.048352 0.860806 0.328205
0.072772 0.859096 0.323810
0.124786 0.856166 0.318926
0.283272 0.852991 0.314774
0.460562 0.846398 0.316484
0.602198 0.838095 0.325519
0.706227 0.829304 0.341636
0.778510 0.821734 0.356288
0.820024 0.815629 0.364835
0.848107 0.812698 0.368254
0.877167 0.813919 0.369963
0.900611 0.818803 0.371673
0.914042 0.820269 0.371917
0.918926 0.819536 0.371184
0.006838 0.856410 0.341392
0.014652 0.860806 0.336752
0.027350 0.865934 0.330647
0.047375 0.867643 0.325519
0.077656 0.865690 0.321856
0.139683 0.862759 0.315507
0.308669 0.859829 0.310379
0.483516 0.852259 0.312821
0.616606 0.842491 0.322833
0.708913 0.833944 0.337973
0.776068 0.826862 0.351160
0.817338 0.821978 0.359219
0.844200 0.819048 0.364347
0.870574 0.817094 0.367033
0.890842 0.819292 0.368254
0.902564 0.821001 0.367766
0.907937 0.818559 0.368010
0.005372 0.861783 0.345055
0.013431 0.865201 0.337241
0.025641 0.868620 0.328938
0.043712 0.869597 0.322100
0.075458 0.867888 0.316728
0.149695 0.864957 0.310379
0.332357 0.860806 0.306471
0.500611 0.854212 0.308669
0.625885 0.842979 0.318193
0.711600 0.833944 0.334554
0.772161 0.826862 0.348474
0.810745 0.821734 0.355800
0.836630 0.818315 0.362393
0.860073 0.815140 0.364591
0.879121 0.814896 0.363614
0.892063 0.817094 0.363614
0.900122 0.818559 0.365324
0.029304 0.064225 0.263980
0.029304 0.064225 0.263980
0.030037 0.067399 0.264713
0.036630 0.084493 0.271062
0.045910 0.103297 0.277411
0.057875 0.122589 0.281074
0.078388 0.146032 0.286935
0.110867 0.169231 0.291575
0.145299 0.194139 0.299878
0.194628 0.220269 0.310623
0.264469 0.250305 0.326496
0.352137 0.284493 0.346520
0.430769 0.314530 0.363126
0.495482 0.349206 0.380464
0.565079 0.388278 0.400488
0.648107 0.437851 0.423687
0.742857 0.480830 0.445665
0.029548 0.064225 0.262271
0.035653 0.081807 0.269841
0.039316 0.088889 0.271795
0.049328 0.107204 0.276679
0.067399 0.129182 0.279853
0.093284 0.152137 0.280830
0.131624 0.175336 0.282784
0.182906 0.196337 0.285714
0.238828 0.216361 0.290843
0.306471 0.237851 0.298657
0.382906 0.263248 0.310379
0.461050 0.290354 0.326496
0.531136 0.322589 0.348230
0.596581 0.365324 0.371673
0.667155 0.419536 0.403663
0.743590 0.475214 0.434676
0.820024 0.518681 0.459096
0.031990 0.067888 0.264713
0.037363 0.092796 0.273748
0.046886 0.113553 0.279365
0.063248 0.136020 0.282540
0.088889 0.165079 0.283272
0.125031 0.189499 0.280830
0.175336 0.210989 0.280586
0.240781 0.230037 0.279853
0.313553 0.247863 0.283028
0.390232 0.265934 0.289133
0.468620 0.286447 0.299145
0.541148 0.311355 0.314286
0.608303 0.345055 0.336752
0.680098 0.389744 0.366300
0.753602 0.447375 0.402686
0.819536 0.507448 0.439072
0.878632 0.556532 0.468376
0.037851 0.094261 0.275702
0.043712 0.128449 0.282540
0.055189 0.155800 0.287424
0.075702 0.164103 0.283272
0.106960 0.194139 0.280830
0.151893 0.224664 0.277167
0.212698 0.245665 0.274969
0.287179 0.263004 0.272039
0.370208 0.280098 0.272039
0.447863 0.297192 0.277411
0.522344 0.314286 0.285470
0.595604 0.335287 0.299878
0.666667 0.368498 0.324542
0.740904 0.414652 0.357509
0.811722 0.474237 0.399023
0.870574 0.533822 0.436142
0.914530 0.587546 0.468864
0.040293 0.148718 0.285226
0.049084 0.187546 0.292064
0.062759 0.215629 0.295238
0.086203 0.226374 0.288889
0.125275 0.236630 0.280342
0.176801 0.261538 0.273993
0.250305 0.284982 0.269841
0.331624 0.301832 0.267155
0.413919 0.317949 0.265934
0.490598 0.334066 0.268620
0.563370 0.350183 0.275458
0.637363 0.369963 0.290598
0.711600 0.401221 0.315751
0.785836 0.446642 0.350427
0.850549 0.502564 0.389744
0.901343 0.564591 0.430525
0.937973 0.618559 0.466667
0.039805 0.231502 0.294994
0.052015 0.262515 0.301343
0.068620 0.287668 0.303297
0.095238 0.297436 0.296215
0.139683 0.301587 0.284982
0.204884 0.306471 0.273504
0.289377 0.328938 0.266911
0.373871 0.346764 0.263980
0.453480 0.362393 0.262027
0.527717 0.377534 0.264225
0.600488 0.393895 0.271551
0.674725 0.412943 0.286691
0.748230 0.443223 0.313065
0.818559 0.486691 0.346276
0.879853 0.541148 0.385104
0.922833 0.601465 0.426374
0.953358 0.662759 0.468864
0.036386 0.315263 0.302320
0.050549 0.344811 0.308913
0.070330 0.368010 0.311355
0.101343 0.375580 0.302808
0.151648 0.376068 0.290598
0.224664 0.376313 0.279121
0.323810 0.379487 0.269109
0.408303 0.394872 0.263980
0.484249 0.411233 0.261538
0.556777 0.426618 0.264713
0.630281 0.444200 0.273016
0.705006 0.466667 0.289866
0.775336 0.495726 0.314774
0.841758 0.539194 0.348718
0.896215 0.590232 0.386569
0.934799 0.643223 0.424420
0.957998 0.698413 0.464713
0.034188 0.410745 0.315018
0.047619 0.437363 0.320879
0.066178 0.459585 0.322344
0.095726 0.463980 0.313065
0.142857 0.463248 0.300611
0.217582 0.461050 0.288156
0.323321 0.456410 0.277167
0.434188 0.454945 0.270574
0.517460 0.468864 0.268376
0.589988 0.487912 0.273260
0.665201 0.508913 0.284493
0.737729 0.533089 0.301587
0.801465 0.560440 0.325031
0.862027 0.598535 0.356777
0.909890 0.642979 0.393162
0.941636 0.682784 0.423932
0.957998 0.718681 0.452259
0.028083 0.510623 0.324786
0.036386 0.537485 0.328449
0.050305 0.556044 0.330891
0.071306 0.559707 0.324054
0.109890 0.557753 0.312332
0.177045 0.554823 0.299145
0.294506 0.548474 0.288156
0.431746 0.539438 0.280342
0.553358 0.531624 0.280830
0.628083 0.554579 0.287424
0.700855 0.578022 0.300611
0.770452 0.603663 0.317705
0.826862 0.628571 0.340171
0.877167 0.655189 0.366056
0.916484 0.686203 0.396093
0.943101 0.714286 0.420269
0.957265 0.733822 0.436630
0.016117 0.603419 0.330891
0.020269 0.628571 0.334310
0.029060 0.648840 0.336996
0.045177 0.657387 0.333578
0.074969 0.655922 0.323565
0.128205 0.649817 0.310379
0.249084 0.644933 0.300855
0.414164 0.634432 0.293773
0.553358 0.622466 0.295727
0.656654 0.622955 0.303541
0.732112 0.642735 0.317460
0.793895 0.664957 0.333822
0.842979 0.684493 0.353846
0.886935 0.704274 0.376068
0.918681 0.722833 0.398535
0.939194 0.737241 0.411477
0.953358 0.748718 0.420024
0.011966 0.688401 0.338462
0.013431 0.709402 0.341392
0.018559 0.729182 0.345299
0.029304 0.740659 0.343590
0.050549 0.745055 0.337241
0.095482 0.741148 0.326252
0.214896 0.735287 0.315263
0.398779 0.725275 0.306960
0.555311 0.711355 0.310134
0.663980 0.699145 0.323810
0.747497 0.698657 0.336752
0.808303 0.715507 0.352381
0.855433 0.731624 0.369475
0.894506 0.746764 0.387790
0.921123 0.756288 0.400488
0.937485 0.760440 0.404640
0.948230 0.762393 0.406349
0.011477 0.760440 0.349451
0.012943 0.774603 0.350672
0.019292 0.789011 0.351893
0.028083 0.798535 0.350916
0.042979 0.803907 0.347985
0.079121 0.804396 0.340904
0.206838 0.799023 0.331136
0.401954 0.786081 0.323565
0.568254 0.771673 0.327473
0.677411 0.758486 0.343101
0.758730 0.749451 0.360440
0.815385 0.751893 0.369719
0.861294 0.766300 0.384371
0.897680 0.777778 0.395849
0.920391 0.782662 0.398535
0.935287 0.783150 0.397558
0.946032 0.781685 0.395116
0.009280 0.804884 0.354579
0.013431 0.812698 0.355556
0.020513 0.820757 0.354090
0.030281 0.827350 0.351893
0.045665 0.829792 0.349695
0.080830 0.829548 0.347497
0.214896 0.826374 0.342125
0.416361 0.818315 0.338462
0.588523 0.807570 0.344567
0.697436 0.796337 0.360684
0.774603 0.785836 0.378266
0.825153 0.784615 0.389988
0.862515 0.789255 0.391697
0.895238 0.797314 0.394383
0.916239 0.802930 0.394628
0.931380 0.804640 0.391941
0.942857 0.803663 0.388523
0.008303 0.832723 0.358974
0.013675 0.838584 0.358486
0.023687 0.844444 0.355800
0.034921 0.849328 0.352381
0.053236 0.848107 0.350672
0.092552 0.845421 0.349451
0.237118 0.843223 0.345788
0.435409 0.838584 0.344322
0.602442 0.830525 0.353602
0.715018 0.821001 0.371184
0.789744 0.811722 0.386813
0.830037 0.806838 0.397314
0.860317 0.806105 0.396093
0.890842 0.811233 0.391453
0.913797 0.817582 0.392674
0.927473 0.819536 0.389011
0.935531 0.817827 0.383150
0.006838 0.850061 0.358242
0.013187 0.853724 0.357509
0.023687 0.857875 0.354823
0.041514 0.861294 0.352625
0.064225 0.860806 0.350916
0.112088 0.857387 0.348962
0.268132 0.853968 0.344811
0.461294 0.848840 0.343834
0.610256 0.841758 0.351404
0.717705 0.832479 0.368010
0.790720 0.824420 0.383150
0.827839 0.818803 0.391209
0.855678 0.816361 0.393407
0.883272 0.818315 0.391941
0.905739 0.822955 0.389988
0.919658 0.825885 0.388767
0.925763 0.823932 0.387302
0.005861 0.858120 0.360440
0.012943 0.861783 0.357509
0.022955 0.864957 0.354579
0.040781 0.867888 0.352137
0.070574 0.867399 0.350672
0.129182 0.864225 0.347009
0.296703 0.861050 0.342125
0.484982 0.855433 0.341392
0.624664 0.846398 0.349939
0.720147 0.837851 0.364347
0.788278 0.830281 0.377289
0.826129 0.825153 0.384127
0.853480 0.821734 0.389255
0.877656 0.821001 0.391697
0.896703 0.822955 0.391697
0.909158 0.825153 0.389988
0.914530 0.825397 0.387546
0.006838 0.865446 0.366056
0.012943 0.867643 0.360195
0.023932 0.870574 0.357021
0.042002 0.872527 0.351893
0.073016 0.871306 0.348718
0.141636 0.869353 0.344322
0.322833 0.866178 0.337485
0.504762 0.860806 0.339438
0.638095 0.849817 0.348962
0.728205 0.840537 0.363126
0.788278 0.834188 0.374603
0.823932 0.827839 0.379976
0.850549 0.823932 0.387546
0.872283 0.822466 0.391209
0.889621 0.821245 0.390232
0.900611 0.822466 0.388278
0.906471 0.823199 0.385104
0.035409 0.084249 0.272039
0.035409 0.084249 0.272039
0.035409 0.084249 0.272039
0.036630 0.085226 0.272527
0.047131 0.102076 0.277167
0.062027 0.119658 0.281563
0.088400 0.145055 0.289133
0.123321 0.165568 0.295971
0.167521 0.187302 0.303541
0.216361 0.212210 0.315263
0.290843 0.239316 0.329915
0.383394 0.267888 0.347741
0.460317 0.298657 0.364591
0.525031 0.335531 0.383394
0.586325 0.382173 0.405861
0.667155 0.435165 0.429304
0.759219 0.481807 0.453724
