src-tauri/resources/luts/旅拍大片质感.cube
# Converted from .3dl (size 17x17x17) using Python
LUT_3D_SIZE 17
DOMAIN_MIN 0.0 0.0 0.0
DOMAIN_MAX 1.0 1.0 1.0
0.019536 0.011722 0.085958
0.144567 0.017827 0.085714
0.269597 0.024176 0.085470
0.382418 0.030769 0.082784
0.490354 0.037363 0.078877
0.585348 0.043468 0.075214
0.663004 0.048840 0.072039
0.736020 0.053724 0.069109
0.781685 0.056899 0.067643
0.827350 0.060073 0.066178
0.852015 0.062027 0.065934
0.873016 0.063736 0.065690
0.885714 0.064957 0.065934
0.892552 0.065446 0.065934
0.897436 0.065934 0.066178
0.898413 0.066178 0.066422
0.899390 0.066422 0.066422
0.022222 0.129670 0.169475
0.131624 0.118437 0.157509
0.241026 0.107204 0.145543
0.348718 0.102564 0.133333
0.455922 0.100366 0.120635
0.551160 0.098901 0.109646
0.630037 0.098413 0.100366
0.704762 0.097680 0.091575
0.753846 0.096947 0.086691
0.803175 0.095971 0.081563
0.831990 0.094505 0.079609
0.857631 0.092796 0.077900
0.874969 0.090842 0.077167
0.885714 0.088400 0.077167
0.894506 0.085714 0.077411
0.897680 0.082784 0.077656
0.900855 0.079853 0.077656
0.025153 0.247619 0.252747
0.118681 0.219048 0.229304
0.212210 0.190476 0.205617
0.315018 0.174603 0.183883
0.421490 0.163614 0.162637
0.516728 0.154579 0.143834
0.597314 0.147985 0.128449
0.673748 0.141880 0.114042
0.726252 0.136752 0.105495
0.778755 0.131868 0.096947
0.812210 0.126740 0.093284
0.842491 0.121856 0.090110
0.863980 0.116728 0.088645
0.879121 0.111111 0.088400
0.891575 0.105495 0.088400
0.896948 0.099390 0.088889
0.902320 0.093040 0.089133
0.027106 0.355311 0.323321
0.109646 0.324542 0.298413
0.192186 0.293529 0.273260
0.291575 0.270818 0.246886
0.397802 0.251038 0.220024
0.493284 0.234432 0.195604
0.574847 0.222222 0.174603
0.652747 0.210256 0.154823
0.707937 0.201465 0.143346
0.763126 0.192674 0.131868
0.799756 0.184615 0.126496
0.833211 0.176557 0.122344
0.858120 0.168498 0.120391
0.876435 0.159951 0.119902
0.891575 0.151160 0.119902
0.898657 0.141636 0.119902
0.905739 0.131868 0.119902
0.028571 0.458852 0.388767
0.102076 0.431746 0.366300
0.175580 0.404884 0.343834
0.272283 0.376801 0.315018
0.378266 0.348474 0.283516
0.474237 0.324298 0.254457
0.557021 0.305983 0.227839
0.636142 0.288645 0.203175
0.693285 0.275946 0.188767
0.750672 0.263492 0.174359
0.790232 0.252503 0.167766
0.826618 0.241758 0.162393
0.854212 0.230525 0.159951
0.875214 0.219048 0.159707
0.892796 0.207082 0.159219
0.901343 0.194139 0.158730
0.909646 0.180952 0.158486
0.029792 0.550672 0.445177
0.094750 0.527717 0.425641
0.159707 0.504762 0.406105
0.252503 0.475946 0.377778
0.356532 0.444933 0.345788
0.453480 0.417338 0.315263
0.540904 0.394383 0.286203
0.624176 0.372650 0.258852
0.683272 0.356777 0.241514
0.742369 0.340659 0.224420
0.783883 0.327473 0.216606
0.822711 0.314286 0.210501
0.852503 0.301099 0.207570
0.875702 0.287424 0.207326
0.894994 0.273260 0.207082
0.904518 0.257631 0.206349
0.914042 0.241758 0.205617
0.030281 0.626862 0.489866
0.087424 0.608303 0.473748
0.144567 0.589988 0.457631
0.231990 0.566056 0.433700
0.331868 0.540171 0.406349
0.430281 0.514286 0.378999
0.527228 0.488645 0.351404
0.618803 0.464225 0.324786
0.679121 0.445421 0.304518
0.739194 0.426618 0.284249
0.782173 0.411722 0.275458
0.822222 0.397558 0.268864
0.853480 0.382906 0.265934
0.878144 0.368254 0.266178
0.898413 0.352869 0.265934
0.908669 0.335531 0.265201
0.918926 0.317949 0.264469
0.030525 0.698657 0.531380
0.080098 0.684493 0.518926
0.129915 0.670330 0.506227
0.212210 0.651526 0.486691
0.307448 0.630769 0.463980
0.407082 0.607082 0.440049
0.511844 0.579976 0.414408
0.610989 0.553602 0.389255
0.673993 0.532601 0.367033
0.736996 0.511600 0.345055
0.781441 0.495482 0.335287
0.822711 0.480098 0.327961
0.855189 0.464713 0.325031
0.880830 0.449328 0.325519
0.902076 0.432967 0.325519
0.912821 0.414164 0.324786
0.923321 0.395360 0.324298
0.030525 0.744078 0.556288
0.074237 0.733578 0.546764
0.117705 0.723321 0.537241
0.194872 0.708913 0.521856
0.285226 0.693040 0.504274
0.382173 0.674725 0.485714
0.487424 0.653236 0.465446
0.588523 0.631990 0.445665
0.663980 0.612210 0.428083
0.739683 0.592186 0.410501
0.785836 0.575824 0.400244
0.827106 0.559951 0.391209
0.859585 0.545055 0.387790
0.885226 0.530403 0.388523
0.906471 0.514774 0.389011
0.916972 0.496703 0.388523
0.927717 0.478388 0.388278
0.030525 0.789499 0.580952
0.068132 0.782906 0.574359
0.105495 0.776068 0.568010
0.177534 0.766300 0.557265
0.263004 0.755556 0.544811
0.357265 0.742369 0.531380
0.463004 0.726740 0.516728
0.566300 0.710379 0.502320
0.654212 0.691575 0.489133
0.742369 0.672527 0.475946
0.790232 0.655922 0.465201
0.831746 0.640049 0.454701
0.863980 0.625153 0.450549
0.889621 0.611477 0.451526
0.910867 0.596825 0.452259
0.921368 0.578999 0.452259
0.931868 0.561416 0.452503
0.030525 0.813675 0.592918
0.063492 0.809280 0.588523
0.096459 0.805128 0.584371
0.163370 0.798535 0.577045
0.244200 0.791209 0.568254
0.335043 0.781929 0.559219
0.439316 0.770696 0.549451
0.542125 0.758974 0.539927
0.635409 0.744322 0.531624
0.728449 0.729670 0.523077
0.784860 0.715751 0.516239
0.835165 0.702076 0.509158
0.870574 0.689133 0.506471
0.894994 0.676923 0.506716
0.915263 0.663492 0.506716
0.925031 0.647863 0.506960
0.934799 0.632234 0.507204
0.030525 0.833944 0.602930
0.059096 0.831990 0.600488
0.087668 0.830037 0.598046
0.149939 0.826374 0.593895
0.225885 0.822222 0.589011
0.313065 0.817094 0.584127
0.415873 0.810012 0.579243
0.517705 0.802686 0.574359
0.614896 0.792674 0.570940
0.711844 0.782662 0.567277
0.777778 0.771917 0.564835
0.838095 0.761172 0.562393
0.877411 0.750427 0.560928
0.900366 0.739438 0.560195
0.919658 0.727717 0.559707
0.928694 0.714286 0.560195
0.937729 0.700855 0.560440
0.030525 0.845910 0.608547
0.055678 0.845177 0.607570
0.080586 0.844689 0.606593
0.138462 0.843223 0.604640
0.209524 0.841270 0.602198
0.293040 0.838339 0.600244
0.393407 0.834432 0.598779
0.493529 0.830281 0.597558
0.592918 0.823932 0.597802
0.692064 0.817582 0.598046
0.764835 0.809768 0.599267
0.832967 0.801709 0.600488
0.877167 0.793407 0.601221
0.903053 0.784860 0.601465
0.923810 0.775580 0.601465
0.931624 0.764591 0.601709
0.939683 0.753358 0.601954
0.030769 0.851282 0.611477
0.052747 0.851526 0.611233
0.074481 0.851770 0.610989
0.128205 0.851526 0.610501
0.194383 0.850794 0.609768
0.274237 0.849817 0.609768
0.371429 0.847863 0.610745
0.469353 0.845910 0.611966
0.569719 0.842247 0.615140
0.670085 0.838584 0.618559
0.747741 0.833455 0.622711
0.821734 0.828327 0.627106
0.871551 0.822955 0.630525
0.903541 0.817582 0.632967
0.927961 0.811233 0.634921
0.934310 0.802442 0.634676
0.940904 0.793895 0.634432
0.030769 0.855433 0.614408
0.049817 0.856166 0.614896
0.069109 0.857143 0.615629
0.118437 0.857631 0.615873
0.179976 0.857875 0.616361
0.255678 0.858120 0.617827
0.349939 0.857875 0.620513
0.444933 0.857631 0.623687
0.546032 0.855922 0.629060
0.646886 0.854212 0.634676
0.728938 0.851526 0.641270
0.807814 0.848352 0.647863
0.863248 0.845421 0.653480
0.900855 0.842247 0.658120
0.929426 0.838339 0.661294
0.935531 0.832234 0.661294
0.941636 0.825885 0.661050
0.031013 0.855922 0.618071
0.047863 0.856899 0.619048
0.064469 0.857875 0.619780
0.109890 0.858608 0.620269
0.166789 0.858852 0.620757
0.238095 0.859096 0.622222
0.328694 0.859096 0.625153
0.420513 0.859096 0.628327
0.520879 0.857875 0.634188
0.621001 0.856899 0.640049
0.705495 0.854945 0.647375
0.787546 0.852747 0.654701
0.847375 0.850061 0.661050
0.890842 0.847375 0.666667
0.924542 0.844444 0.670818
0.933333 0.841026 0.671795
0.942125 0.837363 0.672527
0.031258 0.856410 0.621734
0.045665 0.857631 0.622955
0.059829 0.858852 0.624176
0.101343 0.859341 0.624908
0.153602 0.859829 0.625397
0.220513 0.860073 0.626862
0.307204 0.860317 0.629548
0.395849 0.860562 0.632967
0.495726 0.860073 0.639072
0.595360 0.859585 0.645421
0.682296 0.858364 0.653236
0.767033 0.856899 0.661294
0.831746 0.854945 0.668376
0.881074 0.852747 0.675214
0.919414 0.850794 0.680342
0.930891 0.849573 0.682296
0.942369 0.848596 0.684249
0.019292 0.026618 0.137241
0.130647 0.027839 0.133578
0.242002 0.028816 0.129915
0.351893 0.033211 0.122833
0.461538 0.038828 0.114530
0.558486 0.043956 0.106960
0.638584 0.048596 0.100611
0.714042 0.052991 0.094505
0.762882 0.055922 0.090354
0.811722 0.059096 0.086203
0.839560 0.061050 0.083516
0.863736 0.063004 0.081074
0.879365 0.064469 0.079121
0.888645 0.065690 0.077411
0.895727 0.066667 0.075702
0.897680 0.067155 0.074237
0.899878 0.067888 0.073016
0.021978 0.133333 0.208791
0.116972 0.117216 0.191941
0.212210 0.101343 0.175092
0.316484 0.095726 0.160195
0.424664 0.094261 0.146032
0.521123 0.093284 0.133578
0.602198 0.093529 0.123077
0.679121 0.093773 0.113309
0.731380 0.093529 0.107204
0.783639 0.093284 0.100855
0.816117 0.092552 0.096947
0.845421 0.091331 0.093529
0.865934 0.089866 0.090598
0.880098 0.087668 0.088400
0.891575 0.085470 0.085958
0.896703 0.082540 0.083761
0.902076 0.079609 0.081563
0.024420 0.240049 0.280586
0.103297 0.206838 0.250549
0.182173 0.173626 0.220269
0.281074 0.157998 0.197558
0.387546 0.149695 0.177534
0.483761 0.142857 0.159951
0.565812 0.138706 0.145788
0.644200 0.134310 0.132357
0.699878 0.130891 0.123810
0.755556 0.127473 0.115507
0.792918 0.123810 0.110379
0.826862 0.119658 0.105983
0.852503 0.115018 0.102320
0.871551 0.109890 0.099390
0.887668 0.104274 0.096459
0.895727 0.097680 0.093284
0.904029 0.091331 0.089866
0.026374 0.345543 0.346520
0.094994 0.309646 0.314042
0.163614 0.273748 0.281563
0.258364 0.250549 0.253724
0.363614 0.232723 0.227595
0.459341 0.218315 0.204396
0.542613 0.208547 0.185104
0.621978 0.199023 0.167033
0.680098 0.191941 0.156044
0.738217 0.185104 0.145055
0.778755 0.178266 0.138706
0.816361 0.171429 0.133333
0.845421 0.163614 0.129182
0.867888 0.155311 0.126252
0.886935 0.146764 0.123321
0.897436 0.136752 0.119902
0.907937 0.126740 0.116484
0.028327 0.450794 0.410256
0.088889 0.417827 0.379731
0.149695 0.384860 0.349206
0.241026 0.355067 0.317460
0.345055 0.326740 0.285226
0.440293 0.304029 0.256166
0.524298 0.288156 0.231502
0.604884 0.273260 0.208303
0.664957 0.262515 0.194383
0.725275 0.251770 0.180464
0.768498 0.242002 0.173138
0.808791 0.232234 0.166789
0.840781 0.221734 0.162393
0.866178 0.210501 0.159707
0.887912 0.198535 0.156777
0.900122 0.185104 0.153358
0.912088 0.171673 0.150183
0.029548 0.544322 0.465201
0.082784 0.515018 0.437363
0.136020 0.485714 0.409524
0.223443 0.454212 0.377045
0.324542 0.421978 0.343101
0.420024 0.394628 0.311600
0.508181 0.373871 0.283761
0.592674 0.354090 0.257387
0.654457 0.339927 0.240537
0.716239 0.325763 0.223932
0.761661 0.313553 0.215385
0.804396 0.301587 0.208303
0.838339 0.288889 0.203663
0.866178 0.275458 0.201221
0.889866 0.261294 0.198535
0.903297 0.245177 0.195360
0.916728 0.229060 0.192186
0.030037 0.622466 0.508425
0.076435 0.597802 0.484249
0.123077 0.573138 0.460073
0.205372 0.546276 0.431502
0.301832 0.518437 0.401221
0.398535 0.492063 0.371917
0.495238 0.467155 0.343834
0.587302 0.443468 0.316728
0.650061 0.426374 0.297192
0.712821 0.409280 0.277411
0.759463 0.395604 0.267888
0.803663 0.382173 0.260317
0.839072 0.368254 0.255678
0.868132 0.353846 0.253724
0.893040 0.338462 0.251526
0.907448 0.320635 0.248596
0.921612 0.302808 0.245665
0.030525 0.696215 0.548962
0.070574 0.675946 0.528449
0.110623 0.655922 0.507937
0.187546 0.633700 0.483272
0.279365 0.610501 0.457143
0.376557 0.585592 0.430281
0.480830 0.557998 0.402442
0.579731 0.531624 0.375580
0.645177 0.512088 0.353846
0.710379 0.492552 0.332112
0.758486 0.477167 0.321612
0.803663 0.462759 0.313309
0.840293 0.447863 0.308669
0.870574 0.432479 0.307204
0.896459 0.416361 0.305250
0.911355 0.397070 0.302808
0.926496 0.378022 0.300122
0.030525 0.743346 0.572405
0.065201 0.727473 0.555800
0.099878 0.711844 0.539194
0.171673 0.694506 0.519170
0.258364 0.676190 0.497924
0.352625 0.656410 0.475946
0.457387 0.633944 0.453236
0.557998 0.612210 0.431013
0.635897 0.592918 0.412454
0.713553 0.573382 0.394139
0.763126 0.557753 0.382662
0.808059 0.542857 0.372650
0.844689 0.527961 0.367766
0.874725 0.513553 0.366300
0.900611 0.497924 0.364835
0.915751 0.479609 0.362637
0.930647 0.461050 0.360440
0.030525 0.790232 0.596093
0.059829 0.778999 0.583394
0.089377 0.767766 0.570452
0.156044 0.755067 0.555067
0.237363 0.741880 0.538706
0.328938 0.726984 0.521612
0.433700 0.710134 0.503785
0.536508 0.692796 0.486447
0.626374 0.673504 0.471062
0.716484 0.654457 0.455922
0.767766 0.638339 0.443956
0.812698 0.622711 0.432234
0.849084 0.608303 0.426618
0.879121 0.594628 0.425641
0.904762 0.579731 0.424420
0.919902 0.561905 0.422711
0.935043 0.544078 0.420757
0.030281 0.815385 0.607082
0.055922 0.807326 0.597314
0.081319 0.799267 0.587302
0.143101 0.790232 0.575824
0.219536 0.780952 0.563858
0.307448 0.770208 0.551404
0.410745 0.757753 0.538462
0.512821 0.745055 0.525763
0.608059 0.729915 0.515018
0.703053 0.714530 0.504029
0.762637 0.700855 0.495238
0.816361 0.687424 0.486935
0.855678 0.674481 0.482051
0.884493 0.662027 0.480098
0.909158 0.648596 0.478388
0.923565 0.632479 0.476679
0.937973 0.616606 0.474969
0.030281 0.836630 0.616117
0.052015 0.831746 0.609035
0.073504 0.826618 0.601954
0.130647 0.821245 0.594139
0.201954 0.815385 0.586081
0.286203 0.808791 0.578266
0.387790 0.800733 0.570208
0.489133 0.792430 0.562393
0.588034 0.781929 0.556044
0.686935 0.771429 0.549939
0.755800 0.760440 0.545299
0.819780 0.749451 0.540659
0.863004 0.738217 0.536996
0.890354 0.726984 0.534066
0.913553 0.715018 0.531380
0.926984 0.701343 0.529915
0.940659 0.687668 0.528205
0.030281 0.849084 0.620757
0.048840 0.846154 0.615629
0.067399 0.843223 0.610745
0.120147 0.840049 0.605861
0.186569 0.836874 0.600977
0.266911 0.833211 0.596337
0.365812 0.828571 0.592186
0.465201 0.823443 0.588034
0.566300 0.816606 0.585836
0.667399 0.809768 0.583394
0.743346 0.801465 0.582418
0.815140 0.793162 0.581441
0.863248 0.784615 0.579731
0.893040 0.775824 0.577778
0.917949 0.766056 0.575824
0.930159 0.754579 0.573871
0.942125 0.743101 0.571917
0.030525 0.854701 0.622466
0.046398 0.852991 0.618803
0.062027 0.851282 0.615140
0.110623 0.849817 0.612210
0.172405 0.848596 0.609768
0.248840 0.846886 0.607814
0.344811 0.844689 0.606593
0.441514 0.842247 0.605617
0.543834 0.838095 0.606838
0.645910 0.834188 0.607814
0.726984 0.828816 0.610012
0.804396 0.823443 0.612210
0.858120 0.817827 0.613431
0.893773 0.812210 0.614164
0.922100 0.805372 0.613675
0.932601 0.796337 0.611233
0.943101 0.787302 0.608791
0.030769 0.858852 0.624420
0.043956 0.858120 0.621978
0.057387 0.857387 0.619292
0.101832 0.857143 0.618071
0.158974 0.857387 0.617338
0.231258 0.857143 0.617338
0.324054 0.856899 0.618559
0.418071 0.856410 0.620024
0.520635 0.854457 0.623687
0.623199 0.852747 0.627595
0.708669 0.849817 0.632234
0.791209 0.846642 0.637363
0.850305 0.843468 0.641026
0.891575 0.840049 0.643956
0.924054 0.835897 0.645421
0.933822 0.829304 0.642979
0.943590 0.822955 0.640537
0.031258 0.859341 0.627106
0.042491 0.858608 0.624908
0.053724 0.857875 0.622466
0.094505 0.858120 0.621734
0.147009 0.858608 0.621734
0.215140 0.858852 0.622466
0.304029 0.858852 0.624176
0.394872 0.858852 0.626129
0.496703 0.857875 0.631013
0.598291 0.856654 0.635653
0.686203 0.854701 0.641514
0.771429 0.852503 0.647863
0.835165 0.850061 0.653236
0.882540 0.847131 0.657631
0.919658 0.844200 0.660806
0.931380 0.840537 0.660562
0.943101 0.836874 0.660073
0.031746 0.860073 0.630037
0.040781 0.859341 0.627839
0.050061 0.858608 0.625885
0.086935 0.859096 0.625641
0.135043 0.859829 0.626129
0.199023 0.860562 0.627350
0.284249 0.861050 0.629792
0.371673 0.861294 0.632479
0.472527 0.861050 0.638095
0.573626 0.860806 0.643712
0.663492 0.859585 0.650794
0.751893 0.858364 0.658364
0.820024 0.856410 0.665201
0.873504 0.854457 0.671551
0.915507 0.852503 0.676435
0.929182 0.851770 0.677900
0.942857 0.850794 0.679609
0.019048 0.041758 0.188523
0.116728 0.037607 0.181197
0.214408 0.033700 0.174115
0.321612 0.035653 0.162882
0.432723 0.040049 0.150183
0.531624 0.044200 0.138706
0.613919 0.048352 0.128938
0.692308 0.052259 0.119658
0.744078 0.055189 0.113065
0.796093 0.058120 0.106471
0.827106 0.060317 0.101343
0.854457 0.062515 0.096703
0.873016 0.064225 0.092308
0.884737 0.065934 0.088645
0.894017 0.067155 0.085226
0.897192 0.068132 0.082295
0.900366 0.069109 0.079365
0.021490 0.136996 0.248352
0.102320 0.116239 0.226374
0.183394 0.095238 0.204640
0.284249 0.088645 0.187057
0.393162 0.087912 0.171184
0.491087 0.087668 0.157509
0.574359 0.088645 0.146032
0.653480 0.089621 0.135043
0.708913 0.090110 0.127473
0.764347 0.090598 0.120147
0.800244 0.090354 0.114530
0.832967 0.090110 0.109158
0.856899 0.088889 0.104029
0.874237 0.087179 0.099390
0.888889 0.085226 0.094750
0.895971 0.082295 0.089866
0.903053 0.079365 0.085226
0.023932 0.232479 0.308181
0.088156 0.194628 0.271551
0.152137 0.156777 0.234921
0.246886 0.141636 0.211233
0.353846 0.135531 0.192430
0.450794 0.131380 0.176068
0.534554 0.129182 0.162882
0.614896 0.126984 0.150427
0.673504 0.125275 0.142125
0.732357 0.123321 0.133822
0.773382 0.120635 0.127473
0.811477 0.117705 0.121612
0.841026 0.113553 0.115995
0.863980 0.108425 0.110134
0.883516 0.103053 0.104274
0.894750 0.096215 0.097680
0.905739 0.089377 0.090842
0.025885 0.336020 0.369719
0.080586 0.294750 0.329670
0.135043 0.253724 0.289866
0.225397 0.230525 0.260562
0.329670 0.214408 0.235165
0.425641 0.201954 0.213187
0.510134 0.194628 0.195849
0.591209 0.187790 0.179243
0.652259 0.182662 0.168742
0.713309 0.177534 0.158242
0.757753 0.171917 0.150916
0.799512 0.166056 0.144322
0.832479 0.158974 0.138217
0.859341 0.150916 0.132601
0.882540 0.142369 0.126740
0.896215 0.131868 0.119902
0.909890 0.121368 0.113065
0.027839 0.442735 0.431502
0.075702 0.403663 0.393162
0.123565 0.364835 0.354579
0.210012 0.333578 0.319902
0.311844 0.305250 0.286691
0.406349 0.283516 0.257875
0.491575 0.270330 0.235165
0.573626 0.257875 0.213675
0.636630 0.249084 0.200244
0.699634 0.240293 0.186813
0.746764 0.231502 0.178510
0.791209 0.222711 0.171184
0.827350 0.212943 0.165079
0.857143 0.201954 0.159707
0.883028 0.190232 0.154335
0.898901 0.176313 0.147985
0.914530 0.162393 0.141880
0.029060 0.537973 0.484982
0.070818 0.502320 0.448840
0.112332 0.466667 0.412943
0.194383 0.432723 0.376557
0.292552 0.399267 0.340171
0.386813 0.371917 0.307937
0.475702 0.353114 0.281074
0.561416 0.335287 0.255922
0.625641 0.323077 0.239560
0.690110 0.310867 0.223443
0.739438 0.299634 0.214164
0.785836 0.288889 0.206105
0.824420 0.276679 0.199756
0.856654 0.263492 0.195116
0.884493 0.249573 0.189988
0.902076 0.232967 0.184371
0.919414 0.216361 0.178755
0.029792 0.618071 0.526984
0.065690 0.587302 0.494750
0.101587 0.556288 0.462515
0.178510 0.526496 0.429548
0.271795 0.496947 0.396337
0.366545 0.469597 0.364835
0.463492 0.445665 0.336264
0.556044 0.422711 0.308913
0.621245 0.407326 0.289622
0.686691 0.392186 0.270574
0.736996 0.379243 0.260317
0.784860 0.366789 0.251526
0.824420 0.353602 0.245421
0.858120 0.339438 0.241270
0.887424 0.324054 0.236874
0.905983 0.305739 0.231990
0.924542 0.287668 0.226862
0.030281 0.693773 0.566300
0.060806 0.667643 0.537973
0.091087 0.641514 0.509402
0.162882 0.615873 0.480098
0.251038 0.590476 0.450061
0.346032 0.564103 0.420269
0.449817 0.536020 0.390720
0.548474 0.509402 0.362149
0.616361 0.491331 0.340659
0.684005 0.473260 0.319170
0.735531 0.459096 0.307937
0.784371 0.445421 0.298657
0.825397 0.430769 0.292552
0.860317 0.415873 0.288889
0.890598 0.399512 0.285226
0.910134 0.380220 0.280830
0.929670 0.360684 0.276190
0.030281 0.742369 0.588767
0.056166 0.721368 0.565079
0.082051 0.700611 0.541148
0.148718 0.679853 0.516484
0.231502 0.659341 0.491331
0.323321 0.637851 0.466178
0.427106 0.614652 0.440781
0.527717 0.592186 0.416361
0.607570 0.573626 0.396825
0.687424 0.554823 0.377534
0.740415 0.539927 0.365324
0.789011 0.525519 0.354335
0.829548 0.511111 0.347497
0.864469 0.496947 0.344322
0.894750 0.481319 0.340659
0.914286 0.462271 0.336752
0.933822 0.443468 0.332845
0.030281 0.790965 0.611477
0.051770 0.775336 0.592186
0.073016 0.759707 0.572894
0.134554 0.744078 0.552869
0.211722 0.728205 0.532601
0.300366 0.711600 0.512088
0.404396 0.693529 0.491087
0.506716 0.674969 0.470574
0.598779 0.655678 0.453236
0.690598 0.636386 0.435897
0.745055 0.620757 0.422466
0.793407 0.605617 0.410012
0.833944 0.591453 0.402686
0.868620 0.577778 0.399512
0.898901 0.562882 0.396337
0.918437 0.544567 0.392918
0.938217 0.526496 0.389255
0.030281 0.817094 0.621490
0.048107 0.805372 0.605861
0.066178 0.793651 0.590476
0.122589 0.782173 0.574847
0.194628 0.770696 0.559219
0.279853 0.758242 0.543346
0.382173 0.744811 0.527228
0.483761 0.730891 0.511600
0.580708 0.715263 0.498168
0.677656 0.699634 0.484982
0.740415 0.685959 0.474481
0.797558 0.672772 0.464469
0.841026 0.659829 0.457875
0.874237 0.647131 0.453724
0.903297 0.633455 0.449817
0.922100 0.617338 0.446398
0.940904 0.601221 0.442979
0.030037 0.839316 0.629060
0.044689 0.831258 0.617338
0.059341 0.823443 0.605617
0.111355 0.815873 0.594383
0.178266 0.808547 0.583394
0.259341 0.800488 0.572161
0.359707 0.791453 0.561172
0.460317 0.782173 0.550183
0.560928 0.771184 0.541392
0.661783 0.759951 0.532601
0.734066 0.748718 0.525519
0.801465 0.737485 0.518926
0.848596 0.726007 0.513065
0.880098 0.714530 0.507692
0.907692 0.702320 0.502808
0.925519 0.688401 0.499389
0.943346 0.674481 0.495971
0.030281 0.852015 0.632967
0.042247 0.846886 0.623687
0.053968 0.841514 0.614652
0.101587 0.836874 0.606838
0.163370 0.832723 0.599512
0.240781 0.827839 0.592186
0.338462 0.822466 0.585348
0.437118 0.816606 0.578755
0.539927 0.809280 0.573871
0.642735 0.801709 0.568987
0.722100 0.793407 0.565568
0.797314 0.784615 0.562393
0.849084 0.775580 0.558486
0.883028 0.766545 0.554090
0.912088 0.756532 0.549939
0.928449 0.744811 0.546032
0.944811 0.733089 0.542125
0.030525 0.858120 0.633455
0.040049 0.854457 0.626374
0.049573 0.850794 0.619292
0.093284 0.848352 0.614164
0.150183 0.846398 0.609768
0.223443 0.843956 0.605861
0.317949 0.841514 0.602442
0.413919 0.838584 0.599512
0.517705 0.834188 0.598291
0.621734 0.829792 0.597070
0.705983 0.824176 0.597070
0.787302 0.818559 0.597314
0.844689 0.812698 0.596581
0.884005 0.806593 0.595116
0.916484 0.799756 0.592674
0.930891 0.790232 0.587790
0.945055 0.780952 0.583150
0.030769 0.862515 0.634432
0.038339 0.860073 0.628816
0.045665 0.857631 0.623199
0.085226 0.856654 0.620269
0.137729 0.856654 0.618315
0.206838 0.856410 0.617094
0.298169 0.855922 0.616606
0.391209 0.855189 0.616361
0.495482 0.853236 0.618315
0.599512 0.851282 0.620269
0.688401 0.848107 0.623443
0.774603 0.844933 0.626618
0.837363 0.841514 0.628571
0.882540 0.837851 0.629792
0.918437 0.833455 0.629304
0.931868 0.826618 0.624664
0.945299 0.819780 0.620024
0.031502 0.863004 0.636386
0.037118 0.860562 0.630769
0.042735 0.857875 0.625397
0.078877 0.857631 0.623199
0.126984 0.858364 0.622466
0.192186 0.858608 0.622466
0.279609 0.858852 0.623199
0.369231 0.858608 0.624176
0.472527 0.857631 0.627595
0.575580 0.856654 0.631013
0.666667 0.854457 0.635897
0.755556 0.852259 0.641026
0.822955 0.849817 0.645177
0.874237 0.846886 0.648840
0.915018 0.843956 0.650794
0.929670 0.840293 0.649084
0.944322 0.836386 0.647619
0.032234 0.863736 0.638095
0.036142 0.861050 0.632967
0.040049 0.858364 0.627595
0.072527 0.858608 0.626374
0.116484 0.859829 0.626862
0.177289 0.861050 0.627839
0.261050 0.861783 0.629792
0.347253 0.862271 0.631990
0.449573 0.862027 0.636874
0.551648 0.862027 0.641758
0.644933 0.860806 0.648596
0.736508 0.859585 0.655433
0.808547 0.858120 0.661783
0.865934 0.856166 0.667643
0.911600 0.854457 0.672283
0.927473 0.853724 0.673504
0.943346 0.852991 0.674969
0.018559 0.056899 0.239560
0.106227 0.051038 0.231990
0.194139 0.045177 0.224420
0.299145 0.044444 0.211722
0.411233 0.045421 0.196825
0.511600 0.047619 0.182662
0.596337 0.051526 0.169719
0.676679 0.054945 0.157509
0.731136 0.057875 0.148230
0.785592 0.060806 0.138950
0.818803 0.063004 0.131624
0.848596 0.065201 0.124542
0.869109 0.067155 0.117949
0.882540 0.068864 0.112088
0.893284 0.070574 0.106471
0.897192 0.071551 0.101832
0.901099 0.072772 0.096947
