src-tauri/resources/luts/旅拍大片质感.cube
# Converted from .3dl (size 17x17x17) using Python
LUT_3D_SIZE 9
DOMAIN_MIN 0.0 0.0 0.0
DOMAIN_MAX 1.0 1.0 1.0
0.019536 0.011722 0.085958
0.269597 0.024176 0.085470
0.490354 0.037363 0.078877
0.663004 0.048840 0.072039
0.781685 0.056899 0.067643
0.852015 0.062027 0.065934
0.885714 0.064957 0.065934
0.897436 0.065934 0.066178
0.899390 0.066422 0.066422
0.025153 0.247619 0.252747
0.212210 0.190476 0.205617
0.421490 0.163614 0.162637
0.597314 0.147985 0.128449
0.726252 0.136752 0.105495
0.812210 0.126740 0.093284
0.863980 0.116728 0.088645
0.891575 0.105495 0.088400
0.902320 0.093040 0.089133
0.028571 0.458852 0.388767
0.175580 0.404884 0.343834
0.378266 0.348474 0.283516
0.557021 0.305983 0.227839
0.693285 0.275946 0.188767
0.790232 0.252503 0.167766
0.854212 0.230525 0.159951
0.892796 0.207082 0.159219
0.909646 0.180952 0.158486
0.030281 0.626862 0.489866
0.144567 0.589988 0.457631
0.331868 0.540171 0.406349
0.527228 0.488645 0.351404
0.679121 0.445421 0.304518
0.782173 0.411722 0.275458
0.853480 0.382906 0.265934
0.898413 0.352869 0.265934
0.918926 0.317949 0.264469
0.030525 0.744078 0.556288
0.117705 0.723321 0.537241
0.285226 0.693040 0.504274
0.487424 0.653236 0.465446
0.663980 0.612210 0.428083
0.785836 0.575824 0.400244
0.859585 0.545055 0.387790
0.906471 0.514774 0.389011
0.927717 0.478388 0.388278
0.030525 0.813675 0.592918
0.096459 0.805128 0.584371
0.244200 0.791209 0.568254
0.439316 0.770696 0.549451
0.635409 0.744322 0.531624
0.784860 0.715751 0.516239
0.870574 0.689133 0.506471
0.915263 0.663492 0.506716
0.934799 0.632234 0.507204
0.030525 0.845910 0.608547
0.080586 0.844689 0.606593
0.209524 0.841270 0.602198
0.393407 0.834432 0.598779
0.592918 0.823932 0.597802
0.764835 0.809768 0.599267
0.877167 0.793407 0.601221
0.923810 0.775580 0.601465
0.939683 0.753358 0.601954
0.030769 0.855433 0.614408
0.069109 0.857143 0.615629
0.179976 0.857875 0.616361
0.349939 0.857875 0.620513
0.546032 0.855922 0.629060
0.728938 0.851526 0.641270
0.863248 0.845421 0.653480
0.929426 0.838339 0.661294
0.941636 0.825885 0.661050
0.031258 0.856410 0.621734
0.059829 0.858852 0.624176
0.153602 0.859829 0.625397
0.307204 0.860317 0.629548
0.495726 0.860073 0.639072
0.682296 0.858364 0.653236
0.831746 0.854945 0.668376
0.919414 0.850794 0.680342
0.942369 0.848596 0.684249
0.019048 0.041758 0.188523
0.214408 0.033700 0.174115
0.432723 0.040049 0.150183
0.613919 0.048352 0.128938
0.744078 0.055189 0.113065
0.827106 0.060317 0.101343
0.873016 0.064225 0.092308
0.894017 0.067155 0.085226
0.900366 0.069109 0.079365
0.023932 0.232479 0.308181
0.152137 0.156777 0.234921
0.353846 0.135531 0.192430
0.534554 0.129182 0.162882
0.673504 0.125275 0.142125
0.773382 0.120635 0.127473
0.841026 0.113553 0.115995
0.883516 0.103053 0.104274
0.905739 0.089377 0.090842
0.027839 0.442735 0.431502
0.123565 0.364835 0.354579
0.311844 0.305250 0.286691
0.491575 0.270330 0.235165
0.636630 0.249084 0.200244
0.746764 0.231502 0.178510
0.827350 0.212943 0.165079
0.883028 0.190232 0.154335
0.914530 0.162393 0.141880
0.029792 0.618071 0.526984
0.101587 0.556288 0.462515
0.271795 0.496947 0.396337
0.463492 0.445665 0.336264
0.621245 0.407326 0.289622
0.736996 0.379243 0.260317
0.824420 0.353602 0.245421
0.887424 0.324054 0.236874
0.924542 0.287668 0.226862
0.030281 0.742369 0.588767
0.082051 0.700611 0.541148
0.231502 0.659341 0.491331
0.427106 0.614652 0.440781
0.607570 0.573626 0.396825
0.740415 0.539927 0.365324
0.829548 0.511111 0.347497
0.894750 0.481319 0.340659
0.933822 0.443468 0.332845
0.030281 0.817094 0.621490
0.066178 0.793651 0.590476
0.194628 0.770696 0.559219
0.382173 0.744811 0.527228
0.580708 0.715263 0.498168
0.740415 0.685959 0.474481
0.841026 0.659829 0.457875
0.903297 0.633455 0.449817
0.940904 0.601221 0.442979
0.030281 0.852015 0.632967
0.053968 0.841514 0.614652
0.163370 0.832723 0.599512
0.338462 0.822466 0.585348
0.539927 0.809280 0.573871
0.722100 0.793407 0.565568
0.849084 0.775580 0.558486
0.912088 0.756532 0.549939
0.944811 0.733089 0.542125
0.030769 0.862515 0.634432
0.045665 0.857631 0.623199
0.137729 0.856654 0.618315
0.298169 0.855922 0.616606
0.495482 0.853236 0.618315
0.688401 0.848107 0.623443
0.837363 0.841514 0.628571
0.918437 0.833455 0.629304
0.945299 0.819780 0.620024
0.032234 0.863736 0.638095
0.040049 0.858364 0.627595
0.116484 0.859829 0.626862
0.261050 0.861783 0.629792
0.449573 0.862027 0.636874
0.644933 0.860806 0.648596
0.808547 0.858120 0.661783
0.911600 0.854457 0.672283
0.943346 0.852991 0.674969
0.017827 0.072527 0.290598
0.176557 0.059585 0.277411
0.392918 0.052503 0.247863
0.581441 0.055922 0.215629
0.720391 0.062271 0.188278
0.812210 0.067399 0.166789
0.866178 0.071306 0.148474
0.893040 0.074725 0.132357
0.902320 0.077167 0.119170
0.022222 0.231013 0.386081
0.119170 0.158242 0.316972
0.316728 0.133089 0.277900
0.502320 0.125763 0.243712
0.649084 0.123321 0.214896
0.757265 0.120391 0.191941
0.832967 0.115018 0.170940
0.882540 0.106227 0.148718
0.908669 0.094505 0.124786
0.025885 0.431013 0.493773
0.100855 0.353602 0.419292
0.272527 0.289133 0.349695
0.451526 0.254945 0.297192
0.603175 0.237118 0.260562
0.721856 0.222711 0.234432
0.812698 0.206838 0.212698
0.878877 0.186081 0.190476
0.920147 0.160195 0.164591
0.028083 0.611966 0.584127
0.085226 0.547253 0.518437
0.232479 0.478144 0.444444
0.418803 0.422955 0.377534
0.581685 0.386325 0.327717
0.706227 0.361172 0.294994
0.805128 0.337485 0.273016
0.881319 0.309646 0.254212
0.931624 0.274481 0.232967
0.028571 0.745299 0.644444
0.069597 0.699145 0.592918
0.192674 0.646154 0.531380
0.379487 0.593651 0.468132
0.563858 0.549695 0.414652
0.705983 0.516239 0.376557
0.807326 0.488889 0.352137
0.886935 0.459585 0.336508
0.941148 0.422711 0.320391
0.028571 0.826862 0.674725
0.056166 0.799023 0.638339
0.156288 0.765324 0.594139
0.331868 0.731624 0.547985
0.533089 0.697192 0.505250
0.702564 0.665446 0.470330
0.816361 0.638339 0.445177
0.893773 0.611966 0.429060
0.947741 0.579976 0.415629
0.028327 0.865201 0.682784
0.046154 0.851526 0.658852
0.125519 0.834676 0.630769
0.286203 0.818803 0.603663
0.488645 0.801954 0.579243
0.680830 0.782906 0.558242
0.822711 0.762882 0.539927
0.901099 0.742613 0.523077
0.950672 0.718926 0.508669
0.028816 0.875946 0.679365
0.039316 0.869109 0.662027
0.100855 0.862515 0.645421
0.245421 0.858852 0.633455
0.442247 0.854945 0.625885
0.644689 0.849084 0.620757
0.809280 0.841270 0.616361
0.907204 0.831746 0.608303
0.949451 0.817094 0.592674
0.030525 0.875702 0.676923
0.035165 0.869353 0.660317
0.082540 0.865690 0.647619
0.210989 0.866422 0.643223
0.397558 0.867888 0.645177
0.601465 0.867399 0.650794
0.780952 0.865446 0.659096
0.901343 0.862759 0.665446
0.945299 0.862027 0.665201
0.016606 0.099878 0.380708
0.143834 0.087668 0.372405
0.349206 0.075702 0.347985
0.554090 0.070085 0.312332
0.708425 0.072772 0.277900
0.806593 0.078632 0.249328
0.864957 0.082784 0.224420
0.894750 0.086203 0.201465
0.904762 0.088400 0.181929
0.020024 0.229792 0.457631
0.093284 0.166056 0.401221
0.279609 0.139683 0.370940
0.481074 0.126984 0.335531
0.641514 0.122833 0.300855
0.754090 0.122100 0.271306
0.833211 0.118926 0.243468
0.884493 0.112821 0.214408
0.911111 0.103541 0.183883
0.023687 0.415385 0.555311
0.080586 0.345543 0.493040
0.234188 0.283516 0.432967
0.427106 0.246886 0.383883
0.592918 0.228327 0.344567
0.715995 0.216117 0.312576
0.810745 0.202930 0.283761
0.880098 0.185836 0.253236
0.923810 0.164347 0.219048
0.025885 0.601709 0.644933
0.071795 0.540415 0.587790
0.198779 0.472527 0.520391
0.388767 0.414896 0.456654
0.560684 0.376313 0.405128
0.691331 0.351404 0.367521
0.796581 0.329182 0.338462
0.879609 0.303541 0.310379
0.937241 0.271795 0.278388
0.026618 0.746764 0.707448
0.060317 0.700855 0.660317
0.164591 0.646398 0.601709
0.343834 0.589011 0.537241
0.532112 0.540415 0.478388
0.682540 0.504518 0.433211
0.792674 0.476435 0.401954
0.882051 0.447863 0.377534
0.947741 0.412943 0.351893
0.026374 0.837118 0.738950
0.049328 0.808791 0.704029
0.131380 0.772405 0.659096
0.291331 0.732112 0.608059
0.491819 0.691087 0.555067
0.672039 0.654701 0.508913
0.797558 0.625397 0.475458
0.886691 0.598046 0.451770
0.954090 0.567033 0.431746
0.026129 0.881074 0.746520
0.040781 0.866667 0.721856
0.103541 0.847375 0.690843
0.241758 0.825397 0.656410
0.438339 0.802930 0.620757
0.641514 0.779976 0.586569
0.799267 0.756044 0.556777
0.891819 0.733578 0.532112
0.955800 0.709402 0.512821
0.026129 0.893284 0.739927
0.035165 0.886447 0.721123
0.081563 0.877900 0.700122
0.199267 0.869841 0.679609
0.385592 0.862759 0.661050
0.597558 0.855189 0.644933
0.779243 0.845177 0.629792
0.895971 0.833455 0.613187
0.953114 0.817338 0.592430
0.027839 0.891819 0.731868
0.031746 0.886203 0.714042
0.065934 0.880830 0.695971
0.165812 0.878144 0.682540
0.339194 0.878144 0.674969
0.550916 0.878388 0.672772
0.747253 0.877167 0.673504
0.887668 0.874969 0.674481
0.947009 0.874237 0.670818
0.015385 0.121123 0.449817
0.115018 0.111111 0.446886
0.303297 0.099634 0.431502
0.516239 0.089621 0.401221
0.692796 0.085958 0.365568
0.807326 0.089133 0.333333
0.868376 0.094505 0.306227
0.898413 0.097680 0.280586
0.907692 0.099634 0.258120
0.017827 0.225153 0.511355
0.071062 0.171673 0.468620
0.240781 0.147497 0.448840
0.450305 0.131624 0.419536
0.632967 0.123565 0.384127
0.760195 0.122100 0.350672
0.839316 0.122100 0.320879
0.888889 0.118681 0.289866
0.913065 0.112576 0.257387
0.021490 0.394872 0.602198
0.061783 0.333822 0.553358
0.194628 0.277656 0.506960
0.395604 0.240537 0.467399
0.585104 0.218315 0.428083
0.723321 0.205372 0.391453
0.817094 0.196093 0.359707
0.884493 0.183639 0.326496
0.925275 0.167766 0.289866
0.023932 0.580464 0.692552
0.057387 0.524786 0.646642
0.164835 0.463248 0.593407
0.352137 0.407326 0.540904
0.544322 0.365324 0.491819
0.693529 0.337485 0.450061
0.799512 0.317216 0.416117
0.882295 0.295482 0.383394
0.939683 0.269841 0.346764
0.024664 0.738217 0.762149
0.050794 0.695238 0.723077
0.138950 0.644444 0.674969
0.305250 0.588278 0.620269
0.504518 0.536264 0.564347
0.673016 0.496215 0.515995
0.787546 0.466667 0.478632
0.881074 0.438828 0.447619
0.951404 0.407570 0.415385
0.024420 0.843712 0.800977
0.042491 0.815873 0.770940
0.112332 0.781197 0.732357
0.253968 0.739683 0.686203
0.454457 0.694994 0.634432
0.647863 0.653724 0.584371
0.784371 0.620024 0.542857
0.881563 0.590720 0.512088
0.957998 0.560195 0.485470
0.023932 0.894994 0.810989
0.035409 0.881074 0.789499
0.088156 0.862515 0.761905
0.206105 0.838828 0.728694
0.392186 0.812210 0.690598
0.603663 0.783883 0.649328
0.778755 0.755311 0.609524
0.884005 0.729426 0.577778
0.958730 0.704029 0.553846
0.023932 0.910623 0.804640
0.031013 0.904762 0.787790
0.069353 0.896948 0.768498
0.165568 0.887424 0.746276
0.333822 0.877167 0.722833
0.546764 0.866178 0.698413
0.747009 0.853724 0.673260
0.884737 0.838339 0.648352
0.955067 0.819780 0.623687
0.025153 0.909402 0.794383
0.028327 0.905006 0.777534
0.056166 0.900122 0.760440
0.134799 0.896215 0.743346
0.285714 0.894261 0.729182
0.492796 0.893773 0.718926
0.706227 0.892796 0.711355
0.868864 0.890354 0.705983
0.947253 0.888645 0.698169
0.014652 0.135043 0.494505
0.091087 0.127717 0.495726
0.260317 0.117949 0.488400
0.468376 0.108425 0.467399
0.662759 0.101099 0.436142
0.801709 0.099145 0.404396
0.874481 0.102808 0.378266
0.903785 0.106227 0.355311
0.911600 0.107692 0.334066
0.016361 0.216850 0.544078
0.053236 0.173138 0.513553
0.203419 0.152137 0.502564
0.408791 0.137241 0.482784
0.610012 0.126252 0.451526
0.761172 0.121368 0.418315
0.849328 0.121856 0.389499
0.895238 0.121856 0.361661
0.915263 0.118437 0.332601
0.019780 0.370940 0.628327
0.046398 0.317460 0.591209
0.157998 0.267399 0.557265
0.353114 0.232234 0.529182
0.562637 0.207570 0.494994
0.726252 0.191941 0.457631
0.828571 0.183883 0.425153
0.890354 0.176801 0.394872
0.925519 0.166545 0.361905
0.022466 0.549695 0.718926
0.044689 0.500122 0.683761
0.131868 0.444689 0.643956
0.305739 0.392918 0.605372
0.515995 0.349206 0.563614
0.694506 0.316972 0.521368
0.810745 0.296215 0.484249
0.887424 0.279609 0.452259
0.938706 0.261294 0.418315
0.023199 0.715751 0.796093
0.041514 0.676435 0.766300
0.113309 0.630037 0.730159
0.261294 0.578755 0.688889
0.468132 0.526984 0.643712
0.662515 0.481807 0.597558
0.793407 0.447863 0.555800
0.883761 0.422222 0.522100
0.950916 0.396337 0.488889
0.022711 0.838339 0.846398
0.036386 0.812210 0.823443
0.094017 0.779976 0.793895
0.217338 0.741636 0.758242
0.411966 0.697924 0.717216
0.621001 0.652503 0.671306
0.779487 0.612210 0.626374
0.879609 0.580464 0.589988
0.958242 0.551404 0.559219
0.021978 0.904029 0.865934
0.031013 0.891087 0.849573
0.074481 0.873748 0.828083
0.176557 0.851770 0.801465
0.347497 0.824420 0.769475
0.562882 0.792430 0.731136
0.759951 0.759219 0.688889
0.877167 0.728205 0.650794
0.958974 0.701099 0.622466
0.021978 0.924786 0.863004
0.027106 0.920147 0.850305
0.058608 0.913553 0.834921
0.140904 0.905250 0.817094
0.289133 0.894017 0.796093
0.494505 0.880830 0.770940
0.711844 0.865201 0.741636
0.873016 0.845910 0.710134
0.954335 0.823443 0.681563
0.022711 0.924786 0.853236
0.024908 0.921856 0.840049
0.047375 0.918437 0.826374
0.114286 0.915507 0.811722
0.242491 0.913309 0.797070
0.434188 0.912088 0.783639
0.657143 0.911111 0.770940
0.844444 0.908181 0.758730
0.945543 0.904518 0.747497
0.014164 0.142125 0.517216
0.072283 0.136996 0.520391
0.221734 0.128938 0.518681
0.420024 0.120391 0.505250
0.619292 0.113553 0.481074
0.778755 0.108913 0.453480
0.874969 0.107937 0.429304
0.909158 0.110867 0.411966
0.915263 0.111844 0.396093
0.015140 0.206105 0.557021
0.040049 0.170452 0.535043
0.169963 0.153114 0.530647
0.364103 0.139683 0.518437
0.571184 0.129182 0.494994
0.743834 0.122100 0.465446
0.854457 0.119414 0.438339
0.902076 0.120635 0.416850
0.917216 0.119902 0.395604
0.018559 0.344078 0.634921
0.035165 0.296703 0.606349
0.126007 0.252503 0.581441
0.308425 0.220513 0.562393
0.523077 0.196825 0.536752
0.709890 0.178999 0.502808
0.835409 0.168254 0.470330
0.896948 0.164103 0.445421
0.924786 0.158974 0.421490
0.021490 0.515263 0.724298
0.035165 0.468864 0.697192
0.103541 0.418071 0.666911
0.259341 0.370696 0.638828
0.471062 0.328449 0.607082
0.674481 0.293773 0.568987
0.817094 0.268864 0.530403
0.893284 0.254945 0.501099
0.935287 0.243223 0.475214
0.022711 0.682051 0.805617
0.033944 0.644689 0.783150
0.089866 0.601954 0.756777
0.218071 0.554335 0.727228
0.418071 0.505983 0.694506
0.633700 0.458364 0.654701
0.797314 0.417338 0.610989
0.889133 0.391209 0.576557
0.946276 0.371673 0.548718
0.022222 0.817094 0.866667
0.031258 0.792674 0.850305
0.076190 0.762393 0.829792
0.182418 0.727228 0.805372
0.361416 0.686935 0.776313
0.581197 0.640537 0.740171
0.773382 0.593162 0.697436
0.881807 0.556288 0.657387
0.953846 0.529915 0.627350
0.021245 0.902320 0.900611
0.027595 0.890110 0.889866
0.062759 0.873993 0.875458
0.149939 0.853480 0.856899
0.301587 0.828083 0.834188
0.514774 0.797070 0.806349
0.734799 0.760440 0.771917
0.872527 0.721856 0.730403
0.955556 0.691819 0.697924
0.020513 0.933089 0.905739
0.024420 0.929670 0.898413
0.049817 0.924542 0.888889
0.119658 0.917460 0.876923
0.249817 0.907692 0.862027
0.442735 0.894750 0.843712
0.668864 0.877167 0.819780
0.860317 0.854457 0.788034
0.950916 0.826862 0.754823
0.021001 0.935531 0.899390
0.022466 0.933822 0.891087
0.040293 0.932112 0.882295
0.096459 0.930647 0.872527
0.207814 0.929915 0.862027
0.381685 0.929670 0.851770
0.600733 0.929182 0.840537
0.813431 0.926496 0.826129
0.941636 0.920391 0.811722
0.013919 0.144322 0.525031
0.058608 0.140904 0.527961
0.189011 0.133822 0.528694
0.374115 0.126252 0.520147
0.571917 0.119658 0.501343
0.742369 0.115018 0.477656
0.858120 0.112821 0.455922
0.911355 0.112332 0.442491
0.917949 0.112576 0.434432
0.014652 0.194139 0.556288
0.031258 0.165079 0.539438
0.141148 0.150916 0.538217
0.320391 0.139194 0.531136
0.524786 0.129182 0.513309
0.708913 0.122100 0.488400
0.840293 0.118437 0.463736
0.905983 0.116972 0.446642
0.918926 0.117460 0.435409
0.017582 0.316484 0.626862
0.028083 0.273748 0.603663
0.100366 0.234188 0.583394
0.265934 0.205861 0.570696
0.475946 0.184371 0.551404
0.674237 0.167033 0.522589
0.821734 0.155067 0.492796
0.900855 0.147985 0.470085
0.923077 0.146032 0.456410
0.020513 0.478388 0.713553
0.029060 0.433700 0.690598
0.081563 0.386325 0.665690
0.217582 0.342613 0.643956
0.421245 0.303053 0.619780
0.635165 0.269353 0.587790
0.801221 0.242979 0.551404
0.896459 0.224420 0.521123
0.930647 0.216606 0.504518
0.022466 0.644444 0.796825
0.029060 0.606838 0.778266
0.071306 0.565079 0.757265
0.179731 0.520147 0.734310
0.366300 0.474237 0.709402
0.587302 0.428083 0.677167
0.776068 0.383883 0.636386
0.891087 0.350427 0.598535
0.939194 0.333822 0.577289
0.022466 0.786325 0.863980
0.027595 0.760195 0.851282
0.061294 0.730159 0.836142
0.150183 0.695971 0.818559
0.312088 0.657875 0.798779
0.528938 0.613675 0.771917
0.742369 0.563370 0.734799
0.882540 0.515507 0.691819
0.946032 0.488889 0.664225
0.021245 0.884737 0.907937
0.025397 0.871551 0.901099
0.051526 0.855189 0.892063
0.124298 0.835409 0.881074
0.259829 0.811477 0.867155
0.461050 0.783150 0.850061
0.690354 0.745788 0.824908
0.868376 0.696703 0.785836
0.948230 0.662027 0.751160
0.020024 0.934066 0.927961
0.022711 0.931136 0.925275
0.042979 0.926252 0.921123
0.101832 0.919658 0.915018
0.215873 0.910867 0.906960
0.389499 0.898901 0.896459
0.612943 0.882295 0.882540
0.841270 0.858608 0.862271
0.944811 0.823687 0.824664
0.020024 0.940904 0.926740
0.021001 0.939927 0.923321
0.034921 0.939194 0.919658
0.082051 0.938706 0.915507
0.178510 0.939438 0.910623
0.332845 0.940659 0.905495
0.540904 0.942125 0.900611
0.772894 0.942125 0.894261
0.935775 0.935043 0.880342
0.015629 0.144567 0.527961
0.049084 0.141880 0.528938
0.161905 0.135775 0.530159
0.332357 0.128449 0.523565
0.524542 0.121856 0.507692
0.700611 0.117216 0.486203
0.830525 0.114530 0.465201
0.901099 0.113797 0.450061
0.918926 0.113309 0.445665
0.014652 0.183150 0.551160
0.026374 0.159219 0.536752
0.118193 0.147741 0.536508
0.280586 0.137485 0.531624
0.476923 0.128449 0.516972
0.664957 0.121368 0.494994
0.810501 0.117216 0.471551
0.894750 0.115507 0.453724
0.919170 0.114774 0.446642
0.016606 0.290110 0.613187
0.024420 0.251770 0.592918
0.082051 0.216361 0.574603
0.229304 0.191453 0.564591
0.428083 0.172161 0.549206
0.627839 0.156044 0.523810
0.789499 0.144322 0.495482
0.888400 0.136752 0.471795
0.920879 0.132357 0.460073
0.019536 0.440781 0.694750
0.025641 0.398046 0.674237
0.066911 0.353602 0.651282
0.184127 0.313065 0.631502
0.373871 0.276679 0.611233
0.586813 0.244933 0.583394
0.766300 0.219292 0.548474
0.882295 0.200000 0.516972
0.924786 0.186325 0.497924
0.021490 0.604151 0.777778
0.026374 0.565812 0.760928
0.059096 0.524786 0.741392
0.150916 0.481319 0.719902
0.320391 0.437607 0.698169
0.536264 0.393162 0.670085
0.737241 0.349695 0.631258
0.873993 0.314530 0.591453
0.930647 0.287424 0.563614
0.022222 0.751404 0.848840
0.025885 0.722833 0.837118
0.051526 0.691331 0.822955
0.126252 0.656654 0.807326
0.270330 0.619292 0.789988
0.476435 0.576313 0.767277
0.696948 0.526252 0.733822
0.859829 0.474725 0.689377
0.936020 0.433211 0.653236
0.021490 0.861050 0.898901
0.024176 0.844444 0.892796
0.043712 0.825397 0.884737
0.104029 0.803907 0.875458
0.223932 0.778999 0.864957
0.410989 0.751160 0.852991
0.638095 0.714774 0.833455
0.835897 0.661783 0.796825
0.938706 0.608791 0.755067
0.020269 0.922833 0.926252
0.021734 0.917216 0.924298
0.036630 0.910134 0.921612
0.085470 0.901587 0.917949
0.185348 0.891331 0.913797
0.344811 0.878877 0.909158
0.558974 0.863492 0.903297
0.793162 0.840537 0.891819
0.936752 0.789988 0.854945
0.019536 0.942369 0.934554
0.020513 0.941392 0.933822
0.031746 0.940415 0.933578
0.071551 0.940415 0.933333
0.155556 0.941636 0.933578
0.292796 0.943590 0.934310
0.482051 0.945543 0.935775
0.706960 0.946764 0.937485
0.930647 0.946276 0.938462
