src-tauri/resources/luts/旅拍大片质感.3dl
# LUT by SparkleStock. Enhanced with VOXCOLOR algorithms.
0 64 128 192 256 320 384 448 512 576 640 704 768 832 896 960 1023
80 48 352
79 109 562
78 171 772
76 233 981
73 297 1190
71 356 1385
68 409 1559
65 459 1725
63 496 1842
61 532 1958
60 553 2025
59 571 2083
58 582 2118
57 587 2136
57 591 2150
60 592 2156
64 592 2162
91 531 694
90 546 855
88 561 1017
85 589 1198
82 621 1386
79 651 1560
75 675 1716
71 697 1865
68 709 1968
65 720 2071
63 720 2126
61 719 2174
60 713 2200
59 703 2208
58 693 2214
60 682 2212
62 671 2210
103 1014 1035
100 983 1149
98 952 1262
95 944 1414
91 946 1581
86 945 1735
82 941 1874
77 935 2005
73 922 2094
69 908 2183
67 888 2228
64 867 2265
62 844 2281
61 819 2281
60 795 2278
60 773 2268
60 750 2257
111 1455 1324
108 1415 1419
106 1376 1514
103 1355 1647
99 1342 1797
94 1324 1938
89 1302 2067
84 1278 2189
80 1247 2270
76 1216 2351
73 1179 2389
71 1141 2419
68 1101 2428
66 1060 2420
65 1021 2409
64 983 2390
63 946 2371
117 1879 1592
116 1846 1680
114 1813 1767
110 1787 1888
106 1765 2022
102 1737 2151
97 1701 2274
93 1663 2390
88 1617 2466
84 1572 2542
81 1519 2573
79 1465 2598
76 1409 2600
74 1352 2586
72 1296 2567
70 1242 2539
68 1188 2511
122 2255 1823
121 2229 1905
119 2203 1986
116 2179 2098
112 2157 2223
107 2128 2346
103 2089 2467
99 2049 2581
95 1993 2655
90 1938 2729
88 1874 2758
85 1810 2780
83 1743 2779
80 1674 2760
78 1605 2737
76 1537 2702
74 1470 2667
124 2567 2006
123 2549 2082
122 2531 2158
119 2517 2268
115 2506 2392
111 2488 2516
106 2464 2641
102 2435 2759
98 2377 2836
94 2318 2913
92 2251 2944
90 2182 2967
88 2110 2966
86 2035 2947
84 1959 2922
82 1882 2883
80 1805 2845
125 2861 2176
125 2851 2248
124 2841 2319
121 2837 2427
117 2835 2549
113 2830 2675
109 2819 2804
104 2801 2926
101 2745 3007
97 2688 3088
95 2619 3122
94 2547 3148
92 2471 3148
91 2390 3129
90 2309 3103
88 2224 3062
85 2140 3021
125 3047 2278
125 3044 2344
124 3040 2411
121 3044 2517
117 3052 2639
113 3057 2765
109 3058 2897
104 3054 3024
101 3023 3121
97 2992 3218
95 2931 3260
94 2865 3293
93 2793 3299
92 2717 3284
92 2639 3263
90 2557 3224
88 2474 3185
125 3233 2379
125 3236 2441
124 3239 2504
121 3252 2608
117 3269 2728
113 3284 2854
109 3297 2990
104 3307 3122
101 3302 3235
97 3297 3347
95 3244 3398
94 3183 3438
93 3115 3449
94 3044 3440
93 2970 3423
92 2890 3387
91 2809 3350
125 3332 2428
124 3339 2486
124 3346 2545
121 3363 2645
117 3386 2763
113 3407 2889
108 3428 3026
104 3447 3161
100 3455 3280
95 3462 3399
93 3433 3466
92 3397 3525
91 3346 3549
91 3284 3548
92 3220 3538
91 3149 3507
91 3077 3476
125 3415 2469
124 3426 2523
123 3437 2576
120 3459 2674
116 3486 2789
112 3513 2915
107 3542 3053
103 3569 3189
98 3587 3314
94 3605 3438
92 3601 3524
89 3594 3603
88 3562 3641
89 3510 3647
89 3456 3645
90 3395 3620
90 3335 3595
125 3464 2492
124 3477 2542
124 3489 2592
121 3514 2685
116 3543 2796
112 3574 2919
107 3608 3057
102 3640 3193
98 3665 3321
93 3690 3450
90 3702 3546
88 3711 3637
87 3695 3688
87 3661 3709
87 3623 3718
87 3574 3700
88 3526 3681
126 3486 2504
125 3500 2549
125 3514 2594
121 3539 2683
117 3569 2789
112 3601 2908
107 3637 3044
102 3673 3179
97 3703 3310
93 3733 3441
90 3751 3542
87 3767 3639
85 3767 3703
84 3756 3742
84 3738 3767
85 3703 3755
85 3667 3744
126 3503 2516
126 3517 2557
126 3532 2598
123 3557 2682
118 3587 2782
113 3620 2897
107 3658 3030
102 3695 3163
98 3729 3295
93 3764 3428
90 3787 3534
87 3808 3635
84 3821 3709
83 3827 3763
82 3825 3800
82 3802 3797
83 3779 3793
127 3505 2531
128 3519 2568
129 3534 2606
126 3558 2683
122 3586 2777
117 3618 2885
111 3655 3014
105 3692 3142
100 3727 3274
95 3762 3406
91 3787 3514
88 3810 3618
85 3826 3696
83 3835 3754
82 3839 3797
82 3829 3804
81 3819 3810
128 3507 2546
130 3522 2580
132 3537 2613
129 3560 2685
125 3586 2772
120 3616 2874
114 3652 2997
108 3688 3122
103 3724 3253
97 3760 3383
93 3787 3494
89 3813 3601
86 3831 3683
84 3843 3745
82 3853 3795
81 3856 3811
80 3859 3827
592 73 351
535 114 547
478 154 742
435 209 950
398 271 1163
363 329 1362
328 384 1542
295 436 1714
267 475 1836
239 514 1958
217 538 2027
195 559 2088
177 572 2125
162 579 2142
148 584 2156
140 585 2160
133 586 2164
539 485 645
479 480 786
419 476 927
378 499 1107
344 534 1301
311 567 1484
280 597 1650
250 626 1809
225 644 1921
199 662 2034
180 668 2096
161 673 2151
145 671 2180
132 666 2192
121 660 2200
115 652 2198
108 644 2196
486 897 939
423 847 1026
361 797 1112
320 789 1263
289 797 1439
260 805 1606
232 810 1758
204 815 1904
182 812 2007
160 810 2110
143 799 2165
126 787 2213
113 771 2236
103 753 2242
94 735 2244
89 718 2236
84 701 2228
449 1329 1222
389 1268 1286
330 1207 1350
294 1185 1482
268 1178 1642
242 1170 1794
216 1157 1938
191 1144 2075
170 1124 2170
149 1103 2266
134 1075 2315
119 1045 2356
107 1013 2373
97 979 2371
89 945 2366
84 913 2350
80 881 2334
418 1768 1500
364 1711 1555
310 1653 1610
280 1624 1727
260 1607 1869
238 1585 2009
214 1558 2146
190 1529 2276
170 1492 2366
151 1455 2455
136 1409 2497
122 1362 2532
110 1312 2542
101 1260 2533
93 1209 2519
89 1159 2494
84 1109 2469
388 2161 1743
339 2109 1791
290 2057 1838
264 2028 1946
248 2008 2077
230 1983 2209
208 1952 2343
188 1919 2470
169 1871 2557
151 1823 2643
137 1765 2683
124 1706 2714
113 1643 2720
105 1577 2706
97 1512 2688
93 1448 2656
88 1383 2624
358 2491 1940
313 2448 1983
269 2405 2026
246 2384 2130
232 2373 2258
217 2358 2389
200 2338 2524
183 2314 2653
166 2263 2742
150 2212 2831
137 2149 2872
125 2085 2905
116 2015 2910
108 1941 2896
101 1867 2875
97 1792 2839
93 1717 2803
328 2803 2125
289 2768 2164
249 2734 2203
229 2722 2303
216 2720 2428
204 2715 2558
191 2706 2694
177 2691 2825
163 2641 2918
148 2591 3012
137 2525 3055
126 2457 3090
118 2382 3096
111 2302 3081
105 2221 3059
101 2137 3020
97 2053 2981
304 3004 2239
267 2979 2276
230 2954 2314
212 2952 2411
201 2958 2533
190 2962 2662
178 2964 2800
166 2962 2934
154 2935 3041
142 2908 3148
132 2850 3199
123 2787 3241
116 2717 3253
110 2640 3243
105 2562 3225
102 2479 3188
98 2396 3151
279 3206 2352
245 3190 2389
212 3175 2425
195 3181 2520
186 3195 2639
176 3208 2767
165 3221 2906
155 3232 3043
146 3229 3163
136 3226 3284
128 3176 3343
120 3118 3392
114 3052 3410
109 2979 3405
105 2903 3391
102 2821 3356
100 2738 3320
260 3314 2410
229 3306 2446
197 3298 2481
182 3309 2573
173 3329 2689
164 3349 2814
155 3370 2954
146 3389 3092
137 3398 3218
128 3407 3344
121 3379 3419
114 3346 3486
109 3296 3516
106 3233 3518
102 3166 3512
100 3093 3482
98 3019 3452
242 3407 2459
213 3406 2494
183 3404 2528
170 3421 2618
162 3446 2729
154 3472 2853
145 3500 2993
136 3527 3132
128 3546 3262
120 3565 3392
114 3563 3484
108 3558 3570
104 3525 3614
101 3472 3624
99 3416 3625
98 3353 3601
96 3289 3577
228 3461 2488
200 3465 2521
173 3468 2554
160 3488 2640
153 3515 2747
145 3545 2867
137 3578 3006
129 3611 3144
121 3637 3277
114 3663 3410
109 3675 3512
103 3686 3610
100 3670 3666
97 3636 3691
95 3596 3704
94 3544 3686
93 3492 3669
216 3487 2503
190 3493 2534
164 3499 2565
152 3521 2646
145 3549 2747
138 3580 2864
131 3617 3000
123 3652 3136
116 3684 3271
109 3715 3406
104 3734 3513
99 3752 3616
96 3753 3685
93 3742 3729
91 3723 3758
90 3684 3747
89 3645 3736
204 3506 2518
180 3514 2547
157 3522 2575
145 3544 2651
139 3573 2747
133 3605 2858
126 3644 2992
119 3681 3125
112 3717 3261
106 3753 3397
101 3777 3508
96 3800 3615
92 3814 3694
90 3821 3753
88 3819 3795
87 3793 3792
86 3768 3789
196 3509 2535
174 3516 2559
152 3524 2583
142 3545 2654
137 3573 2742
131 3605 2848
124 3642 2976
117 3679 3105
111 3716 3240
104 3752 3374
99 3779 3487
94 3804 3597
91 3821 3680
88 3831 3744
86 3835 3791
85 3824 3799
84 3812 3807
187 3512 2551
167 3519 2571
148 3526 2592
139 3547 2656
135 3573 2738
129 3604 2837
122 3640 2960
116 3677 3085
109 3715 3218
103 3752 3352
97 3781 3467
93 3808 3579
89 3828 3666
86 3841 3734
84 3851 3788
83 3854 3807
82 3857 3826
1104 99 350
991 118 532
878 138 713
795 185 919
723 244 1136
655 302 1340
589 359 1525
525 414 1703
471 455 1830
417 497 1957
373 523 2030
331 546 2094
296 561 2131
266 570 2149
240 577 2162
220 579 2164
201 581 2166
987 439 596
869 415 717
751 390 838
670 409 1016
606 446 1217
544 483 1408
485 520 1584
429 554 1753
381 579 1875
333 604 1997
296 616 2066
260 626 2127
230 630 2161
206 628 2176
184 626 2185
169 621 2184
154 616 2182
869 780 842
746 711 902
623 642 962
546 633 1112
488 648 1298
433 664 1476
382 680 1643
332 695 1802
291 703 1919
250 711 2036
218 709 2103
188 706 2160
164 698 2191
145 687 2203
128 676 2209
118 664 2204
108 652 2198
787 1202 1119
670 1121 1153
553 1039 1187
485 1015 1317
437 1015 1486
389 1015 1651
343 1013 1809
297 1010 1961
260 1000 2071
222 990 2181
194 971 2241
167 950 2293
145 925 2318
128 897 2323
113 870 2322
105 843 2309
96 816 2296
719 1658 1408
613 1576 1430
506 1494 1452
450 1461 1566
413 1448 1717
373 1433 1868
330 1415 2019
288 1396 2163
253 1367 2266
217 1338 2368
190 1300 2421
165 1260 2466
144 1215 2483
128 1168 2480
115 1121 2472
107 1076 2450
100 1031 2428
654 2067 1663
557 1989 1677
460 1911 1691
412 1876 1793
384 1859 1931
352 1839 2073
314 1815 2219
277 1789 2358
244 1748 2458
212 1708 2558
187 1656 2607
163 1602 2648
144 1543 2661
129 1481 2653
117 1419 2638
110 1358 2609
103 1297 2580
592 2416 1874
504 2347 1884
416 2278 1894
374 2251 1991
349 2241 2123
323 2229 2261
294 2213 2407
264 2193 2546
235 2149 2648
206 2106 2750
183 2048 2800
161 1987 2842
144 1920 2855
130 1848 2845
119 1776 2828
112 1703 2795
105 1630 2761
532 2745 2073
453 2686 2080
373 2627 2086
336 2608 2179
315 2605 2306
294 2600 2440
272 2593 2585
250 2581 2724
225 2537 2830
199 2494 2935
178 2432 2988
159 2366 3031
143 2293 3044
131 2214 3034
120 2133 3016
114 2050 2979
108 1966 2941
482 2962 2200
409 2915 2208
336 2869 2216
303 2859 2306
285 2863 2428
266 2867 2559
247 2870 2704
228 2869 2844
208 2847 2961
187 2824 3078
170 2770 3138
152 2710 3188
139 2640 3207
128 2564 3201
119 2485 3187
114 2401 3152
108 2317 3116
432 3178 2326
366 3144 2336
299 3111 2346
269 3109 2432
254 3121 2550
238 3133 2679
222 3146 2822
206 3158 2964
191 3156 3092
176 3154 3221
161 3108 3288
146 3053 3345
135 2988 3370
125 2914 3369
117 2837 3359
113 2752 3325
108 2668 3290
395 3297 2393
333 3273 2405
271 3250 2418
243 3255 2502
230 3272 2614
216 3291 2740
202 3312 2883
187 3331 3024
174 3341 3157
161 3351 3289
149 3326 3372
137 3296 3446
128 3246 3482
120 3181 3489
113 3113 3486
110 3037 3457
106 2960 3428
359 3399 2449
301 3385 2465
243 3372 2480
219 3384 2561
207 3406 2669
195 3430 2792
182 3459 2933
169 3486 3074
158 3506 3210
146 3525 3345
137 3525 3445
128 3521 3538
120 3488 3587
114 3435 3602
109 3377 3606
106 3310 3582
103 3243 3558
330 3459 2484
276 3453 2501
221 3446 2517
199 3462 2595
189 3487 2698
178 3515 2816
167 3549 2956
156 3581 3095
145 3608 3233
135 3635 3370
127 3649 3479
119 3661 3583
113 3645 3644
108 3610 3674
104 3569 3690
101 3514 3673
99 3458 3656
305 3488 2502
254 3486 2519
203 3484 2536
183 3502 2610
174 3529 2706
164 3559 2820
154 3596 2957
145 3632 3094
135 3664 3232
126 3697 3371
119 3718 3484
112 3736 3592
106 3738 3667
102 3728 3716
98 3708 3748
96 3666 3738
94 3624 3728
283 3510 2521
235 3511 2536
187 3512 2552
168 3531 2621
161 3559 2711
153 3591 2820
144 3630 2953
135 3668 3087
127 3705 3226
118 3741 3365
111 3768 3482
105 3792 3594
100 3807 3679
97 3815 3744
93 3813 3789
91 3784 3787
89 3756 3785
264 3513 2538
220 3513 2549
175 3513 2561
158 3532 2624
152 3559 2708
145 3591 2810
137 3629 2938
129 3667 3068
121 3705 3205
113 3743 3343
107 3771 3461
101 3798 3576
96 3816 3664
93 3827 3733
90 3831 3785
88 3818 3795
86 3805 3805
245 3517 2556
205 3516 2563
164 3515 2570
149 3533 2627
144 3560 2704
138 3591 2801
130 3629 2924
123 3667 3048
116 3706 3184
108 3745 3320
102 3775 3440
97 3804 3557
92 3824 3649
89 3838 3723
86 3849 3781
85 3852 3803
84 3855 3824
1566 126 339
1441 136 503
1317 146 667
1225 182 867
1147 228 1081
1066 278 1287
983 334 1481
901 389 1667
827 432 1803
752 476 1938
688 504 2018
626 529 2088
571 546 2129
522 556 2149
477 564 2164
441 566 2166
405 569 2169
1428 420 546
1296 392 656
1164 363 766
1075 375 942
1002 404 1145
929 436 1340
854 474 1526
780 510 1705
713 538 1837
645 566 1969
588 581 2046
532 594 2113
483 601 2153
439 602 2170
399 603 2183
368 600 2182
