src-tauri/resources/luts/旅拍大片质感.3dl
# LUT by SparkleStock. Enhanced with VOXCOLOR algorithms.
0 256 512 768 1023
80 48 352
73 297 1190
63 496 1842
58 582 2118
64 592 2162
117 1879 1592
106 1765 2022
88 1617 2466
76 1409 2600
68 1188 2511
125 3047 2278
117 3052 2639
101 3023 3121
93 2793 3299
88 2474 3185
125 3464 2492
116 3543 2796
98 3665 3321
87 3695 3688
88 3526 3681
128 3507 2546
125 3586 2772
103 3724 3253
86 3831 3683
80 3859 3827
2008 153 323
1609 215 1015
1242 408 1767
908 528 2124
663 556 2171
1549 1427 1161
1116 1184 1432
797 1137 2076
516 1034 2381
336 886 2353
1168 2838 2065
789 2646 2176
569 2639 2764
368 2465 3099
242 2149 3036
858 3445 2466
514 3418 2583
361 3532 3120
257 3579 3585
179 3380 3623
629 3521 2561
338 3545 2652
230 3686 3114
165 3817 3613
130 3851 3823
3201 233 277
2950 255 771
2837 352 1497
2536 465 1970
2148 499 2079
2839 1130 773
2470 971 1067
2396 894 1753
2142 806 2198
1753 705 2249
2719 2507 1753
2309 2251 1698
2066 2196 2311
1712 2072 2844
1312 1792 2859
2428 3374 2448
2001 3284 2372
1606 3326 2828
1235 3391 3416
917 3190 3542
2030 3522 2617
1628 3554 2642
1170 3662 2986
851 3808 3530
637 3856 3823
3627 266 270
3547 292 608
3556 387 1254
3583 442 1758
3401 469 1905
3498 944 655
3328 847 871
3346 803 1473
3421 689 1926
3233 591 2029
3520 2232 1588
3306 2002 1442
3225 1911 1960
3265 1709 2502
3019 1432 2585
3592 3249 2462
3369 3124 2211
3189 3093 2496
3009 3114 3161
2613 2927 3413
3406 3501 2737
3198 3544 2699
2892 3656 2913
2460 3805 3442
1974 3872 3832
3683 272 272
3695 316 488
3717 408 1057
3748 458 1622
3763 464 1825
3725 741 649
3768 656 674
3789 687 1187
3787 651 1726
3771 542 1884
3799 1959 1590
3854 1731 1312
3896 1669 1701
3875 1522 2247
3811 1177 2308
3848 3085 2465
3893 2944 2083
3926 2883 2268
3913 2833 2858
3844 2493 3092
3859 3475 2802
3871 3530 2724
3879 3639 2859
3856 3769 3324
3811 3875 3843
