src-tauri/resources/luts/旅拍大片质感.3dl
# LUT by SparkleStock. Enhanced with VOXCOLOR algorithms.
0 128 256 384 512 640 768 896 1023
80 48 352
78 171 772
73 297 1190
68 409 1559
63 496 1842
60 553 2025
58 582 2118
57 591 2150
64 592 2162
103 1014 1035
98 952 1262
91 946 1581
82 941 1874
73 922 2094
67 888 2228
62 844 2281
60 795 2278
60 750 2257
117 1879 1592
114 1813 1767
106 1765 2022
97 1701 2274
88 1617 2466
81 1519 2573
76 1409 2600
72 1296 2567
68 1188 2511
124 2567 2006
122 2531 2158
115 2506 2392
106 2464 2641
98 2377 2836
92 2251 2944
88 2110 2966
84 1959 2922
80 1805 2845
125 3047 2278
124 3040 2411
117 3052 2639
109 3058 2897
101 3023 3121
95 2931 3260
93 2793 3299
92 2639 3263
88 2474 3185
125 3332 2428
124 3346 2545
117 3386 2763
108 3428 3026
100 3455 3280
93 3433 3466
91 3346 3549
92 3220 3538
91 3077 3476
125 3464 2492
124 3489 2592
116 3543 2796
107 3608 3057
98 3665 3321
90 3702 3546
87 3695 3688
87 3623 3718
88 3526 3681
126 3503 2516
126 3532 2598
118 3587 2782
107 3658 3030
98 3729 3295
90 3787 3534
84 3821 3709
82 3825 3800
83 3779 3793
128 3507 2546
132 3537 2613
125 3586 2772
114 3652 2997
103 3724 3253
93 3787 3494
86 3831 3683
82 3853 3795
80 3859 3827
1104 99 350
878 138 713
723 244 1136
589 359 1525
471 455 1830
373 523 2030
296 561 2131
240 577 2162
201 581 2166
869 780 842
623 642 962
488 648 1298
382 680 1643
291 703 1919
218 709 2103
164 698 2191
128 676 2209
108 652 2198
719 1658 1408
506 1494 1452
413 1448 1717
330 1415 2019
253 1367 2266
190 1300 2421
144 1215 2483
115 1121 2472
100 1031 2428
592 2416 1874
416 2278 1894
349 2241 2123
294 2213 2407
235 2149 2648
183 2048 2800
144 1920 2855
119 1776 2828
105 1630 2761
482 2962 2200
336 2869 2216
285 2863 2428
247 2870 2704
208 2847 2961
170 2770 3138
139 2640 3207
119 2485 3187
108 2317 3116
395 3297 2393
271 3250 2418
230 3272 2614
202 3312 2883
174 3341 3157
149 3326 3372
128 3246 3482
113 3113 3486
106 2960 3428
330 3459 2484
221 3446 2517
189 3487 2698
167 3549 2956
145 3608 3233
127 3649 3479
113 3645 3644
104 3569 3690
99 3458 3656
283 3510 2521
187 3512 2552
161 3559 2711
144 3630 2953
127 3705 3226
111 3768 3482
100 3807 3679
93 3813 3789
89 3756 3785
245 3517 2556
164 3515 2570
144 3560 2704
130 3629 2924
116 3706 3184
102 3775 3440
92 3824 3649
86 3849 3781
84 3855 3824
2008 153 323
1772 164 615
1609 215 1015
1430 310 1425
1242 408 1767
1066 483 2000
908 528 2124
774 548 2165
663 556 2171
1726 670 666
1449 555 788
1297 545 1138
1145 572 1519
986 604 1838
833 623 2058
696 627 2173
578 618 2204
484 605 2197
1549 1427 1161
1277 1250 1174
1116 1184 1432
959 1161 1773
797 1137 2076
647 1095 2282
516 1034 2381
411 959 2389
336 886 2353
1359 2212 1664
1113 2035 1623
952 1958 1820
814 1935 2131
675 1897 2430
540 1821 2637
424 1712 2731
334 1582 2726
274 1448 2667
1168 2838 2065
948 2700 2012
789 2646 2176
674 2647 2464
569 2639 2764
464 2580 2990
368 2465 3099
292 2314 3101
242 2149 3036
1000 3240 2327
797 3156 2290
640 3134 2433
538 3163 2699
460 3199 2999
385 3194 3251
312 3122 3398
251 2990 3424
211 2831 3370
858 3445 2466
669 3410 2455
514 3418 2583
424 3470 2829
361 3532 3120
305 3578 3391
257 3579 3585
211 3502 3653
179 3380 3623
737 3513 2524
564 3508 2532
413 3532 2643
334 3595 2867
284 3673 3147
240 3741 3419
204 3786 3640
176 3793 3772
150 3727 3774
629 3521 2561
477 3521 2567
338 3545 2652
270 3607 2850
230 3686 3114
194 3761 3384
165 3817 3613
143 3846 3766
130 3851 3823
2715 200 295
2514 198 528
2381 229 883
2269 287 1279
2114 367 1643
1918 444 1914
1720 493 2069
1532 517 2130
1361 526 2144
2446 606 526
2189 529 667
2057 515 998
1970 520 1374
1844 539 1718
1674 562 1977
1491 572 2123
1312 570 2175
1149 563 2177
2281 1253 933
2013 1107 963
1849 1044 1217
1749 1011 1572
1620 985 1914
1446 951 2167
1263 903 2303
1089 843 2337
939 784 2312
2159 2001 1439
1898 1825 1377
1715 1732 1546
1592 1699 1870
1442 1668 2215
1252 1609 2479
1062 1518 2616
891 1403 2637
754 1282 2586
1996 2675 1906
1749 2517 1805
1554 2431 1917
1408 2412 2200
1250 2409 2540
1070 2370 2821
893 2270 2978
736 2130 3007
618 1971 2948
1799 3156 2250
1565 3050 2159
1359 2996 2244
1193 2998 2490
1040 3029 2810
890 3037 3105
747 2978 3298
615 2850 3352
517 2689 3306
1611 3417 2452
1386 3368 2397
1172 3353 2472
990 3380 2688
844 3435 2984
723 3488 3282
614 3495 3509
509 3421 3608
426 3292 3585
1433 3513 2541
1221 3505 2525
1005 3517 2594
816 3562 2783
678 3634 3056
577 3707 3346
490 3757 3591
417 3766 3747
350 3692 3759
1258 3523 2578
1069 3529 2579
864 3548 2634
679 3596 2795
552 3670 3044
468 3749 3324
395 3811 3573
336 3844 3749
293 3851 3822
3201 233 277
3047 226 463
2950 255 771
2901 298 1138
2837 352 1497
2714 414 1786
2536 465 1970
2342 490 2053
2148 499 2079
2974 560 432
2758 513 582
2658 505 880
2627 503 1232
2592 506 1573
2498 517 1849
2339 529 2027
2149 529 2102
1953 526 2117
2839 1130 773
2607 1020 820
2470 971 1067
2428 935 1411
2396 894 1753
2304 850 2027
2142 806 2198
1949 755 2258
1753 705 2249
2781 1824 1247
2544 1668 1186
2382 1582 1342
2296 1541 1659
2229 1496 2014
2113 1430 2308
1929 1345 2486
1725 1241 2538
1531 1133 2503
2719 2507 1753
2488 2349 1625
2309 2251 1698
2179 2213 1959
2066 2196 2311
1917 2158 2636
1712 2072 2844
1500 1942 2905
1312 1792 2859
2602 3048 2177
2378 2929 2040
2183 2855 2069
2014 2830 2273
1861 2846 2598
1687 2858 2937
1480 2813 3179
1278 2694 3271
1107 2536 3235
2428 3374 2448
2211 3314 2350
2001 3284 2372
1795 3288 2542
1606 3326 2828
1423 3376 3151
1235 3391 3416
1064 3323 3551
917 3190 3542
2236 3505 2576
2029 3494 2532
1811 3501 2563
1579 3533 2707
1367 3592 2960
1184 3661 3260
1023 3717 3530
884 3730 3714
759 3650 3742
2030 3522 2617
1841 3530 2608
1628 3554 2642
1389 3596 2764
1170 3662 2986
993 3740 3264
851 3808 3530
731 3847 3729
637 3856 3823
3489 254 270
3387 247 415
3326 276 683
3303 322 1021
3306 365 1365
3283 406 1656
3189 446 1857
3040 471 1956
2869 480 1991
3326 519 382
3167 494 522
3101 493 786
3088 500 1111
3113 500 1436
3117 497 1713
3046 500 1906
2903 500 2000
2723 497 2027
3236 1034 687
3058 948 731
2956 912 960
2932 885 1280
2962 841 1603
2974 786 1874
2907 733 2059
2761 684 2140
2571 639 2145
3203 1686 1128
3018 1553 1066
2892 1479 1208
2831 1439 1505
2840 1382 1843
2844 1298 2135
2762 1203 2330
2601 1103 2407
2403 1003 2389
3218 2358 1639
3032 2211 1496
2891 2114 1542
2795 2066 1774
2756 2032 2113
2713 1973 2447
2595 1877 2681
2405 1753 2773
2196 1610 2744
3214 2931 2114
3032 2809 1943
2877 2725 1926
2752 2681 2084
2653 2677 2393
2543 2672 2749
2380 2623 3031
2166 2513 3161
1951 2360 3142
3132 3316 2454
2957 3249 2316
2788 3206 2286
2627 3194 2402
2472 3210 2659
2305 3245 2994
2108 3264 3302
1888 3207 3481
1683 3076 3493
2985 3487 2626
2819 3473 2553
2640 3477 2542
2447 3502 2641
2239 3547 2860
2025 3607 3157
1813 3664 3455
1595 3681 3671
1412 3599 3723
2794 3515 2675
2641 3525 2656
2463 3552 2665
2256 3597 2755
2018 3660 2944
1778 3735 3209
1563 3807 3488
1363 3852 3708
1199 3864 3826
3627 266 270
3575 263 378
3547 292 608
3542 339 919
3556 387 1254
3581 421 1549
3583 442 1758
3514 462 1867
3401 469 1905
3538 478 363
3444 465 475
3411 471 700
3412 487 997
3437 500 1314
3478 499 1595
3499 489 1795
3441 485 1899
3319 480 1931
3498 944 655
3388 872 676
3328 847 871
3320 831 1162
3346 803 1473
3393 753 1741
3421 689 1926
3365 635 2018
3233 591 2029
3495 1568 1089
3376 1448 1005
3297 1382 1118
3262 1348 1386
3274 1299 1704
3320 1213 1983
3346 1101 2172
3281 995 2258
3138 898 2246
3520 2232 1588
3397 2093 1423
3306 2002 1442
3246 1951 1646
3225 1911 1960
3249 1834 2276
3265 1709 2502
3178 1572 2606
3019 1432 2585
3565 2822 2074
3444 2702 1875
3343 2614 1823
3266 2561 1947
3212 2539 2223
3192 2507 2565
3167 2429 2856
3040 2307 3009
2854 2155 3005
3592 3249 2462
3477 3176 2287
3369 3124 2211
3273 3096 2280
3189 3093 2496
3112 3109 2821
3009 3114 3161
2827 3054 3378
2613 2927 3413
3535 3462 2676
3429 3446 2574
3314 3445 2524
3191 3461 2579
3059 3496 2757
2915 3543 3037
2739 3592 3357
2510 3613 3614
2289 3536 3699
3406 3501 2737
3311 3514 2710
3198 3544 2699
3060 3592 2758
2892 3656 2913
2691 3731 3157
2460 3805 3442
2215 3858 3688
1974 3872 3832
3675 270 271
3661 275 349
3657 306 542
3664 353 825
3679 400 1149
3701 435 1455
3723 454 1687
3732 460 1812
3690 466 1843
3651 432 362
3618 422 427
3614 435 609
3622 462 878
3640 486 1187
3666 499 1481
3694 494 1707
3710 479 1829
3664 473 1858
3656 848 652
3616 779 632
3599 762 780
3604 761 1037
3622 752 1337
3646 724 1617
3673 672 1824
3689 606 1925
3638 560 1932
3679 1445 1089
3634 1327 970
3609 1268 1041
3602 1243 1271
3613 1210 1570
3634 1145 1852
3658 1044 2052
3671 919 2134
3613 819 2117
3712 2108 1593
3664 1971 1395
3632 1882 1378
3612 1834 1546
3608 1797 1833
3619 1729 2138
3641 1602 2361
3649 1435 2451
3579 1288 2422
3748 2717 2075
3699 2594 1842
3660 2506 1757
3631 2449 1850
3610 2419 2097
3602 2377 2416
3611 2278 2692
3614 2111 2833
3521 1944 2823
3783 3176 2463
3735 3098 2252
3690 3041 2142
3652 3004 2179
3620 2987 2366
3592 2982 2665
3573 2956 2991
3556 2853 3218
3423 2710 3263
3806 3433 2708
3761 3413 2577
3715 3406 2491
3669 3413 2511
3623 3433 2655
3575 3464 2908
3523 3499 3227
3445 3516 3531
3248 3442 3652
3765 3484 2786
3733 3499 2753
3691 3533 2725
3635 3583 2762
3558 3646 2891
3458 3719 3107
3331 3794 3383
3165 3858 3662
2895 3877 3839
3683 272 272
3687 283 325
3695 316 488
3705 362 745
3717 408 1057
3733 441 1368
3748 458 1622
3759 461 1779
3763 464 1825
3695 381 365
3709 366 372
3721 387 511
3731 424 753
3739 461 1054
3748 485 1362
3756 491 1620
3763 481 1783
3764 470 1829
3725 741 649
3745 665 581
3768 656 674
3783 673 897
3789 687 1187
3790 682 1482
3787 651 1726
3780 598 1869
3771 542 1884
3763 1302 1083
3786 1178 929
3815 1124 954
3838 1113 1140
3848 1105 1420
3844 1070 1713
3830 996 1946
3811 887 2066
3787 763 2039
3799 1959 1590
3824 1816 1363
3854 1731 1312
3881 1691 1441
3896 1669 1701
3894 1623 2002
3875 1522 2247
3846 1367 2364
3811 1177 2308
3828 2589 2077
3853 2462 1814
3881 2375 1702
3907 2322 1768
3923 2294 1988
3924 2258 2290
3906 2170 2569
3874 2002 2720
3833 1774 2675
3848 3085 2465
3869 3002 2220
3893 2944 2083
3914 2905 2100
3926 2883 2268
3927 2871 2549
3913 2833 2858
3883 2711 3076
3844 2493 3092
3856 3382 2707
3871 3357 2539
3888 3346 2427
3903 3347 2426
3911 3357 2554
3908 3372 2791
3894 3386 3091
3869 3373 3377
3836 3235 3501
3859 3475 2802
3863 3493 2764
3871 3530 2724
3878 3580 2747
3879 3639 2859
3872 3704 3061
3856 3769 3324
3832 3829 3605
3811 3875 3843
