src-tauri/resources/luts/旅拍大片质感.cube
# Converted from .3dl (size 17x17x17) using Python
LUT_3D_SIZE 5
DOMAIN_MIN 0.0 0.0 0.0
DOMAIN_MAX 1.0 1.0 1.0
0.019536 0.011722 0.085958
0.490354 0.037363 0.078877
0.781685 0.056899 0.067643
0.885714 0.064957 0.065934
0.899390 0.066422 0.066422
0.028571 0.458852 0.388767
0.378266 0.348474 0.283516
0.693285 0.275946 0.188767
0.854212 0.230525 0.159951
0.909646 0.180952 0.158486
0.030525 0.744078 0.556288
0.285226 0.693040 0.504274
0.663980 0.612210 0.428083
0.859585 0.545055 0.387790
0.927717 0.478388 0.388278
0.030525 0.845910 0.608547
0.209524 0.841270 0.602198
0.592918 0.823932 0.597802
0.877167 0.793407 0.601221
0.939683 0.753358 0.601954
0.031258 0.856410 0.621734
0.153602 0.859829 0.625397
0.495726 0.860073 0.639072
0.831746 0.854945 0.668376
0.942369 0.848596 0.684249
0.017827 0.072527 0.290598
0.392918 0.052503 0.247863
0.720391 0.062271 0.188278
0.866178 0.071306 0.148474
0.902320 0.077167 0.119170
0.025885 0.431013 0.493773
0.272527 0.289133 0.349695
0.603175 0.237118 0.260562
0.812698 0.206838 0.212698
0.920147 0.160195 0.164591
0.028571 0.745299 0.644444
0.192674 0.646154 0.531380
0.563858 0.549695 0.414652
0.807326 0.488889 0.352137
0.941148 0.422711 0.320391
0.028327 0.865201 0.682784
0.125519 0.834676 0.630769
0.488645 0.801954 0.579243
0.822711 0.762882 0.539927
0.950672 0.718926 0.508669
0.030525 0.875702 0.676923
0.082540 0.865690 0.647619
0.397558 0.867888 0.645177
0.780952 0.865446 0.659096
0.945299 0.862027 0.665201
0.015385 0.121123 0.449817
0.303297 0.099634 0.431502
0.692796 0.085958 0.365568
0.868376 0.094505 0.306227
0.907692 0.099634 0.258120
0.021490 0.394872 0.602198
0.194628 0.277656 0.506960
0.585104 0.218315 0.428083
0.817094 0.196093 0.359707
0.925275 0.167766 0.289866
0.024664 0.738217 0.762149
0.138950 0.644444 0.674969
0.504518 0.536264 0.564347
0.787546 0.466667 0.478632
0.951404 0.407570 0.415385
0.023932 0.894994 0.810989
0.088156 0.862515 0.761905
0.392186 0.812210 0.690598
0.778755 0.755311 0.609524
0.958730 0.704029 0.553846
0.025153 0.909402 0.794383
0.056166 0.900122 0.760440
0.285714 0.894261 0.729182
0.706227 0.892796 0.711355
0.947253 0.888645 0.698169
0.014164 0.142125 0.517216
0.221734 0.128938 0.518681
0.619292 0.113553 0.481074
0.874969 0.107937 0.429304
0.915263 0.111844 0.396093
0.018559 0.344078 0.634921
0.126007 0.252503 0.581441
0.523077 0.196825 0.536752
0.835409 0.168254 0.470330
0.924786 0.158974 0.421490
0.022711 0.682051 0.805617
0.089866 0.601954 0.756777
0.418071 0.505983 0.694506
0.797314 0.417338 0.610989
0.946276 0.371673 0.548718
0.021245 0.902320 0.900611
0.062759 0.873993 0.875458
0.301587 0.828083 0.834188
0.734799 0.760440 0.771917
0.955556 0.691819 0.697924
0.021001 0.935531 0.899390
0.040293 0.932112 0.882295
0.207814 0.929915 0.862027
0.600733 0.929182 0.840537
0.941636 0.920391 0.811722
0.015629 0.144567 0.527961
0.161905 0.135775 0.530159
0.524542 0.121856 0.507692
0.830525 0.114530 0.465201
0.918926 0.113309 0.445665
0.016606 0.290110 0.613187
0.082051 0.216361 0.574603
0.428083 0.172161 0.549206
0.789499 0.144322 0.495482
0.920879 0.132357 0.460073
0.021490 0.604151 0.777778
0.059096 0.524786 0.741392
0.320391 0.437607 0.698169
0.737241 0.349695 0.631258
0.930647 0.287424 0.563614
0.021490 0.861050 0.898901
0.043712 0.825397 0.884737
0.223932 0.778999 0.864957
0.638095 0.714774 0.833455
0.938706 0.608791 0.755067
0.019536 0.942369 0.934554
0.031746 0.940415 0.933578
0.155556 0.941636 0.933578
0.482051 0.945543 0.935775
0.930647 0.946276 0.938462
