src-tauri/resources/luts/江南风A01.cube
# LUT by SparkleStock. Enhanced with VOXCOLOR algorithms.
LUT_3D_SIZE 5
DOMAIN_MIN 0.000000 0.000000 0.000000
DOMAIN_MAX 0.903226 0.903226 0.903226
0.027350 0.031258 0.050794
0.100839 0.046398 0.078349
0.324259 0.123991 0.184647
0.613313 0.289811 0.362685
0.763212 0.452984 0.416897
0.037930 0.074647 0.089393
0.152037 0.112003 0.115796
0.403590 0.206156 0.186406
0.654983 0.336253 0.295041
0.771762 0.492615 0.365375
0.078278 0.228887 0.235173
0.174747 0.265132 0.248406
0.447684 0.363345 0.275359
0.680839 0.474249 0.334155
0.793045 0.585211 0.392886
0.228595 0.515452 0.493978
0.301303 0.531638 0.485840
0.507502 0.571271 0.449186
0.721130 0.646512 0.471023
0.818944 0.710932 0.517109
0.582977 0.750451 0.651180
0.644044 0.754102 0.629139
0.729766 0.763645 0.611286
0.811647 0.786801 0.627851
0.853089 0.810513 0.669169
0.041774 0.046697 0.083509
0.100656 0.057638 0.113656
0.318126 0.123615 0.215649
0.604146 0.273108 0.379493
0.767108 0.451314 0.472277
0.059256 0.122821 0.156872
0.162909 0.163889 0.198922
0.400959 0.228764 0.261026
0.648610 0.316873 0.336626
0.785097 0.462273 0.385931
0.115409 0.308543 0.331184
0.192809 0.344728 0.339758
0.427536 0.402108 0.332640
0.669881 0.465687 0.345837
0.813346 0.550548 0.375547
0.262445 0.559779 0.559043
0.317954 0.582504 0.558661
0.460738 0.605080 0.496018
0.697781 0.650978 0.451812
0.835635 0.695120 0.454295
0.575359 0.758782 0.689192
0.628565 0.766704 0.676074
0.700522 0.776290 0.656184
0.794019 0.794706 0.631619
0.857413 0.817801 0.634808
0.072464 0.105621 0.170444
0.108484 0.123852 0.200999
0.316419 0.188119 0.307884
0.573589 0.319157 0.458826
0.735070 0.465661 0.557803
0.101855 0.211171 0.272175
0.164466 0.245414 0.321917
0.362854 0.286327 0.398791
0.622153 0.359495 0.477577
0.775860 0.476287 0.513562
0.159670 0.385916 0.432843
0.227547 0.426801 0.466707
0.406468 0.464050 0.487005
0.658457 0.487078 0.485380
0.829267 0.536984 0.474226
0.293806 0.610228 0.624773
0.353982 0.634075 0.636207
0.467334 0.655501 0.613602
0.665274 0.669832 0.535792
0.850990 0.685509 0.502068
0.552280 0.766397 0.730598
0.612036 0.778494 0.724079
0.682028 0.791469 0.715479
0.766670 0.805887 0.672007
0.858727 0.825924 0.641516
0.152176 0.288574 0.379085
0.174941 0.310447 0.407317
0.294325 0.352792 0.466559
0.595961 0.441664 0.576736
0.712598 0.549739 0.663220
0.201561 0.399170 0.481393
0.236106 0.423871 0.511495
0.329880 0.451771 0.559447
0.595589 0.493472 0.626899
0.742600 0.568214 0.674311
0.262644 0.520298 0.586567
0.313529 0.550493 0.615027
0.414391 0.579707 0.644675
0.598442 0.582079 0.666458
0.795409 0.592810 0.665974
0.341553 0.641112 0.676514
0.404383 0.668603 0.696890
0.508942 0.702986 0.715930
0.657254 0.713574 0.697189
0.846719 0.698135 0.648096
0.529536 0.769872 0.762896
0.577546 0.781281 0.766527
0.663790 0.802085 0.769671
0.758400 0.819805 0.755962
0.849528 0.831577 0.728787
0.378778 0.598180 0.682390
0.398165 0.602104 0.688079
0.464314 0.611478 0.699233
0.609139 0.630747 0.719956
0.733577 0.665456 0.747822
0.425628 0.645659 0.713725
0.455769 0.658052 0.724206
0.503317 0.669592 0.736027
0.610699 0.679143 0.748004
0.746995 0.699519 0.764868
0.485965 0.699122 0.748114
0.519346 0.710787 0.757883
0.566973 0.724906 0.765921
0.644420 0.729470 0.772744
0.771552 0.727916 0.779063
0.542065 0.745626 0.773674
0.576678 0.756656 0.781996
0.627890 0.771796 0.788493
0.700640 0.786011 0.788475
0.806063 0.780413 0.789025
0.612333 0.796318 0.799039
0.647460 0.806397 0.806364
0.696353 0.819187 0.813632
0.763001 0.835625 0.814411
0.837360 0.845666 0.813657
