src-tauri/resources/luts/江南风质感.3dl
# LUT by SparkleStock. Enhanced with VOXCOLOR algorithms.
0 128 256 384 512 640 768 896 1023
208 208 256
179 250 365
153 304 480
132 362 598
119 419 718
109 486 848
104 568 990
108 671 1132
128 801 1265
186 279 321
159 322 448
140 377 577
126 441 712
114 513 853
112 599 999
115 694 1154
124 798 1314
143 907 1476
177 344 390
149 395 532
131 454 683
120 528 840
115 622 1005
123 731 1179
138 849 1358
157 970 1540
180 1089 1728
177 410 461
147 471 622
127 542 795
119 629 978
124 738 1165
142 876 1375
169 1022 1580
200 1170 1783
231 1315 1987
182 486 531
148 555 722
129 646 916
127 750 1116
140 856 1325
166 1031 1572
205 1205 1799
247 1378 2013
286 1553 2222
190 590 618
158 661 839
145 768 1065
148 897 1292
165 1033 1519
197 1173 1725
238 1352 1954
284 1549 2176
331 1740 2359
208 704 712
180 786 968
171 911 1225
179 1062 1481
202 1224 1732
237 1363 1927
271 1516 2113
311 1682 2285
361 1862 2440
235 800 811
215 916 1112
214 1069 1408
227 1244 1692
253 1427 1961
286 1576 2147
311 1693 2274
339 1802 2374
378 1930 2481
272 849 913
267 1035 1277
277 1237 1621
296 1442 1933
320 1639 2204
343 1785 2352
363 1881 2437
377 1933 2479
384 1953 2498
255 251 283
216 293 415
181 352 552
152 422 697
130 501 854
123 591 1009
121 688 1157
128 795 1302
142 911 1444
375 358 289
311 437 510
261 505 699
218 572 870
176 651 1036
155 751 1197
154 861 1365
168 977 1534
195 1096 1701
451 449 330
347 563 591
284 643 818
243 714 1020
203 801 1209
187 914 1390
193 1045 1578
218 1184 1767
256 1324 1954
511 537 391
352 672 673
277 769 929
246 854 1161
223 949 1374
221 1084 1585
240 1238 1791
276 1403 1993
323 1572 2190
585 635 458
355 767 772
263 887 1054
246 996 1306
243 1094 1536
259 1262 1779
294 1442 2001
341 1627 2206
396 1814 2395
691 772 541
378 870 896
263 999 1208
258 1143 1484
271 1288 1733
306 1438 1947
355 1626 2165
414 1828 2370
481 2019 2540
821 929 635
426 1003 1032
288 1140 1375
292 1311 1675
318 1491 1942
367 1650 2143
429 1827 2332
501 2011 2505
577 2189 2654
973 1085 739
494 1145 1180
333 1295 1557
344 1493 1880
382 1698 2157
440 1871 2347
514 2030 2498
600 2180 2626
696 2329 2747
1143 1219 852
577 1276 1343
394 1450 1755
414 1679 2096
460 1902 2375
525 2076 2540
605 2218 2657
710 2337 2746
847 2443 2826
382 320 289
388 351 426
322 406 601
235 487 791
177 599 975
161 718 1164
159 838 1341
169 963 1511
186 1095 1674
651 468 256
617 542 523
535 611 790
427 687 1032
320 784 1226
250 909 1399
224 1045 1578
231 1187 1757
263 1327 1932
854 629 255
769 751 581
650 837 909
523 911 1204
412 995 1432
329 1118 1615
299 1262 1801
313 1416 1986
360 1570 2167
1034 782 282
867 941 630
693 1049 1000
546 1130 1342
460 1205 1604
395 1330 1811
379 1482 2010
406 1649 2199
469 1820 2379
1232 911 328
937 1074 700
687 1209 1104
520 1313 1476
472 1389 1750
444 1531 1989
456 1700 2203
503 1884 2397
581 2074 2572
1468 1062 396
1054 1176 794
706 1307 1241
492 1446 1650
480 1584 1936
503 1723 2154
551 1901 2364
624 2096 2554
719 2282 2713
1725 1260 480
1219 1319 903
776 1436 1394
507 1595 1842
526 1781 2136
587 1938 2341
671 2115 2529
775 2296 2695
892 2468 2837
1999 1483 583
1421 1493 1027
889 1592 1560
563 1760 2044
605 1976 2341
696 2156 2535
813 2324 2692
953 2484 2826
1111 2638 2949
2285 1714 705
1651 1688 1162
1038 1773 1734
656 1942 2251
715 2168 2540
830 2353 2718
971 2512 2849
1153 2656 2954
1389 2797 3055
631 427 269
715 442 400
628 484 610
455 567 853
283 705 1082
234 865 1310
222 1017 1530
231 1170 1739
251 1333 1932
1033 611 218
1069 658 498
971 714 827
783 795 1149
549 919 1406
402 1080 1594
332 1250 1786
321 1423 1979
353 1591 2167
1352 840 188
1334 941 535
1187 1015 944
967 1089 1339
732 1186 1646
551 1328 1834
460 1494 2019
448 1669 2200
502 1836 2376
1632 1068 185
1536 1220 547
1306 1320 1007
1038 1392 1464
829 1462 1818
669 1583 2033
594 1739 2227
599 1911 2404
679 2081 2568
1918 1245 212
1697 1426 574
1357 1558 1065
1027 1647 1562
841 1700 1938
747 1818 2193
720 1974 2406
761 2153 2589
869 2339 2754
2278 1418 273
1938 1551 628
1442 1670 1160
1000 1784 1709
823 1903 2112
815 2018 2343
852 2179 2554
937 2361 2737
1073 2541 2886
2636 1649 359
2231 1711 707
1599 1796 1280
1042 1917 1879
861 2086 2307
921 2229 2522
1018 2390 2709
1151 2558 2870
1318 2723 3007
2986 1925 480
2560 1918 815
1818 1960 1419
1154 2068 2060
957 2262 2509
1070 2435 2711
1219 2594 2869
1401 2744 2999
1613 2894 3120
3324 2235 644
2911 2183 954
2091 2183 1574
1334 2261 2243
1111 2441 2704
1265 2623 2890
1455 2780 3026
1687 2923 3132
1970 3065 3228
1045 588 219
1216 587 337
1149 608 563
885 673 856
467 809 1174
356 1028 1442
314 1224 1711
313 1413 1966
329 1608 2194
1539 785 171
1654 808 446
1580 832 791
1317 903 1173
864 1063 1559
618 1269 1773
486 1478 1986
445 1684 2196
475 1878 2399
1907 1043 150
1963 1114 485
1856 1154 908
1586 1217 1370
1153 1358 1819
852 1534 2031
682 1736 2225
631 1943 2409
689 2134 2592
2190 1318 154
2203 1453 483
2047 1521 947
1746 1577 1471
1325 1673 1980
1049 1816 2229
895 1997 2431
865 2192 2606
962 2378 2773
2432 1567 179
2437 1770 466
2224 1882 935
1848 1942 1499
1367 1989 2069
1198 2104 2378
1120 2258 2609
1144 2434 2788
1286 2613 2941
2878 1793 261
2780 1965 491
2439 2065 963
1930 2136 1580
1328 2225 2245
1271 2315 2513
1285 2459 2739
1381 2632 2923
1568 2808 3069
3269 2048 382
3133 2157 565
2724 2219 1029
2110 2284 1686
1359 2402 2446
1396 2520 2688
1491 2660 2884
1647 2815 3046
1866 2978 3183
3606 2341 566
3472 2381 707
3061 2399 1137
2388 2442 1804
1470 2556 2660
1582 2715 2878
1744 2856 3040
1950 2991 3169
2191 3136 3289
3889 2684 835
3776 2674 938
3429 2660 1289
2759 2668 1922
1673 2728 2871
1839 2894 3062
2051 3040 3202
2294 3170 3307
2553 3294 3390
1633 825 165
1852 837 258
1865 861 428
1636 914 693
1131 1009 1072
650 1207 1480
464 1437 1836
442 1677 2145
450 1905 2414
2122 1019 150
2261 1023 392
2260 1043 673
2053 1103 1017
1576 1227 1446
999 1474 1844
726 1720 2141
653 1955 2379
682 2168 2602
2478 1275 152
2552 1311 454
2521 1335 819
2328 1385 1242
1919 1495 1719
1335 1740 2125
1026 1981 2394
932 2210 2591
993 2414 2782
2745 1561 178
2771 1650 479
2700 1693 888
2504 1731 1374
2153 1804 1907
1632 2010 2334
1341 2230 2602
1256 2447 2784
1357 2647 2952
2968 1844 234
2963 1990 501
2850 2071 905
2622 2114 1421
2275 2144 2023
1868 2291 2483
1645 2475 2773
1605 2676 2961
1747 2872 3113
3228 2052 336
3198 2227 550
3036 2340 925
2742 2412 1448
2314 2466 2105
1966 2548 2575
1858 2701 2895
1932 2892 3112
2131 3086 3274
3540 2314 506
3493 2450 665
3299 2548 997
2951 2625 1512
2443 2696 2220
2116 2787 2731
2073 2913 3040
2220 3068 3232
2465 3247 3392
3825 2610 772
3775 2679 879
3584 2739 1148
3225 2801 1624
2668 2874 2352
2332 3000 2919
2324 3112 3207
2514 3231 3352
2768 3382 3488
4003 2918 1166
3971 2931 1223
3839 2953 1406
3536 2988 1799
2996 3039 2486
2631 3177 3112
2648 3300 3397
2854 3412 3501
3057 3517 3581
2195 1081 143
2436 1144 212
2527 1205 320
2406 1267 512
2010 1337 832
1310 1481 1374
826 1671 1864
583 1904 2277
604 2176 2589
2654 1306 161
2794 1309 356
2851 1342 562
2745 1412 824
2396 1522 1183
1695 1735 1723
1186 1968 2176
924 2207 2532
965 2438 2780
2982 1559 191
3057 1569 441
3077 1587 736
2980 1635 1083
2701 1737 1488
2063 1968 2022
1575 2218 2444
1322 2462 2755
1390 2676 2955
3221 1832 243
3252 1882 499
3235 1903 850
3136 1929 1271
2920 1994 1737
2389 2199 2266
1961 2440 2668
1742 2683 2950
1835 2895 3119
3412 2112 329
3406 2204 562
3353 2255 912
3240 2283 1367
3050 2306 1917
2646 2447 2451
2310 2652 2852
2145 2883 3125
2254 3103 3276
3575 2328 474
3558 2460 661
3483 2551 975
3335 2613 1419
3100 2654 1995
2764 2730 2551
2541 2886 2978
2483 3089 3274
2641 3308 3440
3766 2548 662
3741 2675 810
3651 2780 1079
3477 2864 1496
3200 2927 2092
2870 3001 2692
2714 3113 3112
2745 3269 3393
2979 3479 3578
3939 2782 950
3915 2872 1056
3832 2964 1262
3662 3053 1627
3380 3133 2206
3031 3233 2859
2915 3328 3270
3003 3446 3519
3264 3618 3689
4046 3044 1393
4041 3072 1445
4002 3125 1566
3890 3197 1835
3668 3279 2331
3309 3401 3035
3231 3526 3468
3328 3640 3693
3493 3726 3772
2673 1324 144
2933 1478 202
3095 1606 265
3107 1705 378
2913 1770 587
2212 1848 1168
1469 1966 1784
909 2138 2334
754 2377 2719
3103 1625 202
3232 1653 339
3334 1722 476
3339 1818 649
3180 1925 895
2561 2067 1479
1888 2250 2087
1389 2457 2608
1294 2668 2932
3401 1890 264
3466 1892 447
3519 1915 673
3511 1970 937
3397 2070 1236
2889 2243 1802
2307 2468 2373
1881 2705 2845
1839 2915 3112
3606 2136 346
3640 2163 546
3654 2166 839
3631 2181 1189
3557 2243 1564
3172 2410 2105
2697 2645 2632
2348 2901 3053
2344 3128 3274
3754 2377 462
3757 2429 655
3742 2453 959
3708 2466 1356
3651 2483 1829
3389 2601 2357
3029 2809 2852
2756 3062 3236
2760 3316 3430
3861 2591 658
3843 2668 814
3809 2726 1086
3755 2770 1468
3679 2807 1950
3500 2881 2499
3239 3033 2999
3053 3244 3384
3097 3496 3587
3938 2758 871
3914 2854 998
3871 2945 1233
3804 3027 1585
3708 3095 2066
3545 3164 2639
3358 3271 3129
3269 3434 3506
3403 3669 3739
3998 2913 1143
3979 3003 1242
3942 3107 1428
3878 3215 1732
3778 3316 2189
3612 3407 2786
3480 3501 3277
3467 3627 3642
3655 3812 3863
4051 3095 1520
4047 3132 1581
4033 3209 1702
3999 3315 1934
3931 3440 2329
3787 3564 2949
3701 3700 3478
3705 3822 3835
3830 3901 3938
3010 1521 160
3309 1804 232
3532 2034 288
3654 2198 356
3649 2284 466
3230 2307 904
2462 2362 1583
1592 2424 2288
865 2466 2802
3441 1957 272
3557 2041 345
3687 2172 433
3781 2309 549
3786 2411 705
3455 2484 1180
2851 2596 1866
2179 2723 2560
1642 2839 3053
3720 2262 373
3770 2281 478
3836 2325 641
3891 2392 845
3904 2479 1075
3661 2588 1543
3196 2753 2181
2685 2943 2810
2303 3127 3250
3888 2477 485
3927 2501 627
3956 2495 863
3977 2498 1159
3992 2549 1483
3833 2670 1929
3486 2865 2496
3104 3102 3040
2833 3348 3416
3986 2647 628
4009 2680 787
4025 2684 1050
4034 2679 1405
4039 2684 1839
3955 2780 2272
3714 2965 2779
3431 3219 3251
3217 3520 3577
4027 2810 875
4036 2858 997
4043 2890 1233
4045 2915 1573
4045 2941 2007
4013 3018 2479
3859 3164 2972
3660 3381 3415
3496 3670 3737
4046 2954 1152
4048 3013 1226
4050 3074 1416
4049 3136 1721
4044 3198 2144
4026 3278 2638
3949 3399 3122
3842 3574 3550
3733 3813 3876
4051 3060 1398
4051 3117 1442
4050 3200 1590
4046 3300 1859
4037 3405 2270
4009 3510 2789
3983 3628 3278
3953 3766 3692
3916 3934 3984
4051 3106 1553
4050 3146 1611
4048 3236 1746
4041 3363 1998
4026 3514 2403
3979 3663 2975
3958 3804 3492
3973 3926 3877
4035 4019 4051
