src-tauri/resources/luts/江南风质感.cube
# Converted from .3dl (size 17x17x17) using Python
LUT_3D_SIZE 5
DOMAIN_MIN 0.0 0.0 0.0
DOMAIN_MAX 1.0 1.0 1.0
0.050794 0.050794 0.062515
0.093284 0.078144 0.070574
0.255189 0.143590 0.053480
0.536020 0.263980 0.034921
0.735043 0.371429 0.039072
0.043223 0.084005 0.095238
0.208547 0.153602 0.062271
0.465690 0.254701 0.036630
0.728205 0.380708 0.046642
0.908425 0.552381 0.091087
0.044444 0.118681 0.129670
0.300855 0.222466 0.080098
0.593895 0.382662 0.043712
0.833211 0.515751 0.080342
0.973382 0.646398 0.153358
0.050794 0.171917 0.173871
0.421245 0.307692 0.117216
0.798291 0.500122 0.093284
0.919658 0.622222 0.161661
0.988034 0.721368 0.281319
0.066422 0.207326 0.222955
0.557998 0.418559 0.172161
0.949695 0.655433 0.203907
0.988034 0.743346 0.340171
0.989255 0.758486 0.379243
0.037363 0.074237 0.117216
0.078632 0.099145 0.146764
0.280586 0.148474 0.137485
0.617094 0.294261 0.078144
0.862515 0.496703 0.070330
0.031990 0.110867 0.166789
0.158730 0.204396 0.221978
0.453236 0.281807 0.221734
0.751404 0.387546 0.179731
0.936752 0.567766 0.156532
0.031502 0.157753 0.223687
0.167766 0.295238 0.269597
0.543101 0.459585 0.228327
0.818803 0.550672 0.222711
0.982906 0.655433 0.256410
0.041758 0.222466 0.299145
0.189499 0.350672 0.340415
0.665201 0.541880 0.251282
0.891575 0.678877 0.263492
0.989011 0.750672 0.345788
0.067643 0.302076 0.395849
0.253480 0.432967 0.423443
0.837363 0.649573 0.314774
0.977289 0.763126 0.382418
0.988523 0.790232 0.426374
0.029060 0.102320 0.175336
0.043223 0.146276 0.238095
0.114042 0.197558 0.286691
0.490842 0.326496 0.203175
0.891087 0.557753 0.113797
0.028083 0.151893 0.245421
0.100611 0.242979 0.349695
0.281563 0.331624 0.444200
0.659585 0.424176 0.363370
0.953358 0.605372 0.262515
0.034188 0.209035 0.323565
0.115263 0.339194 0.427350
0.333822 0.485714 0.505250
0.744811 0.563126 0.468132
0.986325 0.655433 0.449084
0.049328 0.298901 0.422955
0.128449 0.434921 0.521612
0.331868 0.586569 0.597314
0.781441 0.714774 0.510867
0.987546 0.780952 0.523565
0.078144 0.400244 0.538217
0.174603 0.529426 0.620269
0.408547 0.666178 0.701099
0.895727 0.800733 0.569231
0.983150 0.858120 0.586813
0.025397 0.138706 0.241758
0.038828 0.204640 0.327473
0.076679 0.298901 0.417827
0.201709 0.408059 0.455189
0.601221 0.576801 0.386569
0.033700 0.207326 0.331624
0.073016 0.308181 0.439805
0.166545 0.423932 0.543346
0.384615 0.541636 0.596825
0.780464 0.672283 0.532601
0.050061 0.294261 0.439316
0.111355 0.415140 0.537973
0.273504 0.551404 0.637118
0.564103 0.647619 0.696459
0.906960 0.724054 0.678632
0.066178 0.370208 0.515995
0.163858 0.516484 0.617582
0.364103 0.649573 0.704274
0.662759 0.760195 0.759951
0.964347 0.830037 0.762393
0.088645 0.459341 0.595116
0.237118 0.613431 0.695727
0.500855 0.742369 0.781929
0.789011 0.861050 0.846886
0.966545 0.928938 0.852747
0.031258 0.195604 0.308913
0.045421 0.267399 0.408791
0.080342 0.392674 0.535775
0.147497 0.531380 0.632234
0.211233 0.602198 0.684249
0.043956 0.265934 0.421978
0.087912 0.383394 0.529182
0.168254 0.521123 0.632967
0.339438 0.653480 0.721612
0.562393 0.763614 0.793651
0.069841 0.379243 0.542613
0.141880 0.506471 0.628083
0.314042 0.638095 0.718193
0.550427 0.757753 0.800000
0.785592 0.859585 0.873504
0.088156 0.454701 0.595849
0.217827 0.602686 0.692796
0.455678 0.727228 0.777289
0.727473 0.849573 0.873748
0.911600 0.931136 0.946520
0.093773 0.476923 0.610012
0.339194 0.683028 0.746032
0.623443 0.804396 0.827839
0.852991 0.909890 0.921123
0.985348 0.981441 0.989255
