src-tauri/resources/luts/江南风质感.3dl
# LUT by SparkleStock. Enhanced with VOXCOLOR algorithms.
0 64 128 192 256 320 384 448 512 576 640 704 768 832 896 960 1023
208 208 256
193 229 310
179 250 365
165 274 421
153 304 480
141 333 538
132 362 598
126 390 658
119 419 718
114 452 783
109 486 848
105 523 916
104 568 990
102 612 1063
108 671 1132
118 736 1198
128 801 1265
197 244 289
183 265 347
169 286 406
156 310 466
146 340 528
137 370 591
129 402 655
123 434 720
116 466 785
113 504 855
111 542 924
109 583 995
109 631 1072
109 678 1148
116 734 1223
126 794 1297
136 854 1371
186 279 321
173 301 385
159 322 448
148 346 512
140 377 577
132 407 643
126 441 712
120 477 782
114 513 853
113 556 926
112 599 999
112 644 1074
115 694 1154
117 744 1234
124 798 1314
134 852 1395
143 907 1476
179 313 355
165 336 422
152 358 490
141 383 558
134 414 628
128 445 698
122 483 772
118 524 848
113 564 925
114 612 1003
115 660 1081
118 710 1162
123 765 1246
129 819 1330
137 873 1417
146 926 1504
156 979 1592
177 344 390
163 369 461
149 395 532
138 422 605
131 454 683
124 486 760
120 528 840
117 575 923
115 622 1005
119 676 1092
123 731 1179
129 787 1268
138 849 1358
147 910 1448
157 970 1540
169 1030 1634
180 1089 1728
176 374 426
162 402 500
147 431 575
135 461 652
127 494 737
120 527 821
117 574 909
117 627 997
117 680 1085
124 741 1181
131 801 1277
140 865 1373
152 933 1470
165 1001 1566
177 1068 1664
191 1133 1764
204 1199 1864
177 410 461
162 440 542
147 471 622
134 504 705
127 542 795
120 580 885
119 629 978
121 684 1071
124 738 1165
133 807 1270
142 876 1375
153 947 1479
169 1022 1580
185 1096 1681
200 1170 1783
215 1242 1885
231 1315 1987
180 448 496
164 480 584
147 513 672
135 550 762
128 594 856
122 639 950
123 690 1047
127 743 1146
132 797 1245
143 875 1359
154 954 1474
168 1033 1585
187 1113 1689
206 1194 1794
223 1274 1898
241 1354 2001
258 1434 2105
182 486 531
165 520 626
148 555 722
135 595 818
129 646 916
124 698 1014
127 750 1116
133 803 1221
140 856 1325
153 943 1448
166 1031 1572
182 1118 1690
205 1205 1799
227 1291 1908
247 1378 2013
267 1466 2118
286 1553 2222
186 538 575
169 573 677
153 608 780
141 650 884
137 707 990
133 765 1096
137 824 1204
145 884 1313
152 945 1422
167 1023 1535
182 1102 1648
199 1185 1762
221 1278 1877
243 1371 1991
265 1463 2095
287 1555 2193
309 1646 2291
190 590 618
174 626 729
158 661 839
147 705 951
145 768 1065
143 831 1178
148 897 1292
156 965 1405
165 1033 1519
181 1103 1622
197 1173 1725
215 1253 1834
238 1352 1954
260 1452 2075
284 1549 2176
307 1644 2268
331 1740 2359
196 645 663
181 682 782
166 719 901
156 766 1021
155 835 1142
155 903 1263
161 975 1383
171 1050 1502
180 1125 1621
198 1190 1717
215 1256 1814
234 1332 1917
255 1430 2033
276 1528 2149
299 1625 2244
325 1721 2329
350 1817 2414
208 704 712
194 745 840
180 786 968
171 838 1096
171 911 1225
172 984 1354
179 1062 1481
191 1143 1606
202 1224 1732
220 1294 1830
237 1363 1927
255 1436 2023
271 1516 2113
288 1595 2203
311 1682 2285
336 1772 2363
361 1862 2440
219 763 761
206 808 898
194 854 1035
186 910 1172
187 987 1309
189 1065 1445
198 1149 1579
211 1236 1711
224 1323 1843
242 1397 1942
260 1470 2041
276 1540 2128
288 1601 2193
301 1663 2257
322 1740 2326
347 1824 2396
372 1908 2467
235 800 811
225 858 962
215 916 1112
210 983 1261
214 1069 1408
217 1155 1554
227 1244 1692
240 1335 1826
253 1427 1961
270 1501 2054
286 1576 2147
301 1642 2225
311 1693 2274
322 1743 2323
339 1802 2374
358 1866 2428
378 1930 2481
254 824 862
247 900 1028
241 975 1195
239 1057 1358
245 1153 1514
251 1248 1670
261 1343 1813
274 1438 1948
287 1533 2082
301 1607 2166
315 1681 2250
327 1744 2318
337 1787 2356
347 1829 2393
358 1868 2427
369 1905 2458
381 1942 2490
272 849 913
269 942 1095
267 1035 1277
268 1132 1454
277 1237 1621
285 1341 1787
296 1442 1933
308 1540 2069
320 1639 2204
332 1712 2278
343 1785 2352
354 1846 2411
363 1881 2437
372 1915 2464
377 1933 2479
381 1943 2489
384 1953 2498
231 229 270
214 251 330
197 272 390
181 296 451
167 328 516
153 359 580
142 392 648
133 426 717
125 460 786
120 499 857
116 538 929
113 580 1000
112 628 1073
112 676 1147
118 733 1217
126 794 1286
135 856 1355
256 274 287
236 300 361
216 326 434
198 353 507
184 384 577
169 415 647
157 449 719
146 485 792
135 521 865
130 564 939
125 606 1013
122 652 1089
123 703 1166
125 754 1244
132 810 1321
142 869 1396
152 929 1472
281 319 305
258 349 392
235 380 479
215 410 562
200 441 638
186 471 714
172 507 791
158 545 868
145 582 945
139 629 1021
134 675 1098
131 723 1177
134 778 1259
138 832 1342
146 888 1424
158 944 1506
169 1001 1589
301 360 328
275 396 425
248 431 522
225 465 614
210 496 697
196 526 779
182 564 861
168 605 943
153 645 1025
148 696 1106
143 746 1187
142 799 1270
148 857 1358
153 916 1445
164 974 1533
177 1031 1622
190 1089 1710
314 396 360
281 437 461
248 479 562
221 517 659
208 549 750
194 580 841
182 621 930
170 666 1019
159 712 1107
157 767 1196
155 823 1285
157 881 1375
166 947 1468
174 1012 1560
187 1077 1654
203 1142 1747
218 1207 1841
327 432 393
288 479 497
249 526 601
218 568 704
205 601 803
191 634 903
181 678 999
173 728 1094
165 778 1189
166 839 1286
167 899 1383
171 964 1480
183 1036 1577
195 1108 1675
211 1180 1774
229 1252 1873
246 1324 1972
344 473 426
297 522 537
249 572 648
214 617 756
202 656 862
190 695 967
183 741 1069
178 793 1170
173 844 1270
177 912 1375
181 980 1480
189 1052 1584
204 1130 1685
220 1208 1787
238 1287 1888
257 1365 1988
277 1443 2089
364 517 460
307 567 579
250 616 697
209 665 813
199 711 923
189 758 1034
184 807 1140
183 858 1245
182 909 1350
190 986 1464
197 1063 1578
208 1143 1688
227 1227 1793
246 1310 1897
266 1395 1999
288 1479 2099
309 1563 2199
383 561 495
317 611 621
251 661 747
205 712 870
196 767 985
187 821 1100
186 873 1211
189 924 1321
191 975 1430
202 1061 1553
213 1147 1675
227 1234 1793
249 1323 1900
271 1412 2008
294 1503 2110
318 1593 2209
341 1683 2309
412 621 537
336 667 672
260 713 807
207 764 938
200 825 1061
193 886 1183
195 947 1300
200 1007 1414
205 1068 1528
218 1147 1642
232 1226 1756
249 1311 1868
273 1406 1980
296 1502 2092
322 1595 2191
348 1688 2285
373 1781 2379
440 681 580
354 723 724
268 766 868
209 816 1007
204 884 1136
199 951 1266
203 1020 1388
210 1090 1507
218 1161 1626
235 1233 1731
252 1305 1836
271 1388 1944
296 1489 2060
322 1591 2175
349 1688 2273
377 1784 2361
406 1879 2450
473 745 624
377 784 778
281 824 931
216 875 1079
213 948 1215
210 1022 1352
215 1099 1480
225 1177 1604
235 1256 1728
255 1326 1827
274 1395 1926
296 1475 2029
322 1576 2140
348 1677 2252
377 1774 2344
407 1869 2427
438 1965 2509
514 817 674
409 856 837
303 895 1000
232 947 1157
230 1025 1300
228 1104 1444
236 1187 1578
248 1272 1707
260 1358 1837
281 1432 1936
302 1506 2035
325 1585 2132
350 1671 2223
376 1758 2314
406 1847 2395
437 1936 2471
469 2026 2547
556 888 723
440 927 896
325 965 1069
248 1019 1234
247 1102 1385
246 1186 1536
256 1275 1677
270 1367 1811
285 1459 1946
308 1538 2045
330 1617 2144
354 1694 2234
379 1767 2305
404 1839 2375
435 1919 2446
467 2003 2516
500 2087 2586
604 942 775
479 986 961
355 1030 1146
272 1090 1323
273 1182 1482
275 1274 1642
286 1369 1786
302 1465 1922
317 1562 2059
340 1643 2153
363 1724 2247
387 1798 2329
412 1861 2386
438 1924 2443
469 1991 2500
503 2061 2557
537 2130 2614
656 988 829
522 1041 1028
388 1093 1228
300 1162 1417
304 1263 1585
308 1364 1753
320 1465 1900
337 1565 2037
354 1666 2174
376 1747 2261
399 1827 2347
422 1899 2420
448 1955 2467
474 2011 2513
506 2063 2556
541 2114 2597
576 2164 2638
707 1034 882
565 1095 1096
422 1155 1310
329 1233 1511
335 1343 1688
341 1454 1864
355 1561 2015
373 1665 2152
390 1770 2290
412 1851 2368
434 1931 2446
457 2001 2511
484 2049 2547
511 2098 2584
543 2135 2612
580 2167 2637
616 2198 2662
255 251 283
235 272 349
216 293 415
197 319 482
181 352 552
165 385 622
152 422 697
141 462 776
130 501 854
126 546 932
123 591 1009
121 637 1084
121 688 1157
122 739 1231
128 795 1302
135 853 1373
142 911 1444
315 304 286
289 335 374
263 365 462
240 396 547
221 428 625
202 460 704
185 497 784
169 537 864
153 576 945
146 623 1024
139 671 1103
135 720 1182
138 775 1261
140 829 1341
148 886 1418
158 945 1495
169 1003 1573
375 358 289
343 398 399
311 437 510
282 474 612
261 505 699
240 535 786
218 572 870
197 612 953
176 651 1036
165 701 1117
155 751 1197
150 803 1280
154 861 1365
158 919 1450
168 977 1534
182 1037 1618
195 1096 1701
424 408 300
384 456 427
343 505 554
309 547 670
287 577 765
264 607 861
241 645 951
217 686 1038
194 727 1125
183 779 1209
171 832 1293
166 887 1379
172 950 1470
178 1012 1561
191 1075 1650
207 1137 1739
224 1199 1828
451 449 330
399 506 460
347 563 591
305 611 713
284 643 818
263 674 922
243 714 1020
223 758 1114
203 801 1209
195 858 1299
187 914 1390
184 975 1483
193 1045 1578
202 1114 1672
218 1184 1767
237 1254 1860
256 1324 1954
478 490 359
414 556 493
350 621 628
301 675 755
282 708 870
263 741 984
246 783 1090
229 830 1191
213 876 1293
208 937 1390
203 997 1488
203 1063 1586
215 1139 1685
226 1215 1784
245 1293 1883
267 1371 1981
288 1449 2080
511 537 391
432 604 532
352 672 673
294 730 808
277 769 929
260 809 1050
246 854 1161
235 901 1268
223 949 1374
222 1017 1480
221 1084 1585
225 1157 1689
240 1238 1791
255 1320 1893
276 1403 1993
300 1488 2092
323 1572 2190
548 586 425
451 653 574
353 719 723
284 780 864
270 828 991
255 877 1118
246 925 1234
239 973 1344
233 1021 1455
236 1097 1568
240 1173 1682
249 1253 1792
267 1340 1896
285 1427 2000
309 1515 2100
334 1604 2196
360 1693 2293
585 635 458
470 701 615
355 767 772
274 830 921
263 887 1054
251 945 1186
246 996 1306
244 1045 1421
243 1094 1536
251 1178 1657
259 1262 1779
272 1349 1895
294 1442 2001
316 1534 2108
341 1627 2206
369 1720 2301
396 1814 2395
638 703 500
502 761 667
366 818 834
272 878 992
263 943 1131
254 1008 1270
252 1070 1395
255 1130 1515
257 1191 1634
270 1271 1748
283 1350 1863
300 1436 1975
325 1534 2083
350 1632 2192
378 1727 2288
408 1822 2378
438 1916 2468
691 772 541
534 821 719
378 870 896
271 927 1063
263 999 1208
256 1071 1353
258 1143 1484
265 1216 1609
271 1288 1733
289 1363 1840
306 1438 1947
327 1522 2055
355 1626 2165
383 1729 2276
414 1828 2370
448 1923 2455
481 2019 2540
750 845 586
573 887 773
395 929 961
275 983 1137
270 1062 1288
264 1140 1440
269 1222 1577
280 1305 1705
290 1388 1834
312 1461 1936
333 1535 2038
358 1618 2141
389 1722 2248
420 1826 2355
454 1924 2444
490 2018 2524
526 2113 2605
821 929 635
623 966 833
426 1003 1032
293 1056 1217
288 1140 1375
284 1224 1534
292 1311 1675
305 1401 1809
318 1491 1942
343 1570 2042
367 1650 2143
395 1734 2241
429 1827 2332
464 1921 2424
501 2011 2505
539 2100 2580
577 2189 2654
892 1013 685
674 1045 893
456 1077 1102
310 1128 1297
307 1217 1462
304 1307 1628
314 1401 1774
330 1498 1912
346 1595 2049
374 1680 2148
401 1765 2248
432 1849 2340
470 1932 2417
508 2016 2494
547 2099 2565
588 2182 2635
628 2266 2704
973 1085 739
733 1115 959
494 1145 1180
334 1197 1385
333 1295 1557
332 1393 1729
344 1493 1880
363 1595 2018
382 1698 2157
411 1784 2252
440 1871 2347
473 1954 2432
514 2030 2498
554 2106 2563
600 2180 2626
648 2255 2686
696 2329 2747
1058 1152 795
797 1181 1028
535 1210 1261
362 1266 1477
363 1373 1656
365 1480 1835
379 1586 1988
400 1693 2127
421 1800 2266
452 1887 2355
482 1974 2444
517 2055 2522
559 2124 2578
602 2193 2634
655 2259 2686
713 2322 2736
772 2386 2786
1143 1219 852
860 1247 1097
577 1276 1343
389 1334 1569
394 1450 1755
398 1567 1941
414 1679 2096
437 1791 2236
460 1902 2375
492 1989 2458
525 2076 2540
561 2156 2611
605 2218 2657
649 2281 2704
710 2337 2746
779 2390 2786
847 2443 2826
298 279 291
283 299 361
268 319 430
249 343 503
224 377 582
198 412 661
178 454 746
161 500 832
145 546 919
140 597 1003
136 649 1087
133 701 1169
135 756 1245
138 811 1322
143 868 1397
150 926 1472
157 985 1547
395 342 282
371 374 381
347 406 479
321 438 576
291 470 667
262 503 759
236 544 848
211 588 936
186 632 1024
174 685 1108
163 738 1193
156 793 1276
158 852 1358
161 911 1440
169 971 1521
180 1032 1601
