src-tauri/resources/luts/江南风A01.cube
# LUT by SparkleStock. Enhanced with VOXCOLOR algorithms.
LUT_3D_SIZE 8
DOMAIN_MIN 0.000000 0.000000 0.000000
DOMAIN_MAX 0.903226 0.903226 0.903226
0.027350 0.031258 0.050794
0.051172 0.034661 0.059112
0.124140 0.052259 0.087518
0.244760 0.092323 0.143338
0.405175 0.160668 0.229336
0.575517 0.264083 0.338989
0.697964 0.366237 0.411462
0.763212 0.452984 0.416897
0.032455 0.047139 0.063839
0.072962 0.057714 0.074499
0.164172 0.084972 0.099752
0.294951 0.129806 0.144423
0.451525 0.193137 0.210497
0.605474 0.281037 0.294975
0.712015 0.376825 0.356543
0.765975 0.469340 0.379775
0.040104 0.087124 0.101256
0.080294 0.099999 0.111045
0.189486 0.139095 0.133603
0.334512 0.194382 0.169614
0.488086 0.258584 0.218653
0.628752 0.332317 0.278578
0.724831 0.415828 0.328741
0.774479 0.502708 0.363426
0.060223 0.167443 0.177226
0.092851 0.180854 0.186527
0.203647 0.220961 0.199387
0.356268 0.279205 0.222167
0.517725 0.346883 0.257557
0.646571 0.410602 0.298369
0.736340 0.480155 0.336971
0.786376 0.553055 0.374337
0.103612 0.296995 0.298507
0.129415 0.310662 0.308777
0.219196 0.335785 0.303142
0.364764 0.381902 0.304968
0.543069 0.449473 0.327419
0.661981 0.507721 0.356924
0.747487 0.564515 0.385393
0.799904 0.618661 0.416805
0.197952 0.473197 0.457505
0.224487 0.482766 0.462213
0.294368 0.495808 0.446972
0.412029 0.520640 0.428625
0.566695 0.561224 0.421582
0.687070 0.610544 0.443623
0.763917 0.655605 0.471457
0.814767 0.693333 0.496862
0.362874 0.631439 0.583733
0.394776 0.636421 0.577025
0.456044 0.642510 0.556259
0.544019 0.654362 0.532974
0.650164 0.675019 0.518119
0.740290 0.705287 0.530255
0.795568 0.733267 0.555016
0.834249 0.757322 0.579242
0.582977 0.750451 0.651180
0.614037 0.752256 0.639415
0.655470 0.754822 0.625405
0.703783 0.759748 0.614235
0.755083 0.768411 0.610690
0.801720 0.783151 0.623613
0.831036 0.797541 0.646609
0.853089 0.810513 0.669169
0.034157 0.037307 0.064784
0.053001 0.038954 0.075298
0.121512 0.053241 0.102582
0.241729 0.088866 0.155242
0.406554 0.152179 0.237178
0.577334 0.251203 0.343027
0.700952 0.358724 0.425720
0.770134 0.452630 0.445530
0.039847 0.061239 0.088221
0.080817 0.076403 0.107649
0.172205 0.102682 0.136025
0.301411 0.141065 0.177707
0.454263 0.193090 0.235002
0.605478 0.266854 0.307290
0.714928 0.356280 0.365972
0.772779 0.453098 0.388115
0.052332 0.118087 0.141111
0.092003 0.135796 0.155725
0.198451 0.170486 0.176102
0.338726 0.215171 0.205093
0.486569 0.264943 0.243737
0.625341 0.320894 0.288785
0.727003 0.393218 0.330861
0.782559 0.480783 0.360430
0.078183 0.210847 0.228608
0.108838 0.227534 0.236680
0.208246 0.260956 0.241213
0.350798 0.306093 0.251807
0.509907 0.357337 0.273482
0.639542 0.404029 0.299029
0.737316 0.461200 0.327748
0.796014 0.531341 0.360023
0.125305 0.339466 0.351004
0.150381 0.355999 0.358078
0.218291 0.377186 0.343300
0.346954 0.411798 0.329537
0.527832 0.461760 0.331431
0.651696 0.506381 0.344779
0.746857 0.551147 0.361387
0.810389 0.600146 0.386310
0.217742 0.500007 0.497415
0.242417 0.513121 0.503799
0.292665 0.525716 0.485652
0.388831 0.544587 0.454832
0.533577 0.573936 0.424952
0.671597 0.613029 0.426869
0.760591 0.649555 0.438121
0.823991 0.682334 0.452103
0.373443 0.643319 0.609957
0.400179 0.651677 0.610081
0.445092 0.658888 0.593332
0.518511 0.668827 0.564726
0.621424 0.684540 0.532568
0.724794 0.709302 0.523636
0.789345 0.734036 0.529800
0.839245 0.755536 0.539699
0.580403 0.755001 0.671744
0.608390 0.758000 0.662511
0.642695 0.761988 0.653191
0.686316 0.767364 0.641793
0.739338 0.774833 0.629061
0.792382 0.787336 0.627022
0.826575 0.801435 0.636802
0.855464 0.814394 0.649140
0.044846 0.050857 0.091496
0.058403 0.053235 0.100888
0.123100 0.066992 0.131810
0.237687 0.100432 0.187109
0.394039 0.159297 0.266513
0.560179 0.249161 0.362646
0.686540 0.354342 0.446973
0.764356 0.450652 0.482311
0.052470 0.084393 0.124496
0.085243 0.100294 0.146886
0.166604 0.121239 0.181737
0.290140 0.153312 0.228307
0.444229 0.200624 0.285216
0.594934 0.265917 0.349918
0.709012 0.351642 0.406504
0.775127 0.448537 0.426384
0.068201 0.150921 0.187549
0.102456 0.172311 0.208985
0.195928 0.200949 0.236355
0.328756 0.235962 0.268758
0.480715 0.276351 0.304800
0.619844 0.321127 0.340937
0.727600 0.384803 0.373950
0.791770 0.467995 0.391273
0.098455 0.253719 0.283695
0.127410 0.274637 0.298223
0.214313 0.303666 0.309481
0.345149 0.337398 0.320081
0.500954 0.372716 0.331947
0.634839 0.405785 0.345956
0.740701 0.450219 0.361002
0.809405 0.512483 0.378600
0.149866 0.389466 0.409437
0.175071 0.406467 0.417696
0.233732 0.425880 0.409763
0.344588 0.449842 0.393062
0.505728 0.479065 0.375674
0.642341 0.510262 0.374072
0.748557 0.541895 0.376975
0.824519 0.582302 0.390408
0.239778 0.533517 0.539320
0.266981 0.548502 0.547829
0.310338 0.561828 0.537695
0.387271 0.575378 0.508102
0.506158 0.591868 0.464887
0.654849 0.620052 0.441788
0.757805 0.645989 0.435203
0.835957 0.671195 0.437687
0.385290 0.660033 0.638385
0.413711 0.670279 0.641320
0.450458 0.678367 0.633048
0.508343 0.686334 0.608344
0.594385 0.696725 0.568166
0.703972 0.716557 0.535469
0.781141 0.736679 0.521020
0.845953 0.753908 0.516971
0.573017 0.760120 0.695437
0.604158 0.765168 0.687356
0.635391 0.769973 0.682034
0.673120 0.775205 0.672598
0.721079 0.781851 0.655612
0.777349 0.793246 0.637242
0.819066 0.806953 0.630231
0.858097 0.819042 0.630177
0.061310 0.081043 0.137548
0.070610 0.086154 0.146586
0.123887 0.101114 0.178675
0.232090 0.134054 0.236005
0.390949 0.190198 0.316556
0.543586 0.272292 0.405297
0.664790 0.367539 0.483940
0.747541 0.456632 0.529396
0.072824 0.126777 0.181781
0.095326 0.141246 0.203336
0.157861 0.157604 0.240879
0.271031 0.184552 0.292088
0.430522 0.227864 0.353392
0.579585 0.289570 0.415933
0.693402 0.369631 0.470541
0.766262 0.458277 0.491079
0.091687 0.198132 0.250461
0.119059 0.220721 0.276232
0.191704 0.244177 0.309856
0.308729 0.270587 0.347830
0.460754 0.301798 0.386793
0.605547 0.341171 0.421754
0.717971 0.397296 0.450473
0.791262 0.470204 0.457986
0.123538 0.300660 0.345681
0.150818 0.324654 0.367316
0.222931 0.351714 0.389610
0.335746 0.377014 0.407478
0.479684 0.398299 0.418582
0.623533 0.421110 0.428380
0.737265 0.454324 0.434484
0.816572 0.505330 0.436366
0.174353 0.432355 0.463763
0.200005 0.449627 0.475445
0.256764 0.471897 0.482737
0.352932 0.491855 0.476758
0.488034 0.506003 0.455948
0.634991 0.522294 0.443687
0.750182 0.540606 0.433491
0.837081 0.570889 0.432581
0.260265 0.566098 0.580436
0.288556 0.580599 0.589800
0.333924 0.596529 0.591212
0.400950 0.609140 0.573804
0.495393 0.617342 0.534295
0.638432 0.632962 0.492443
0.753827 0.647094 0.470599
0.846277 0.663623 0.462300
0.393411 0.677002 0.666017
0.423814 0.687394 0.670150
0.461576 0.697499 0.670043
0.511603 0.705891 0.655371
0.579591 0.713000 0.620743
0.682819 0.726758 0.572036
0.771377 0.741354 0.541142
0.851073 0.753627 0.525950
0.560611 0.764677 0.719367
0.594028 0.771129 0.713164
0.627688 0.777425 0.710241
0.664396 0.783597 0.704048
0.706913 0.790152 0.689343
0.761201 0.799962 0.660330
0.809865 0.812964 0.639710
0.859255 0.823749 0.629437
0.086904 0.138493 0.211375
0.093972 0.147336 0.222920
0.126523 0.164149 0.250102
0.226694 0.196691 0.303423
0.401745 0.250087 0.385037
0.541118 0.327498 0.471656
0.646236 0.407510 0.540050
0.724370 0.479417 0.586862
0.104364 0.197455 0.267958
0.119379 0.209905 0.286651
0.158181 0.225456 0.319237
0.254030 0.248876 0.368327
0.414610 0.284899 0.432516
0.565225 0.344557 0.496703
0.671446 0.414709 0.548914
0.744955 0.486117 0.574881
0.127644 0.270620 0.338257
0.149156 0.291099 0.362771
0.197103 0.311465 0.395155
0.287139 0.330792 0.434032
0.423771 0.351076 0.477058
0.580778 0.387783 0.517262
0.695275 0.436167 0.548640
0.775600 0.493260 0.555448
0.158548 0.359700 0.420424
0.183852 0.383614 0.444293
0.238768 0.409880 0.472932
0.325287 0.430100 0.499289
0.444243 0.441084 0.518888
0.600039 0.456147 0.532810
0.720741 0.480371 0.539609
0.810159 0.517891 0.532503
0.201690 0.465835 0.513132
0.227703 0.484149 0.528361
0.283940 0.512762 0.550767
0.368810 0.536517 0.564747
0.480983 0.546236 0.561185
0.625629 0.546861 0.546354
0.745943 0.552547 0.527823
0.841348 0.571992 0.513700
0.279241 0.592717 0.618663
0.305074 0.605030 0.627311
0.356101 0.625017 0.638168
0.423864 0.642248 0.639235
0.505808 0.650435 0.621483
0.624680 0.653279 0.576850
0.747694 0.655160 0.545715
0.851197 0.662795 0.528245
0.396204 0.690601 0.690677
0.424966 0.699742 0.696004
0.470486 0.713251 0.700938
0.523901 0.725467 0.698977
0.582410 0.733213 0.682953
0.666835 0.739952 0.634474
0.761299 0.748443 0.596103
0.852062 0.755680 0.574173
0.544240 0.767838 0.741205
0.574545 0.774158 0.738627
0.614703 0.782918 0.736729
0.657714 0.791849 0.734318
0.699926 0.799577 0.727650
0.748343 0.807035 0.698990
0.800566 0.818710 0.673018
0.857532 0.827905 0.657696
0.135492 0.254008 0.341447
0.143146 0.264022 0.354602
0.166951 0.281487 0.377796
0.233860 0.306906 0.414150
0.361324 0.342811 0.466362
0.555438 0.404268 0.541126
0.651750 0.475278 0.604373
0.713599 0.535293 0.648885
0.159539 0.314287 0.398469
0.171966 0.326322 0.413900
0.197726 0.342624 0.438587
0.257065 0.362641 0.472487
0.367720 0.387973 0.515999
0.562311 0.431336 0.573883
0.664447 0.491863 0.622816
0.728448 0.547630 0.654246
0.190960 0.386696 0.465371
0.208398 0.401561 0.481911
0.240180 0.418313 0.504865
0.295935 0.434513 0.532915
0.388372 0.449971 0.565295
0.560530 0.473255 0.603945
0.674995 0.512059 0.635989
0.753658 0.552140 0.653192
0.225219 0.461419 0.531828
0.247307 0.478322 0.548411
0.286075 0.497516 0.569093
0.343526 0.513849 0.590497
0.425721 0.524178 0.610495
0.565318 0.529774 0.630116
0.689167 0.544347 0.643400
0.784813 0.565265 0.645927
0.261280 0.533542 0.592006
0.287406 0.550539 0.607386
0.331676 0.573239 0.626531
0.394780 0.593715 0.642321
0.477511 0.605396 0.650385
0.586282 0.600336 0.652443
0.710785 0.595655 0.645556
0.817618 0.600406 0.633892
0.311899 0.613733 0.652456
0.342265 0.628242 0.663634
0.388634 0.648879 0.678667
0.449409 0.669280 0.690166
0.524277 0.684004 0.691858
0.621212 0.686036 0.675106
0.740350 0.676190 0.646115
0.845518 0.673645 0.623461
0.403394 0.697614 0.711224
0.429871 0.706798 0.717306
0.473427 0.721252 0.726487
0.529793 0.737359 0.733120
0.595365 0.751649 0.731552
0.668769 0.758294 0.710047
0.756297 0.760088 0.677998
0.846593 0.761513 0.654205
0.529902 0.769052 0.758678
0.553091 0.774215 0.759282
0.590726 0.783222 0.761697
0.638759 0.794617 0.763107
0.692931 0.806694 0.760623
0.746471 0.815663 0.748039
0.794866 0.824320 0.728917
0.851139 0.830704 0.714667
0.229454 0.426397 0.522722
0.236473 0.433069 0.530779
0.256275 0.444947 0.544658
0.303979 0.460152 0.563914
0.392591 0.479024 0.589347
0.545698 0.511963 0.628835
0.653634 0.554395 0.667379
0.719743 0.595941 0.699199
0.256550 0.471527 0.560302
0.269703 0.481467 0.570767
0.290023 0.493775 0.585362
0.330340 0.507496 0.603780
0.403855 0.522877 0.626194
0.542707 0.545598 0.655772
0.657459 0.579080 0.685491
0.729323 0.615415 0.709965
0.292835 0.525159 0.604444
0.309763 0.535830 0.614571
0.333742 0.548260 0.627958
0.370890 0.560470 0.643819
0.430464 0.571541 0.661641
0.546400 0.583864 0.682098
0.663078 0.603444 0.702369
0.744802 0.627422 0.718354
0.331444 0.578451 0.646663
0.351191 0.589079 0.655980
0.379686 0.602154 0.667844
0.418161 0.614492 0.680528
0.471011 0.623590 0.692914
0.562003 0.627117 0.705434
0.674355 0.631412 0.716048
0.765845 0.640700 0.722813
0.368292 0.626198 0.681751
0.390778 0.637006 0.690951
0.422976 0.651365 0.701932
0.466137 0.665874 0.711802
0.521293 0.676810 0.718860
0.592156 0.675587 0.724311
0.694149 0.667251 0.725343
0.791423 0.663996 0.722772
0.407104 0.672749 0.712244
0.431639 0.682693 0.719716
0.466100 0.696385 0.729635
0.510450 0.711225 0.738350
0.565036 0.724468 0.742771
0.634412 0.730394 0.738798
0.725368 0.721577 0.730309
0.818023 0.714855 0.720167
0.464370 0.723965 0.743820
0.488978 0.732806 0.749631
0.523309 0.743985 0.757450
0.566610 0.756750 0.764445
0.618066 0.769832 0.767677
0.677929 0.779027 0.760768
0.750313 0.781578 0.749969
0.831177 0.780237 0.735407
0.547749 0.775434 0.774651
0.570214 0.781711 0.778067
0.601411 0.789647 0.782748
0.640758 0.799474 0.786966
0.687261 0.810915 0.788900
0.739247 0.821813 0.784473
0.790327 0.830839 0.778872
0.844622 0.835238 0.770408
0.378778 0.598180 0.682390
0.385395 0.599498 0.684799
0.404078 0.603316 0.689485
0.438983 0.608569 0.695705
0.494792 0.615157 0.703495
0.586631 0.627134 0.716424
0.673953 0.645292 0.732352
0.733577 0.665456 0.747822
0.402667 0.623520 0.698850
0.416701 0.629488 0.703941
0.434273 0.635810 0.709897
0.462368 0.642072 0.716785
0.507749 0.648280 0.724601
0.585278 0.656122 0.733276
0.676152 0.668766 0.744946
0.740222 0.686532 0.757508
0.434352 0.653703 0.719220
0.451300 0.660582 0.725103
0.469934 0.667799 0.731196
0.495020 0.674608 0.737627
0.531970 0.680427 0.744333
0.595538 0.684651 0.750476
0.682450 0.691241 0.758292
0.749631 0.703249 0.767341
0.468916 0.684586 0.739347
0.486608 0.690926 0.745126
0.507018 0.698379 0.750833
0.532178 0.705883 0.756213
0.565032 0.712187 0.761126
0.616156 0.714065 0.765695
0.693922 0.714430 0.770305
0.762951 0.719209 0.775818
0.502674 0.713253 0.756423
0.520612 0.719200 0.761870
0.542465 0.726822 0.767146
0.569677 0.735348 0.771411
0.603337 0.743300 0.774376
0.645389 0.745133 0.777458
0.711341 0.740354 0.779775
0.780572 0.738563 0.782154
0.534051 0.739080 0.770291
0.551815 0.744797 0.774969
0.574563 0.752067 0.780037
0.602813 0.760587 0.784062
0.637150 0.769729 0.786081
0.680288 0.777252 0.785857
0.736249 0.774416 0.787537
0.801121 0.771492 0.787411
0.567121 0.765792 0.783316
0.586638 0.772474 0.788251
0.610164 0.779548 0.793369
0.638355 0.787617 0.797729
0.671865 0.796807 0.800376
0.713067 0.805699 0.799188
0.761788 0.810268 0.799716
0.819715 0.811307 0.795662
0.612333 0.796318 0.799039
0.630912 0.802025 0.802997
0.653530 0.807874 0.807570
0.680721 0.814897 0.811861
0.713054 0.823621 0.814892
0.752871 0.833354 0.814352
0.794437 0.841468 0.815756
0.837360 0.845666 0.813657
