src-tauri/resources/luts/江南风A01.cube
# LUT by SparkleStock. Enhanced with VOXCOLOR algorithms.
LUT_3D_SIZE 32
0.027350 0.031258 0.050794
0.033306 0.032108 0.052873
0.039261 0.032959 0.054953
0.045216 0.033810 0.057033
0.051172 0.034661 0.059112
0.057127 0.035511 0.061192
0.077538 0.040537 0.069180
0.100839 0.046398 0.078349
0.124140 0.052259 0.087518
0.147442 0.058120 0.096688
0.170743 0.063980 0.105857
0.205010 0.076490 0.122683
0.244760 0.092323 0.143338
0.284509 0.108157 0.163992
0.324259 0.123991 0.184647
0.364008 0.139824 0.205302
0.405175 0.160668 0.229336
0.447761 0.186522 0.256749
0.490346 0.212375 0.284162
0.532932 0.238229 0.311576
0.575517 0.264083 0.338989
0.613313 0.289811 0.362685
0.641530 0.315286 0.378944
0.669747 0.340762 0.395203
0.697964 0.366237 0.411462
0.726181 0.391713 0.427721
0.750735 0.416023 0.439395
0.756973 0.434503 0.428146
0.763212 0.452984 0.416897
0.769451 0.471464 0.405648
0.775690 0.489944 0.394399
0.781929 0.508425 0.383150
0.028627 0.035228 0.054055
0.035625 0.036527 0.056281
0.042623 0.037826 0.058507
0.049621 0.039125 0.060733
0.056619 0.040424 0.062959
0.063618 0.041723 0.065185
0.085185 0.047380 0.072915
0.109667 0.053909 0.081746
0.134148 0.060437 0.090577
0.158630 0.066966 0.099408
0.183111 0.073494 0.108238
0.217686 0.086080 0.124153
0.257308 0.101694 0.143609
0.296929 0.117308 0.163065
0.336550 0.132922 0.182522
0.376172 0.148536 0.201978
0.416763 0.168785 0.224626
0.458324 0.193669 0.250466
0.499885 0.218553 0.276306
0.541445 0.243437 0.302146
0.583006 0.268321 0.327986
0.619790 0.293308 0.350464
0.647019 0.318500 0.366220
0.674248 0.343692 0.381976
0.701477 0.368884 0.397732
0.728705 0.394076 0.413488
0.752358 0.418301 0.425156
0.758131 0.437687 0.416386
0.763903 0.457073 0.407616
0.769675 0.476459 0.398847
0.775448 0.495845 0.390077
0.781220 0.515231 0.381307
0.029903 0.039198 0.057316
0.037944 0.040945 0.059689
0.045985 0.042693 0.062061
0.054026 0.044440 0.064433
0.062067 0.046187 0.066806
0.070108 0.047934 0.069178
0.092833 0.054223 0.076650
0.118495 0.061419 0.085143
0.144156 0.068615 0.093635
0.169818 0.075812 0.102128
0.195479 0.083008 0.110620
0.230362 0.095670 0.125623
0.269856 0.111065 0.143880
0.309349 0.126459 0.162138
0.348842 0.141854 0.180396
0.388336 0.157248 0.198654
0.428350 0.176903 0.219916
0.468887 0.200817 0.244183
0.509423 0.224731 0.268449
0.549959 0.248646 0.292716
0.590495 0.272560 0.316982
0.626266 0.296806 0.338244
0.652507 0.321714 0.353497
0.678748 0.346623 0.368750
0.704989 0.371531 0.384002
0.731230 0.396439 0.399255
0.753982 0.420578 0.410917
0.759288 0.440870 0.404627
0.764594 0.461162 0.398336
0.769900 0.481454 0.392045
0.775205 0.501745 0.385754
0.780511 0.522037 0.379464
0.031179 0.043168 0.060577
0.040263 0.045364 0.063096
0.049347 0.047559 0.065615
0.058431 0.049755 0.068134
0.067515 0.051950 0.070652
0.076599 0.054146 0.073171
0.100481 0.061065 0.080386
0.127322 0.068930 0.088540
0.154164 0.076794 0.096694
0.181006 0.084658 0.104848
0.207847 0.092522 0.113001
0.243038 0.105260 0.127092
0.282403 0.120435 0.144152
0.321769 0.135610 0.161211
0.361134 0.150785 0.178271
0.400499 0.165960 0.195330
0.439938 0.185020 0.215206
0.479449 0.207965 0.237900
0.518961 0.230909 0.260593
0.558473 0.253854 0.283286
0.597984 0.276799 0.305979
0.632743 0.300303 0.326024
0.657996 0.324928 0.340774
0.683249 0.349553 0.355523
0.708502 0.374178 0.370273
0.733755 0.398803 0.385022
0.755606 0.422856 0.396679
0.760445 0.444054 0.392867
0.765284 0.465251 0.389055
0.770124 0.486448 0.385244
0.774963 0.507646 0.381432
0.779802 0.528843 0.377620
0.032455 0.047139 0.063839
0.042582 0.049782 0.066504
0.052709 0.052426 0.069169
0.062835 0.055070 0.071834
0.072962 0.057714 0.074499
0.083089 0.060357 0.077164
0.108128 0.067908 0.084121
0.136150 0.076440 0.091937
0.164172 0.084972 0.099752
0.192194 0.093504 0.107568
0.220216 0.102036 0.115383
0.255714 0.114850 0.128562
0.294951 0.129806 0.144423
0.334189 0.144761 0.160284
0.373426 0.159717 0.176145
0.412663 0.174672 0.192006
0.451525 0.193137 0.210497
0.490012 0.215112 0.231616
0.528499 0.237087 0.252736
0.566986 0.259062 0.273856
0.605474 0.281037 0.294975
0.639220 0.303801 0.313804
0.663485 0.328142 0.328050
0.687750 0.352483 0.342297
0.712015 0.376825 0.356543
0.736280 0.401166 0.370790
0.757230 0.425134 0.382440
0.761602 0.447237 0.381107
0.765975 0.469340 0.379775
0.770348 0.491443 0.378442
0.774721 0.513546 0.377109
0.779093 0.535649 0.375777
0.033731 0.051109 0.067100
0.044901 0.054201 0.069911
0.056071 0.057293 0.072723
0.067240 0.060385 0.075534
0.078410 0.063477 0.078346
0.089580 0.066569 0.081157
0.115776 0.074751 0.087857
0.144978 0.083951 0.095334
0.174180 0.093150 0.102811
0.203382 0.102350 0.110288
0.232584 0.111550 0.117764
0.268390 0.124440 0.130032
0.307499 0.139176 0.144695
0.346609 0.153912 0.159357
0.385718 0.168648 0.174020
0.424827 0.183384 0.188683
0.463113 0.201255 0.205787
0.500575 0.222260 0.225333
0.538038 0.243265 0.244879
0.575500 0.264270 0.264426
0.612963 0.285276 0.283972
0.645697 0.307298 0.301584
0.668974 0.331356 0.315327
0.692251 0.355414 0.329070
0.715528 0.379471 0.342814
0.738805 0.403529 0.356557
0.758853 0.427412 0.368201
0.762760 0.450421 0.369347
0.766666 0.473429 0.370494
0.770572 0.496438 0.371640
0.774478 0.519447 0.372787
0.778384 0.542455 0.373934
0.035756 0.062169 0.077530
0.046718 0.065351 0.080251
0.057680 0.068533 0.082973
0.068643 0.071715 0.085694
0.079605 0.074897 0.088416
0.090567 0.078079 0.091137
0.118119 0.087143 0.097660
0.148989 0.097384 0.104944
0.179859 0.107625 0.112227
0.210729 0.117867 0.119510
0.241599 0.128108 0.126794
0.277901 0.141519 0.138355
0.316921 0.156516 0.152056
0.355940 0.171512 0.165756
0.394959 0.186509 0.179457
0.433978 0.201506 0.193158
0.471821 0.219071 0.209017
0.508488 0.239206 0.227036
0.545154 0.259341 0.245054
0.581821 0.279475 0.263073
0.618488 0.299610 0.281091
0.650507 0.320777 0.297499
0.673230 0.344010 0.310686
0.695954 0.367243 0.323873
0.718677 0.390476 0.337059
0.741401 0.413709 0.350246
0.761007 0.436873 0.361704
0.765026 0.459698 0.364513
0.769045 0.482522 0.367323
0.773064 0.505346 0.370133
0.777083 0.528170 0.372943
0.781102 0.550995 0.375753
0.037930 0.074647 0.089393
0.048435 0.077847 0.091977
0.058940 0.081047 0.094562
0.069445 0.084247 0.097146
0.079950 0.087448 0.099730
0.090454 0.090648 0.102315
0.119401 0.100646 0.108677
0.152037 0.112003 0.115796
0.184672 0.123360 0.122915
0.217308 0.134717 0.130033
0.249943 0.146074 0.137152
0.286780 0.160096 0.148049
0.325716 0.175449 0.160835
0.364653 0.190802 0.173621
0.403590 0.206156 0.186406
0.442527 0.221509 0.199192
0.479954 0.238828 0.213835
0.515870 0.258112 0.230335
0.551787 0.277396 0.246835
0.587703 0.296680 0.263335
0.623620 0.315964 0.279835
0.654983 0.336253 0.295041
0.677240 0.358553 0.307661
0.699497 0.380852 0.320280
0.721754 0.403152 0.332900
0.744011 0.425452 0.345520
0.763267 0.447772 0.356754
0.767514 0.470193 0.361065
0.771762 0.492615 0.365375
0.776010 0.515037 0.369685
0.780257 0.537459 0.373995
0.784505 0.559880 0.378306
0.040104 0.087124 0.101256
0.050152 0.090343 0.103704
0.060199 0.093561 0.106151
0.070247 0.096780 0.108598
0.080294 0.099999 0.111045
0.090342 0.103217 0.113492
0.120684 0.114148 0.119695
0.155085 0.126621 0.126649
0.189486 0.139095 0.133603
0.223887 0.151568 0.140557
0.258288 0.164041 0.147511
0.295658 0.178672 0.157743
0.334512 0.194382 0.169614
0.373367 0.210093 0.181485
0.412221 0.225803 0.193356
0.451076 0.241513 0.205227
0.488086 0.258584 0.218653
0.523253 0.277018 0.233634
0.558419 0.295451 0.248616
0.593585 0.313884 0.263597
0.628752 0.332317 0.278578
0.659459 0.351728 0.292583
0.681250 0.373095 0.304636
0.703040 0.394461 0.316688
0.724831 0.415828 0.328741
0.746621 0.437195 0.340793
0.765526 0.458670 0.351805
0.770003 0.480689 0.357616
0.774479 0.502708 0.363426
0.778955 0.524728 0.369237
0.783432 0.546747 0.375047
0.787908 0.568766 0.380858
0.042278 0.099602 0.113120
0.051868 0.102839 0.115430
0.061458 0.106076 0.117740
0.071049 0.109313 0.120049
0.080639 0.112550 0.122359
0.090229 0.115786 0.124669
0.121966 0.127650 0.130712
0.158132 0.141240 0.137501
0.194299 0.154829 0.144291
0.230466 0.168418 0.151080
0.266632 0.182008 0.157869
0.304536 0.197249 0.167436
0.343308 0.213316 0.178393
0.382080 0.229383 0.189349
0.420852 0.245449 0.200305
0.459625 0.261516 0.211261
0.496219 0.278341 0.223471
0.530635 0.295923 0.236934
0.565051 0.313506 0.250396
0.599467 0.331088 0.263859
0.633884 0.348671 0.277322
0.663936 0.367203 0.290126
0.685260 0.387637 0.301611
0.706584 0.408071 0.313096
0.727908 0.428504 0.324582
0.749232 0.448938 0.336067
0.767786 0.469568 0.346856
0.772491 0.491185 0.354167
0.777196 0.512802 0.361478
0.781901 0.534418 0.368789
0.786606 0.556035 0.376099
0.791311 0.577652 0.383410
0.044452 0.112080 0.124983
0.053585 0.115335 0.127156
0.062718 0.118590 0.129329
0.071851 0.121846 0.131501
0.080983 0.125101 0.133674
0.090116 0.128356 0.135846
0.123248 0.141153 0.141729
0.161180 0.155858 0.148354
0.199112 0.170564 0.154978
0.237044 0.185269 0.161603
0.274977 0.199974 0.168228
0.313414 0.215825 0.177130
0.352104 0.232249 0.187172
0.390794 0.248673 0.197213
0.429483 0.265096 0.207255
0.468173 0.281520 0.217296
0.504351 0.298098 0.228289
0.538017 0.314829 0.240233
0.571683 0.331561 0.252177
0.605350 0.348293 0.264121
0.639016 0.365024 0.276066
0.668412 0.382679 0.287668
0.689270 0.402179 0.298586
0.710127 0.421680 0.309504
0.730984 0.441180 0.320422
0.751842 0.460681 0.331340
0.770045 0.480467 0.341907
0.774979 0.501681 0.350718
0.779913 0.522895 0.359529
0.784847 0.544109 0.368340
0.789780 0.565323 0.377151
0.794714 0.586537 0.385962
0.051195 0.136721 0.148253
0.059846 0.140018 0.150459
0.068497 0.143316 0.152666
0.077148 0.146614 0.154872
0.085799 0.149912 0.157078
0.094450 0.153210 0.159284
0.127067 0.165557 0.164131
0.164478 0.179713 0.169505
0.201889 0.193870 0.174879
0.239299 0.208026 0.180254
0.276710 0.222183 0.185628
0.315720 0.238068 0.193622
0.355529 0.254818 0.202926
0.395338 0.271568 0.212229
0.435147 0.288318 0.221533
0.474955 0.305068 0.230836
0.511327 0.321563 0.240960
0.544261 0.337804 0.251904
0.577196 0.354045 0.262848
0.610130 0.370285 0.273792
0.643064 0.386526 0.284736
0.671892 0.403548 0.295450
0.692509 0.422134 0.305703
0.713125 0.440720 0.315956
0.733742 0.459305 0.326210
0.754358 0.477891 0.336463
0.772424 0.496733 0.346550
0.777733 0.516855 0.355807
0.783041 0.536978 0.365063
0.788350 0.557100 0.374319
0.793659 0.577223 0.383575
0.798968 0.597345 0.392832
0.060223 0.167443 0.177226
0.068380 0.170795 0.179551
0.076537 0.174148 0.181877
0.084694 0.177501 0.184202
0.092851 0.180854 0.186527
0.101008 0.184206 0.188852
0.132155 0.195411 0.192224
0.167901 0.208186 0.195805
0.203647 0.220961 0.199387
0.239392 0.233736 0.202968
0.275138 0.246512 0.206550
0.314739 0.262144 0.213513
0.356268 0.279205 0.222167
0.397797 0.296266 0.230821
0.439326 0.313327 0.239475
0.480854 0.330388 0.248129
0.517725 0.346883 0.257557
0.549936 0.362813 0.267760
0.582148 0.378743 0.277963
0.614359 0.394672 0.288166
0.646571 0.410602 0.298369
0.674875 0.427115 0.308351
0.695363 0.444795 0.317891
0.715852 0.462475 0.327431
0.736340 0.480155 0.336971
0.756828 0.497835 0.346511
0.774862 0.515683 0.355990
0.780619 0.534369 0.365163
0.786376 0.553055 0.374337
0.792133 0.571742 0.383511
0.797890 0.590428 0.392685
0.803647 0.609114 0.401859
0.069250 0.198165 0.206200
0.076913 0.201572 0.208644
0.084576 0.204980 0.211088
0.092239 0.208387 0.213532
0.099902 0.211795 0.215976
0.107565 0.215203 0.218420
0.137243 0.225265 0.220317
0.171324 0.236659 0.222106
0.205405 0.248053 0.223894
0.239485 0.259447 0.225683
0.273566 0.270841 0.227471
0.313759 0.286220 0.233404
0.357008 0.303592 0.241408
0.400256 0.320964 0.249413
0.443505 0.338336 0.257417
0.486753 0.355708 0.265422
0.524122 0.372203 0.274155
0.555611 0.387822 0.283617
0.587100 0.403441 0.293079
0.618589 0.419059 0.302541
0.650078 0.434678 0.312003
0.677857 0.450682 0.321253
0.698217 0.467456 0.330079
0.718578 0.484231 0.338906
0.738938 0.501005 0.347732
0.759298 0.517779 0.356558
0.777300 0.534633 0.365429
0.783505 0.551883 0.374520
0.789710 0.569133 0.383612
0.795916 0.586383 0.392703
0.802121 0.603633 0.401795
0.808326 0.620883 0.410887
0.078278 0.228887 0.235173
0.085447 0.232349 0.237736
0.092616 0.235812 0.240299
0.099785 0.239274 0.242862
0.106954 0.242737 0.245425
0.114123 0.246199 0.247988
0.142331 0.255120 0.248411
0.174747 0.265132 0.248406
0.207163 0.275145 0.248402
0.239578 0.285157 0.248397
0.271994 0.295170 0.248393
0.312779 0.310296 0.253294
0.357747 0.327979 0.260649
0.402715 0.345662 0.268004
0.447684 0.363345 0.275359
0.492652 0.381028 0.282714
0.530520 0.397523 0.290752
0.561286 0.412831 0.299473
0.592052 0.428139 0.308194
0.622818 0.443446 0.316916
0.653584 0.458754 0.325637
0.680839 0.474249 0.334155
0.701071 0.490117 0.342268
0.721304 0.505986 0.350380
0.741536 0.521855 0.358493
0.761768 0.537723 0.366606
0.779737 0.553583 0.374868
0.786391 0.569397 0.383877
0.793045 0.585211 0.392886
0.799698 0.601024 0.401896
0.806352 0.616838 0.410905
0.813006 0.632652 0.419914
0.087306 0.259608 0.264146
0.093981 0.263126 0.266828
0.100655 0.266643 0.269510
0.107330 0.270161 0.272192
0.114005 0.273678 0.274873
0.120680 0.277195 0.277555
0.147419 0.284974 0.276504
0.178170 0.293605 0.274707
0.208921 0.302237 0.272909
0.239671 0.310868 0.271112
0.270422 0.319499 0.269314
0.311798 0.334372 0.273185
0.358486 0.352366 0.279891
0.405175 0.370360 0.286596
0.451863 0.388354 0.293302
0.498551 0.406348 0.300007
0.536917 0.422844 0.307350
0.566961 0.437840 0.315330
0.597004 0.452837 0.323310
0.627048 0.467833 0.331290
0.657091 0.482830 0.339270
0.683821 0.497815 0.347057
0.703926 0.512778 0.354456
0.724030 0.527741 0.361855
0.744134 0.542704 0.369254
0.764238 0.557667 0.376653
0.782175 0.572533 0.384307
0.789277 0.586911 0.393234
0.796379 0.601288 0.402161
0.803481 0.615666 0.411088
0.810583 0.630043 0.420015
0.817685 0.644421 0.428942
0.103612 0.296995 0.298507
0.110063 0.300412 0.301075
0.116514 0.303828 0.303642
0.122964 0.307245 0.306210
0.129415 0.310662 0.308777
0.135866 0.314079 0.311345
0.161134 0.320865 0.309234
0.190165 0.328325 0.306188
0.219196 0.335785 0.303142
0.248227 0.343245 0.300095
0.277258 0.350706 0.297049
0.318067 0.364676 0.299608
0.364764 0.381902 0.304968
0.411462 0.399127 0.310329
0.458159 0.416353 0.315690
0.504856 0.433579 0.321050
0.543069 0.449473 0.327419
0.572797 0.464035 0.334795
0.602525 0.478597 0.342172
0.632253 0.493159 0.349548
0.661981 0.507721 0.356924
0.688368 0.522137 0.364197
0.708074 0.536263 0.371262
0.727781 0.550389 0.378327
0.747487 0.564515 0.385393
0.767193 0.578641 0.392458
0.784868 0.592586 0.399766
0.792386 0.605623 0.408286
0.799904 0.618661 0.416805
0.807422 0.631698 0.425325
0.814940 0.644736 0.433845
0.822459 0.657773 0.442365
0.127197 0.341045 0.338257
0.133693 0.344206 0.340477
0.140190 0.347367 0.342697
0.146687 0.350527 0.344916
0.153183 0.353688 0.347136
0.159680 0.356848 0.349356
0.183476 0.362792 0.346601
0.210733 0.369291 0.342850
0.237989 0.375791 0.339099
0.265245 0.382291 0.335349
0.292502 0.388790 0.331598
0.331585 0.401209 0.332562
0.376580 0.416586 0.335882
0.421576 0.431964 0.339203
0.466572 0.447342 0.342524
0.511568 0.462720 0.345844
0.548976 0.477410 0.350960
0.578795 0.491414 0.357869
0.608614 0.505419 0.364779
0.638434 0.519423 0.371689
0.668253 0.533427 0.378599
0.694479 0.547215 0.385576
0.713517 0.560573 0.392687
0.732556 0.573930 0.399798
0.751594 0.587288 0.406909
0.770633 0.600645 0.414020
0.787815 0.613742 0.421244
0.795717 0.625536 0.429032
0.803620 0.637329 0.436820
0.811522 0.649122 0.444608
0.819424 0.660915 0.452396
0.827327 0.672709 0.460184
0.150782 0.385096 0.378006
0.157324 0.388000 0.379879
0.163866 0.390905 0.381751
0.170409 0.393809 0.383623
0.176951 0.396714 0.385495
0.183493 0.399618 0.387368
0.205819 0.404718 0.383967
0.231300 0.410257 0.379512
0.256782 0.415797 0.375057
0.282264 0.421336 0.370602
0.307745 0.426875 0.366147
0.345102 0.437741 0.365516
0.388397 0.451271 0.366796
0.431691 0.464801 0.368077
0.474985 0.478331 0.369358
0.518280 0.491860 0.370639
0.554882 0.505348 0.374501
0.584793 0.518794 0.380944
0.614704 0.532240 0.387387
0.644615 0.545686 0.393830
0.674526 0.559132 0.400273
0.700590 0.572293 0.406954
0.718960 0.584882 0.414111
0.737331 0.597471 0.421268
0.755702 0.610060 0.428425
0.774072 0.622649 0.435582
0.790762 0.634899 0.442722
0.799049 0.645448 0.449778
0.807335 0.655997 0.456834
0.815622 0.666546 0.463890
0.823908 0.677095 0.470946
0.832195 0.687644 0.478002
0.174367 0.429146 0.417756
0.180955 0.431795 0.419280
0.187543 0.434443 0.420805
0.194131 0.437092 0.422330
0.200719 0.439740 0.423854
0.207307 0.442388 0.425379
0.228161 0.446645 0.421334
0.251868 0.451224 0.416174
0.275575 0.455802 0.411015
0.299282 0.460381 0.405855
0.322989 0.464959 0.400696
0.358620 0.474273 0.398470
0.400213 0.485955 0.397710
0.441806 0.497637 0.396951
0.483398 0.509319 0.396192
0.524991 0.521001 0.395433
0.560789 0.533286 0.398041
0.590791 0.546174 0.404018
0.620793 0.559062 0.409995
0.650796 0.571950 0.415971
0.680798 0.584838 0.421948
0.706701 0.597370 0.428333
0.724403 0.609191 0.435536
0.742106 0.621012 0.442738
0.759809 0.632833 0.449941
0.777512 0.644653 0.457143
0.793709 0.656055 0.464200
0.802380 0.665360 0.470524
0.811051 0.674665 0.476848
0.819722 0.683970 0.483172
0.828393 0.693275 0.489497
0.837063 0.702580 0.495821
0.197952 0.473197 0.457505
0.204586 0.475589 0.458682
0.211219 0.477981 0.459859
0.217853 0.480374 0.461036
0.224487 0.482766 0.462213
0.231121 0.485158 0.463390
0.250503 0.488572 0.458700
0.272436 0.492190 0.452836
0.294368 0.495808 0.446972
0.316300 0.499426 0.441108
0.338233 0.503044 0.435245
0.372138 0.510806 0.431424
0.412029 0.520640 0.428625
0.451920 0.530474 0.425825
0.491811 0.540308 0.423026
0.531703 0.550142 0.420227
0.566695 0.561224 0.421582
0.596789 0.573554 0.427092
0.626883 0.585884 0.432602
0.656977 0.598214 0.438113
0.687070 0.610544 0.443623
0.712811 0.622448 0.449712
0.729846 0.633500 0.456960
0.746881 0.644553 0.464209
0.763917 0.655605 0.471457
0.780952 0.666657 0.478705
0.796657 0.677211 0.485677
0.805712 0.685272 0.491270
0.814767 0.693333 0.496862
0.823822 0.701394 0.502455
0.832877 0.709455 0.508047
0.841932 0.717515 0.513640
0.228595 0.515452 0.493978
0.235390 0.517575 0.494661
0.242186 0.519699 0.495344
0.248981 0.521823 0.496027
0.255777 0.523947 0.496710
0.262572 0.526071 0.497393
0.280795 0.528794 0.492204
0.301303 0.531638 0.485840
0.321811 0.534481 0.479476
0.342320 0.537325 0.473112
0.362828 0.540168 0.466748
0.394725 0.546599 0.461819
0.432318 0.554823 0.457608
0.469910 0.563047 0.453397
0.507502 0.571271 0.449186
0.545094 0.579495 0.444975
0.578586 0.589366 0.445360
0.607979 0.600885 0.450343
0.637371 0.612404 0.455325
0.666763 0.623923 0.460308
0.696156 0.635442 0.465291
0.721130 0.646512 0.471023
0.737269 0.656686 0.478256
0.753408 0.666861 0.485489
0.769546 0.677035 0.492722
0.785685 0.687209 0.499955
0.800657 0.696860 0.506839
0.809801 0.703896 0.511974
0.818944 0.710932 0.517109
0.828088 0.717969 0.522244
0.837231 0.725005 0.527379
0.846374 0.732041 0.532514
0.273355 0.554114 0.523896
0.280543 0.555945 0.523792
0.287732 0.557776 0.523689
0.294921 0.559607 0.523585
0.302110 0.561438 0.523481
0.309299 0.563270 0.523378
0.326985 0.565609 0.517981
0.346770 0.568050 0.511526
0.366556 0.570491 0.505070
0.386341 0.572932 0.498615
0.406127 0.575373 0.492159
0.435454 0.580913 0.487096
0.469551 0.588003 0.482730
0.503649 0.595092 0.478363
0.537746 0.602182 0.473996
0.571844 0.609272 0.469630
0.602446 0.617917 0.469613
0.629551 0.628119 0.473946
0.656656 0.638320 0.478279
0.683762 0.648522 0.482612
0.710867 0.658723 0.486945
0.733866 0.668550 0.492199
0.748651 0.677626 0.499295
0.763435 0.686703 0.506391
0.778220 0.695779 0.513487
0.793005 0.704855 0.520583
0.806765 0.713494 0.527367
0.815405 0.719945 0.532593
0.824046 0.726396 0.537820
0.832686 0.732846 0.543046
0.841326 0.739297 0.548273
0.849967 0.745748 0.553500
0.318114 0.592776 0.553815
0.325696 0.594315 0.552924
0.333278 0.595853 0.552034
0.340861 0.597392 0.551143
0.348443 0.598930 0.550253
0.356025 0.600468 0.549363
0.373174 0.602423 0.543758
0.392237 0.604462 0.537212
0.411300 0.606500 0.530665
0.430363 0.608539 0.524118
0.449426 0.610577 0.517571
0.476182 0.615227 0.512374
0.506785 0.621182 0.507852
0.537388 0.627138 0.503329
0.567991 0.633093 0.498807
0.598594 0.639048 0.494285
0.626305 0.646468 0.493866
0.651123 0.655352 0.497549
0.675942 0.664237 0.501233
0.700760 0.673121 0.504917
0.725579 0.682005 0.508600
0.746601 0.690587 0.513375
0.760032 0.698566 0.520334
0.773463 0.706544 0.527293
0.786894 0.714523 0.534251
0.800324 0.722502 0.541210
0.812873 0.730128 0.547895
0.821010 0.735993 0.553213
0.829147 0.741859 0.558531
0.837284 0.747724 0.563849
0.845421 0.753590 0.569167
0.853559 0.759455 0.574485
0.362874 0.631439 0.583733
0.370849 0.632684 0.582056
0.378825 0.633930 0.580379
0.386800 0.635176 0.578702
0.394776 0.636421 0.577025
0.402751 0.637667 0.575347
0.419364 0.639238 0.569536
0.437704 0.640874 0.562898
0.456044 0.642510 0.556259
0.474385 0.644146 0.549621
0.492725 0.645782 0.542982
0.516910 0.649541 0.537651
0.544019 0.654362 0.532974
0.571127 0.659183 0.528296
0.598236 0.664004 0.523618
0.625344 0.668825 0.518941
0.650164 0.675019 0.518119
0.672696 0.682586 0.521153
0.695227 0.690153 0.524187
0.717759 0.697720 0.527221
0.740290 0.705287 0.530255
0.759337 0.712625 0.534552
0.771414 0.719506 0.541373
0.783491 0.726386 0.548194
0.795568 0.733267 0.555016
0.807644 0.740148 0.561837
0.818981 0.746762 0.568423
0.826615 0.752042 0.573832
0.834249 0.757322 0.579242
0.841883 0.762602 0.584651
0.849517 0.767882 0.590061
0.857151 0.773162 0.595470
0.407633 0.670101 0.613652
0.416002 0.671054 0.611188
0.424371 0.672007 0.608724
0.432740 0.672960 0.606260
0.441109 0.673913 0.603796
0.449478 0.674866 0.601332
0.465554 0.676052 0.595313
0.483171 0.677286 0.588584
0.500789 0.678519 0.581854
0.518406 0.679753 0.575124
0.536024 0.680986 0.568394
0.557639 0.683855 0.562929
0.581253 0.687542 0.558095
0.604867 0.691228 0.553262
0.628481 0.694915 0.548429
0.652095 0.698602 0.543596
0.674024 0.703570 0.542372
0.694268 0.709819 0.544756
0.714513 0.716069 0.547141
0.734757 0.722319 0.549525
0.755002 0.728568 0.551910
0.772072 0.734662 0.555728
0.782795 0.740445 0.562412
0.793518 0.746228 0.569096
0.804241 0.752011 0.575780
0.814964 0.757795 0.582464
0.825089 0.763396 0.588951
0.832219 0.768091 0.594452
0.839350 0.772785 0.599953
0.846481 0.777479 0.605454
0.853612 0.782174 0.610955
0.860743 0.786868 0.616456
0.455552 0.706022 0.639553
0.464177 0.706711 0.636447
0.472802 0.707401 0.633341
0.481427 0.708090 0.630235
0.490052 0.708779 0.627130
0.498677 0.709468 0.624024
0.513935 0.710320 0.618031
0.530521 0.711204 0.611462
0.547106 0.712088 0.604892
0.563691 0.712973 0.598322
0.580276 0.713857 0.591752
0.599211 0.715939 0.586433
0.619320 0.718619 0.581738
0.639428 0.721299 0.577044
0.659537 0.723980 0.572349
0.679646 0.726660 0.567655
0.698613 0.730520 0.566283
0.716438 0.735559 0.568233
0.734262 0.740598 0.570183
0.752087 0.745637 0.572133
0.769912 0.750676 0.574083
0.784913 0.755625 0.577565
0.794267 0.760394 0.584110
0.803621 0.765163 0.590656
0.812975 0.769932 0.597201
0.822328 0.774702 0.603746
0.831216 0.779361 0.610125
0.837774 0.783471 0.615667
0.844331 0.787582 0.621209
0.850889 0.791692 0.626751
0.857447 0.795803 0.632293
0.864004 0.799913 0.637835
0.519264 0.728237 0.645366
0.527459 0.728807 0.642343
0.535654 0.729377 0.639319
0.543849 0.729947 0.636296
0.552045 0.730518 0.633272
0.560240 0.731088 0.630249
0.573277 0.731851 0.625452
0.587282 0.732653 0.620300
0.601288 0.733455 0.615148
0.615293 0.734257 0.609996
0.629299 0.735059 0.604845
0.645001 0.736869 0.601071
0.661551 0.739184 0.597987
0.678101 0.741498 0.594902
0.694652 0.743813 0.591818
0.711202 0.746127 0.588734
0.726848 0.749465 0.588487
0.741590 0.753827 0.591077
0.756332 0.758189 0.593667
0.771074 0.762551 0.596258
0.785816 0.766914 0.598848
0.798280 0.771213 0.602708
