src-tauri/resources/luts/江南风质感.cube
# Converted from .3dl (size 17x17x17) using Python
LUT_3D_SIZE 17
DOMAIN_MIN 0.0 0.0 0.0
DOMAIN_MAX 1.0 1.0 1.0
0.050794 0.050794 0.062515
0.056410 0.055922 0.065934
0.062271 0.061294 0.069109
0.072772 0.068132 0.071062
0.093284 0.078144 0.070574
0.113553 0.087912 0.070085
0.154090 0.104274 0.065690
0.204640 0.124054 0.059585
0.255189 0.143590 0.053480
0.326984 0.172405 0.046886
0.398779 0.201465 0.040293
0.468864 0.231502 0.035653
0.536020 0.263980 0.034921
0.602930 0.296459 0.033944
0.652747 0.323321 0.035165
0.694017 0.347253 0.037118
0.735043 0.371429 0.039072
0.048107 0.059585 0.070574
0.062515 0.066911 0.070085
0.076923 0.074237 0.069841
0.096459 0.083516 0.068864
0.126007 0.096215 0.066422
0.155800 0.108913 0.064225
0.203175 0.126740 0.059585
0.259341 0.147253 0.053480
0.315507 0.167766 0.047619
0.387057 0.196337 0.042979
0.458608 0.225153 0.038584
0.527717 0.256166 0.035897
0.591941 0.291331 0.037118
0.656410 0.326740 0.038339
0.705250 0.359951 0.042247
0.746520 0.392430 0.047375
0.787546 0.424664 0.052747
0.045421 0.068132 0.078388
0.068620 0.077900 0.074481
0.091575 0.087424 0.070574
0.119902 0.098901 0.066422
0.158974 0.114286 0.062515
0.198046 0.129670 0.058364
0.252259 0.149206 0.053236
0.314042 0.170452 0.047375
0.375824 0.191697 0.041758
0.447131 0.220269 0.039316
0.518193 0.248840 0.036630
0.586325 0.280830 0.036142
0.648107 0.318926 0.039316
0.709646 0.357021 0.042491
0.757753 0.396825 0.049328
0.799023 0.437363 0.057875
0.840293 0.477900 0.066422
0.043712 0.076435 0.086691
0.073504 0.087912 0.080098
0.103541 0.099634 0.073260
0.139683 0.113797 0.066667
0.187790 0.133333 0.060317
0.236142 0.152869 0.053968
0.296215 0.174359 0.048352
0.362393 0.196825 0.042979
0.428571 0.219536 0.037607
0.499145 0.247863 0.036630
0.569719 0.276435 0.035897
0.636630 0.308669 0.037118
0.695971 0.347985 0.042247
0.755311 0.387546 0.047375
0.802198 0.431258 0.056654
0.842979 0.477167 0.068132
0.883516 0.523321 0.079609
0.043223 0.084005 0.095238
0.076679 0.096703 0.087912
0.110134 0.109646 0.080586
0.151404 0.126984 0.072283
0.208547 0.153602 0.062271
0.265934 0.179976 0.052503
0.330159 0.205128 0.045910
0.397802 0.230037 0.041270
0.465690 0.254701 0.036630
0.535287 0.283028 0.036874
0.605128 0.311355 0.037118
0.670818 0.342857 0.039560
0.728205 0.380708 0.046642
0.785592 0.418803 0.053480
0.830525 0.461538 0.064469
0.869597 0.506960 0.077900
0.908425 0.552381 0.091087
0.042979 0.091331 0.104029
0.079853 0.105495 0.095971
0.116728 0.119658 0.087668
0.163126 0.140415 0.077656
0.229548 0.173626 0.064225
0.295727 0.207082 0.050794
0.364103 0.236142 0.043712
0.433211 0.263004 0.039805
0.502564 0.289866 0.035897
0.571429 0.318193 0.037118
0.640537 0.346276 0.038584
0.704762 0.377289 0.042247
0.760195 0.413675 0.050794
0.815629 0.450061 0.059341
0.858852 0.491819 0.072527
0.896215 0.536508 0.087668
0.933333 0.581197 0.102808
0.043223 0.100122 0.112576
0.084005 0.115507 0.104029
0.124786 0.131136 0.095482
0.177045 0.153846 0.084493
0.252503 0.190965 0.068864
0.327961 0.228083 0.052991
0.398535 0.260806 0.045177
0.466667 0.291331 0.041514
0.534799 0.321856 0.037607
0.602442 0.351404 0.040537
0.670330 0.381197 0.043468
0.733333 0.412454 0.048840
0.786569 0.447375 0.059341
0.839805 0.482295 0.069841
0.880586 0.521612 0.084493
0.915018 0.563126 0.101343
0.949451 0.604884 0.118437
0.043956 0.109402 0.121123
0.088889 0.126252 0.112332
0.133822 0.143101 0.103785
0.191941 0.167521 0.092063
0.276679 0.206838 0.074481
0.361416 0.245910 0.056899
0.433455 0.282295 0.048352
0.498901 0.317216 0.044689
0.564347 0.352137 0.040781
0.631013 0.384127 0.045421
0.697680 0.415873 0.050305
0.758974 0.448107 0.057631
0.809768 0.481563 0.069841
0.860806 0.515018 0.082295
0.898657 0.550916 0.098657
0.930159 0.588278 0.117216
0.961416 0.625641 0.135775
0.044444 0.118681 0.129670
0.093529 0.136996 0.120879
0.142857 0.155067 0.111844
0.206838 0.180952 0.099634
0.300855 0.222466 0.080098
0.395116 0.263980 0.060806
0.468376 0.304029 0.051770
0.531136 0.343346 0.047619
0.593895 0.382662 0.043712
0.659341 0.416606 0.050305
0.724786 0.450305 0.057143
0.784615 0.483761 0.066178
0.833211 0.515751 0.080342
0.881807 0.547741 0.094750
0.916728 0.580464 0.112821
0.945055 0.613431 0.133089
0.973382 0.646398 0.153358
0.045421 0.131380 0.140415
0.100611 0.151648 0.131136
0.155800 0.171673 0.122100
0.226862 0.199267 0.109158
0.329670 0.241026 0.088400
0.432479 0.282784 0.067888
0.512088 0.325031 0.059096
0.580220 0.367766 0.056410
0.648352 0.410256 0.053724
0.702320 0.442979 0.061538
0.756532 0.475702 0.069597
0.807814 0.508669 0.080586
0.853236 0.542125 0.098168
0.898657 0.575580 0.115507
0.929915 0.606593 0.136752
0.954090 0.636386 0.160195
0.978510 0.666178 0.183394
0.046398 0.144078 0.150916
0.107448 0.166300 0.141636
0.168742 0.188523 0.132112
0.246642 0.217338 0.118681
0.358486 0.259341 0.096703
0.470085 0.301587 0.074969
0.556288 0.346276 0.066667
0.629304 0.391941 0.065201
0.702808 0.437851 0.063736
0.745543 0.469353 0.073016
0.788278 0.501099 0.082051
0.830769 0.533578 0.095238
0.873016 0.568498 0.115751
0.915263 0.603419 0.136264
0.942857 0.632723 0.160684
0.963126 0.659341 0.187302
0.983394 0.686203 0.213675
0.047863 0.157509 0.161905
0.115507 0.181929 0.152381
0.183150 0.206349 0.143101
0.268132 0.237118 0.128938
0.388523 0.280830 0.105983
0.508669 0.324298 0.083028
0.600000 0.370940 0.075702
0.676923 0.419048 0.075946
0.753846 0.467155 0.076190
0.788523 0.498413 0.087424
0.823199 0.529670 0.098657
0.858364 0.561661 0.113797
0.894750 0.595116 0.136020
0.931136 0.628571 0.158242
0.954090 0.655922 0.185592
0.970696 0.680342 0.215629
0.987057 0.705006 0.245665
0.050794 0.171917 0.173871
0.125519 0.199512 0.164591
0.200488 0.226862 0.155067
0.293040 0.260806 0.140904
0.421245 0.307692 0.117216
0.549451 0.354579 0.093773
0.643712 0.402686 0.087668
0.720879 0.451282 0.090598
0.798291 0.500122 0.093284
0.831502 0.532601 0.108425
0.864469 0.565079 0.123565
0.894750 0.595604 0.140659
0.919658 0.622222 0.161661
0.944567 0.648596 0.182662
0.961661 0.673504 0.212698
0.974847 0.697436 0.246886
0.988034 0.721368 0.281319
0.053480 0.186325 0.185836
0.135775 0.216850 0.176557
0.217827 0.247375 0.167277
0.317949 0.284493 0.152869
0.453968 0.334554 0.128694
0.589988 0.384615 0.104274
0.687180 0.434188 0.099878
0.765079 0.483516 0.105250
0.842735 0.532845 0.110379
0.874237 0.566789 0.129426
0.905983 0.600488 0.148230
0.931380 0.629548 0.167521
0.944811 0.649084 0.187302
0.958242 0.668620 0.207082
0.969231 0.690843 0.239560
0.979243 0.714530 0.278144
0.989011 0.737973 0.316728
0.057387 0.195360 0.198046
0.147497 0.230037 0.189255
0.237607 0.264957 0.180464
0.345299 0.306716 0.166545
0.488156 0.362149 0.142369
0.631258 0.417582 0.118193
0.729182 0.470085 0.117216
0.804884 0.520879 0.127717
0.880586 0.571673 0.138217
0.907448 0.604640 0.163370
0.934066 0.637363 0.188523
0.954579 0.664225 0.211966
0.961905 0.679365 0.231990
0.969475 0.694506 0.251770
0.976313 0.711355 0.279121
0.982662 0.729426 0.310134
0.989255 0.747253 0.341392
0.062027 0.201221 0.210501
0.160195 0.241270 0.202442
0.258364 0.281319 0.194139
0.373626 0.328694 0.180952
0.523077 0.390476 0.157265
0.672527 0.452259 0.133822
0.770452 0.507937 0.137241
0.842735 0.560684 0.154090
0.915263 0.613675 0.170940
0.935531 0.644200 0.203907
0.955800 0.674969 0.236630
0.970696 0.699390 0.265446
0.975092 0.711355 0.285958
0.979243 0.723321 0.306471
0.982662 0.733578 0.325275
0.986081 0.743346 0.342613
0.989255 0.752869 0.360195
0.066422 0.207326 0.222955
0.172650 0.252503 0.215385
0.279121 0.297680 0.208059
0.401954 0.350427 0.195360
0.557998 0.418559 0.172161
0.713797 0.486691 0.149206
0.811722 0.545788 0.157265
0.880830 0.600733 0.180464
0.949695 0.655433 0.203907
0.963614 0.684005 0.244200
0.977534 0.712576 0.284737
0.987057 0.734554 0.318681
0.988034 0.743346 0.340171
0.989011 0.751893 0.361416
0.989255 0.755800 0.371184
0.989255 0.757021 0.375092
0.989255 0.758486 0.379243
0.047131 0.055922 0.075702
0.052259 0.061294 0.080586
0.057387 0.066422 0.085226
0.069109 0.073016 0.088156
0.094017 0.081807 0.087424
0.118926 0.090842 0.086691
0.164347 0.106227 0.081807
0.220269 0.124786 0.074725
0.276190 0.143590 0.067888
0.350916 0.173138 0.059829
0.425641 0.202930 0.051526
0.497924 0.234921 0.045421
0.565568 0.271795 0.043223
0.632967 0.308425 0.041026
0.684493 0.342125 0.042247
0.727961 0.374115 0.044933
0.771429 0.406105 0.047863
0.044689 0.064713 0.084737
0.057631 0.073260 0.088156
0.070574 0.081807 0.091331
0.090598 0.091331 0.093040
0.124542 0.102564 0.091087
0.158486 0.114042 0.089377
0.210501 0.130647 0.084493
0.271795 0.149695 0.078144
0.333089 0.168987 0.071551
0.406593 0.197558 0.065201
0.480342 0.226129 0.058852
0.550916 0.257631 0.054212
0.615385 0.295482 0.053236
0.679609 0.333089 0.052015
0.728938 0.371184 0.054212
0.770940 0.409035 0.057875
0.812943 0.447131 0.061538
0.042247 0.073504 0.094017
0.063004 0.085226 0.095726
0.083761 0.097192 0.097436
0.111844 0.109646 0.097680
0.154823 0.123321 0.094994
0.197802 0.137241 0.092308
0.256654 0.154823 0.087424
0.323321 0.174603 0.081319
0.389988 0.194383 0.075214
0.462515 0.221978 0.070818
0.535287 0.249328 0.066178
0.603907 0.280586 0.063248
0.665201 0.319170 0.063004
0.726252 0.357998 0.063004
0.773626 0.400244 0.066178
0.813919 0.444200 0.070818
0.854457 0.488156 0.075458
0.040293 0.082051 0.103053
0.067155 0.096703 0.103785
0.093773 0.111355 0.104274
0.128938 0.127228 0.103297
0.180952 0.145055 0.098657
0.232967 0.162882 0.094261
0.297436 0.182662 0.089133
0.368254 0.203663 0.083516
0.439072 0.224420 0.077656
0.510623 0.251038 0.074725
0.582418 0.277656 0.071795
0.649573 0.308181 0.070330
0.708181 0.346764 0.071551
0.766545 0.385348 0.072772
0.811966 0.430037 0.077167
0.851038 0.477656 0.083272
0.890110 0.525519 0.089377
0.039805 0.090110 0.112576
0.068620 0.106716 0.112576
0.097436 0.123565 0.112332
0.136996 0.143101 0.109646
0.198291 0.168498 0.102076
0.259341 0.193651 0.094505
0.327961 0.217582 0.088400
0.400244 0.240537 0.083028
0.472527 0.263248 0.077656
0.543346 0.289622 0.075946
0.614164 0.315751 0.073993
0.680342 0.345299 0.073993
0.737241 0.381929 0.077167
0.794383 0.418803 0.080098
0.838584 0.461783 0.086935
0.876435 0.508181 0.095482
0.914530 0.554579 0.104029
0.039560 0.098168 0.122100
0.070330 0.116972 0.121368
0.101099 0.135775 0.120391
0.145055 0.158974 0.116239
0.215385 0.191941 0.105495
0.285958 0.224664 0.094505
0.358486 0.252259 0.087424
0.432234 0.277167 0.082540
0.505983 0.302320 0.077656
0.575824 0.327961 0.076923
0.645910 0.353846 0.076435
0.711111 0.382662 0.077656
0.766545 0.417338 0.082540
0.821978 0.452015 0.087668
0.864957 0.493529 0.096459
0.901832 0.538706 0.107448
0.938706 0.583883 0.118437
0.039560 0.107448 0.132357
0.072527 0.127473 0.131136
0.105495 0.147497 0.129915
0.153602 0.173382 0.124786
0.232234 0.210256 0.111355
0.310867 0.247375 0.097680
0.386813 0.279365 0.089377
0.461538 0.308913 0.083516
0.536508 0.338217 0.077900
0.604884 0.365079 0.079121
0.673504 0.391941 0.080342
0.736996 0.420757 0.083516
0.790232 0.453480 0.090598
0.843712 0.486203 0.097680
0.884737 0.524786 0.108913
0.919414 0.566300 0.122344
0.954335 0.607814 0.135775
0.040049 0.117216 0.142613
0.074969 0.138462 0.141392
0.110134 0.159463 0.140171
0.162149 0.186569 0.134066
0.248596 0.226374 0.118437
0.334799 0.266178 0.102808
0.414164 0.302808 0.092796
0.489866 0.337729 0.085470
0.565568 0.372894 0.078144
0.632234 0.401465 0.081563
0.698901 0.430037 0.084982
0.760440 0.459341 0.090354
0.811477 0.490354 0.099634
0.862515 0.521123 0.109158
0.900855 0.555800 0.122589
0.933089 0.592430 0.138462
0.965324 0.629060 0.154335
0.040293 0.126984 0.152869
0.077411 0.149206 0.151648
0.114774 0.171184 0.150183
0.170940 0.200000 0.143346
0.264957 0.242491 0.125519
0.358974 0.284737 0.107692
0.441270 0.326007 0.095971
0.517949 0.366789 0.087424
0.594628 0.407570 0.078632
0.659341 0.437851 0.084249
0.724298 0.468132 0.089621
0.783639 0.497924 0.097192
0.832479 0.526984 0.108913
0.881074 0.555800 0.120391
0.916972 0.586813 0.136508
0.946764 0.618559 0.154579
0.976313 0.650549 0.172650
0.041270 0.139927 0.165324
0.082051 0.162882 0.164103
0.122589 0.185836 0.162882
0.183883 0.215385 0.155311
0.286447 0.257875 0.135531
0.389011 0.300366 0.115507
0.478144 0.344322 0.103053
0.560440 0.388767 0.094017
0.642735 0.433211 0.085226
0.698413 0.464225 0.092063
0.754335 0.495238 0.098901
0.806593 0.526007 0.108669
0.851770 0.555800 0.123810
0.896703 0.585592 0.138950
0.928938 0.614408 0.157998
0.954579 0.642979 0.179487
0.980464 0.671306 0.200733
0.042491 0.152869 0.178022
0.086447 0.176557 0.176801
0.130403 0.200488 0.175580
0.196825 0.230525 0.167277
0.307937 0.273260 0.145299
0.419048 0.315995 0.123321
0.514774 0.362393 0.109890
0.602686 0.410745 0.100855
0.690843 0.458852 0.091819
0.737729 0.490598 0.100122
0.784615 0.522344 0.108181
0.829548 0.553846 0.119902
0.870818 0.584615 0.138706
0.912332 0.615385 0.157265
0.940659 0.642247 0.179731
0.962637 0.667155 0.204151
0.984615 0.692064 0.228571
0.044200 0.166545 0.190965
0.092063 0.191453 0.189988
0.139927 0.216606 0.188767
0.211722 0.247863 0.180220
0.331624 0.291575 0.156288
0.451526 0.335043 0.132357
0.552869 0.383394 0.118437
0.645177 0.434432 0.109646
0.737729 0.485226 0.101099
0.777778 0.517949 0.111355
0.818071 0.550916 0.121612
0.856654 0.582418 0.135287
0.892063 0.612210 0.156288
0.927228 0.642002 0.177289
0.951160 0.666667 0.202686
0.969475 0.689133 0.230281
0.987546 0.711600 0.257875
0.047375 0.181929 0.205128
0.099878 0.209035 0.204396
0.152137 0.235897 0.203419
0.230281 0.269109 0.194383
0.359463 0.314774 0.168987
0.488645 0.360684 0.143590
0.594139 0.410256 0.130159
0.687912 0.461783 0.122833
0.781685 0.513309 0.115751
0.820269 0.547497 0.129182
0.858608 0.581685 0.142857
0.892552 0.612698 0.158974
0.916728 0.637607 0.179731
0.940904 0.662515 0.200488
0.958730 0.685226 0.228083
0.973626 0.706960 0.259341
0.988278 0.728694 0.290354
0.050305 0.197314 0.219292
0.107448 0.226374 0.218803
0.164591 0.255189 0.218071
0.248840 0.290354 0.208791
0.387302 0.338217 0.181685
0.525763 0.386081 0.154823
0.635409 0.436874 0.141880
0.730647 0.489133 0.136020
0.825641 0.541392 0.130159
0.862515 0.577045 0.147253
0.899390 0.612698 0.164347
0.928205 0.642979 0.182662
0.941392 0.663004 0.203175
0.954579 0.683028 0.223687
0.966300 0.703541 0.253724
0.977778 0.724542 0.288156
0.989011 0.745543 0.322833
0.054945 0.209524 0.234921
0.116972 0.240781 0.234676
0.178999 0.272283 0.234188
0.269841 0.310867 0.224664
0.417582 0.363370 0.196581
0.565568 0.415873 0.168254
0.677167 0.469353 0.157998
0.770696 0.522833 0.156777
0.864225 0.576557 0.155556
0.896215 0.611233 0.178510
0.927961 0.645665 0.201465
0.951648 0.674237 0.223932
0.958974 0.690354 0.244933
0.966300 0.706471 0.265690
0.973871 0.722344 0.291331
0.981441 0.738217 0.318926
0.989255 0.754335 0.346764
0.060317 0.219780 0.251038
0.127473 0.254212 0.251038
0.194628 0.288401 0.251038
0.291575 0.330891 0.241514
0.449084 0.389255 0.212210
0.606593 0.447863 0.183150
0.719170 0.504274 0.176557
0.809768 0.559951 0.181197
0.900122 0.615385 0.186081
0.925519 0.647619 0.216361
0.950916 0.680098 0.246642
0.969231 0.705739 0.273993
0.973138 0.718437 0.295727
0.977289 0.731380 0.317216
0.981441 0.741392 0.335043
0.985348 0.750183 0.350672
0.989255 0.758730 0.366545
0.065690 0.230037 0.267399
0.137973 0.267399 0.267643
0.210012 0.304518 0.267888
0.313553 0.350916 0.258120
0.480586 0.415385 0.228083
0.647619 0.479853 0.198046
0.761416 0.539438 0.195116
0.848596 0.596825 0.205861
0.935775 0.654212 0.216606
0.954823 0.684249 0.254212
0.973626 0.714286 0.291575
0.986569 0.737241 0.324054
0.987546 0.746764 0.346520
0.988278 0.756288 0.368742
0.988767 0.760195 0.378755
0.989011 0.761905 0.382418
0.989011 0.763370 0.386325
0.043712 0.061050 0.089133
0.048107 0.066422 0.095238
0.052747 0.071551 0.101343
0.065446 0.077900 0.105006
0.094750 0.085714 0.104029
0.124054 0.093529 0.103053
0.174603 0.107937 0.097680
0.235897 0.125763 0.089866
0.296948 0.143346 0.082295
0.374603 0.173871 0.072527
0.452259 0.204396 0.063004
0.526740 0.238339 0.055433
0.594872 0.279365 0.051770
0.663004 0.320635 0.048107
0.716239 0.360928 0.049328
0.762149 0.400733 0.052991
0.808059 0.440537 0.056654
0.041270 0.069841 0.099145
0.052747 0.079609 0.105983
0.064225 0.089133 0.112821
0.084737 0.099145 0.116972
0.122833 0.109158 0.115995
0.160928 0.119170 0.114774
0.217827 0.134310 0.109646
0.284249 0.152381 0.102564
0.350427 0.170208 0.095482
0.426374 0.198779 0.087424
0.502320 0.227106 0.079365
0.574359 0.259341 0.072772
0.638584 0.299634 0.069353
0.702808 0.339683 0.065690
0.752869 0.382173 0.066178
0.795604 0.425885 0.068376
0.838339 0.469597 0.070574
0.038828 0.078632 0.109402
0.057387 0.092796 0.116972
0.075946 0.106716 0.124542
0.103785 0.120147 0.129182
0.150672 0.132357 0.127717
0.197802 0.144567 0.126496
0.261050 0.160684 0.121612
0.332357 0.178999 0.115263
0.403907 0.197314 0.108913
0.478144 0.223443 0.102320
0.552137 0.249817 0.095726
0.621734 0.280342 0.090354
0.682296 0.319658 0.086935
0.742613 0.358730 0.083516
0.789255 0.403663 0.082784
0.828816 0.451038 0.083516
0.868620 0.498413 0.084249
0.037118 0.087424 0.119658
0.060562 0.105250 0.127473
0.083761 0.123321 0.135287
0.118193 0.140659 0.139683
0.174115 0.156777 0.137241
0.229792 0.172894 0.134799
0.298657 0.191209 0.129915
0.374115 0.210256 0.123810
0.449573 0.229304 0.117949
0.522100 0.253968 0.112821
0.594872 0.278632 0.107692
0.662515 0.307692 0.103541
0.720147 0.345543 0.100855
0.777778 0.383394 0.098168
0.821734 0.428816 0.097680
0.859341 0.478144 0.098657
0.896703 0.527473 0.099390
0.036386 0.096459 0.129915
0.060562 0.116972 0.137241
0.084737 0.137485 0.144322
0.122589 0.159219 0.147253
0.187790 0.183394 0.141880
0.252991 0.207570 0.136508
0.325763 0.229792 0.130647
0.402686 0.250794 0.124542
0.479365 0.272039 0.118437
0.551160 0.295971 0.114774
0.623199 0.320147 0.110867
0.690110 0.347741 0.108181
0.746520 0.383150 0.107692
0.802930 0.418559 0.106960
0.846398 0.462027 0.109158
0.883516 0.509646 0.113065
0.920635 0.557021 0.116728
0.035897 0.105250 0.140415
0.060806 0.128449 0.146764
0.085470 0.151648 0.153358
0.126984 0.177778 0.154823
0.201465 0.210012 0.146520
0.275946 0.242247 0.137973
0.352869 0.268376 0.131380
0.431013 0.291575 0.125275
0.509158 0.314774 0.119170
0.580220 0.337973 0.116728
0.651526 0.361416 0.114042
0.717460 0.388034 0.113065
0.772894 0.421001 0.114286
0.828327 0.453968 0.115751
0.871306 0.495238 0.120635
0.907692 0.540904 0.127473
0.944322 0.586569 0.134310
0.035897 0.115018 0.151893
0.060806 0.139683 0.158242
0.085958 0.164103 0.164347
0.129915 0.192674 0.164835
0.211722 0.229792 0.153846
0.293529 0.266667 0.142613
0.375092 0.297924 0.133578
0.456654 0.326252 0.125763
0.537973 0.354823 0.117949
0.607326 0.378755 0.117460
0.676679 0.402930 0.116972
0.740659 0.429060 0.117949
0.794139 0.459585 0.121856
0.847619 0.490354 0.125519
0.888889 0.528205 0.133333
0.924054 0.569475 0.143346
0.958974 0.610745 0.153114
0.035897 0.125275 0.164103
0.061050 0.150427 0.170208
0.086203 0.175580 0.176557
0.132357 0.205861 0.176068
0.220269 0.246154 0.162393
0.308181 0.286203 0.148474
0.394872 0.323077 0.136996
0.480586 0.358242 0.126252
0.566545 0.393407 0.115751
0.633455 0.419048 0.117705
0.700122 0.444444 0.119658
0.761661 0.470818 0.123077
0.812943 0.498901 0.129426
0.864225 0.527228 0.136020
0.903053 0.560684 0.146764
0.936020 0.596581 0.159707
0.968987 0.632723 0.172650
0.036142 0.135531 0.176313
0.061294 0.161416 0.182418
0.086691 0.187302 0.188523
0.134799 0.219048 0.187302
0.228816 0.262271 0.170940
0.322833 0.305739 0.154335
0.414408 0.348230 0.140171
0.504762 0.390232 0.126984
0.595116 0.432234 0.113797
0.659341 0.459096 0.117949
0.723565 0.485958 0.122344
0.782662 0.512332 0.128205
0.831746 0.538217 0.137241
0.880586 0.564103 0.146276
0.917460 0.593162 0.159951
0.948230 0.623687 0.176068
0.978999 0.654457 0.192186
0.037363 0.148474 0.190476
0.063492 0.174115 0.197070
0.089377 0.199756 0.203663
0.140904 0.231502 0.201709
0.243223 0.274725 0.182418
0.345299 0.318193 0.163126
0.443956 0.363614 0.146764
0.540415 0.409768 0.131624
0.637118 0.456166 0.116728
0.694750 0.485470 0.122589
0.752137 0.514774 0.128449
0.805617 0.543101 0.136508
0.850305 0.569475 0.149451
0.894750 0.595604 0.162149
0.927961 0.622222 0.179487
0.955067 0.649328 0.198535
0.982418 0.676190 0.217827
0.038584 0.161416 0.204884
0.065446 0.187057 0.211966
0.092308 0.212454 0.218803
0.147009 0.243956 0.216117
0.257387 0.287179 0.193895
0.368010 0.330647 0.171673
0.473260 0.378755 0.153358
0.576068 0.429304 0.136508
0.678877 0.479853 0.119902
0.729915 0.511844 0.126984
0.780952 0.543834 0.134310
0.828327 0.573871 0.144811
0.868864 0.600733 0.161416
0.909158 0.627350 0.178266
0.938462 0.651526 0.198779
0.962149 0.674725 0.221245
0.985592 0.697924 0.243468
0.040537 0.175580 0.220024
0.068620 0.201221 0.227350
0.096459 0.226862 0.234676
0.155067 0.258608 0.231258
0.274725 0.302076 0.206349
0.394139 0.345788 0.181441
0.505983 0.396093 0.161416
0.613675 0.449817 0.143590
0.721368 0.503541 0.126007
0.767277 0.537729 0.135043
0.813187 0.571917 0.144322
0.855189 0.603419 0.157021
0.889133 0.629304 0.176557
0.923321 0.655433 0.196337
0.947985 0.677656 0.219780
0.968010 0.697924 0.245177
0.988034 0.718437 0.270330
0.043956 0.191941 0.236386
0.073993 0.218559 0.244200
0.104029 0.244933 0.252015
0.167521 0.277411 0.247863
0.297680 0.322100 0.220513
0.427839 0.366789 0.193407
0.544811 0.417827 0.172650
0.654945 0.472283 0.155311
0.765079 0.526740 0.137973
0.809035 0.562393 0.150183
0.852991 0.598291 0.162393
0.890110 0.630037 0.177289
0.913553 0.653236 0.197802
0.936996 0.676435 0.218315
0.955800 0.696948 0.243712
0.972161 0.716239 0.271551
0.988523 0.735775 0.299390
0.047375 0.208547 0.252747
0.079365 0.235653 0.261050
0.111355 0.263004 0.269109
0.179731 0.296459 0.264713
0.320635 0.342125 0.234921
0.461538 0.387790 0.205128
0.583639 0.439560 0.183883
0.695971 0.494750 0.167033
0.808547 0.549939 0.149939
0.850549 0.587302 0.165324
0.892552 0.624908 0.180464
0.925031 0.656654 0.197802
0.937729 0.676923 0.219048
0.950672 0.697436 0.240293
0.963614 0.716484 0.267643
0.976313 0.734799 0.298169
0.989011 0.753114 0.328694
0.052503 0.223687 0.271551
0.086691 0.251526 0.279853
0.120635 0.279609 0.288156
0.194383 0.314774 0.283028
0.347009 0.364591 0.250794
0.499878 0.414164 0.218559
0.625153 0.468376 0.199023
0.736508 0.525031 0.185836
0.847863 0.581441 0.172650
0.884982 0.617827 0.193651
0.921856 0.654212 0.214652
0.948962 0.684249 0.235897
0.956044 0.701343 0.257875
0.963370 0.718437 0.279853
0.971673 0.733333 0.303297
0.980464 0.747253 0.327717
0.989255 0.761172 0.352137
0.058852 0.238095 0.291819
0.094750 0.266911 0.299878
0.130647 0.295482 0.307937
0.209768 0.333089 0.301832
0.375092 0.388278 0.267155
0.540659 0.443468 0.232479
0.667888 0.500855 0.216117
0.776557 0.558974 0.208547
0.884982 0.617338 0.200977
0.915507 0.651038 0.228816
0.945788 0.684982 0.256654
0.967521 0.712088 0.282784
0.971429 0.725763 0.305250
0.975580 0.739438 0.327961
0.979976 0.749206 0.344811
0.984371 0.757021 0.358730
0.989011 0.764591 0.372650
0.065201 0.252747 0.311844
0.103053 0.282051 0.319902
0.140904 0.311600 0.327961
0.225397 0.351404 0.320879
0.403175 0.412210 0.283761
0.581197 0.472772 0.246642
0.710867 0.533089 0.232967
0.816361 0.593162 0.231013
0.922100 0.652991 0.229060
0.946032 0.684493 0.263980
0.969719 0.715751 0.298657
0.986081 0.740171 0.329670
0.986813 0.750183 0.352869
0.987790 0.760440 0.376068
0.988278 0.764835 0.386081
0.988523 0.766545 0.389744
0.989011 0.768254 0.393407
0.040293 0.066911 0.102808
0.044200 0.072283 0.110134
0.048107 0.077900 0.117705
0.060806 0.083761 0.122833
0.091331 0.091087 0.123077
0.121612 0.098168 0.123321
0.174603 0.111600 0.118437
0.238828 0.127961 0.110867
0.303297 0.144567 0.103297
0.384860 0.175580 0.091087
0.466422 0.206593 0.079121
0.544567 0.242247 0.068864
0.615140 0.286935 0.062515
0.685959 0.331868 0.056166
0.741880 0.378022 0.056654
0.790965 0.425153 0.060562
0.839805 0.472039 0.064469
