src-tauri/resources/luts/江南风质感.3dl
# LUT by SparkleStock. Enhanced with VOXCOLOR algorithms.
0 256 512 768 1023
208 208 256
153 304 480
119 419 718
104 568 990
128 801 1265
177 344 390
131 454 683
115 622 1005
138 849 1358
180 1089 1728
182 486 531
129 646 916
140 856 1325
205 1205 1799
286 1553 2222
208 704 712
171 911 1225
202 1224 1732
271 1516 2113
361 1862 2440
272 849 913
277 1237 1621
320 1639 2204
363 1881 2437
384 1953 2498
382 320 289
322 406 601
177 599 975
159 838 1341
186 1095 1674
854 629 255
650 837 909
412 995 1432
299 1262 1801
360 1570 2167
1232 911 328
687 1209 1104
472 1389 1750
456 1700 2203
581 2074 2572
1725 1260 480
776 1436 1394
526 1781 2136
671 2115 2529
892 2468 2837
2285 1714 705
1038 1773 1734
715 2168 2540
971 2512 2849
1389 2797 3055
1045 588 219
1149 608 563
467 809 1174
314 1224 1711
329 1608 2194
1907 1043 150
1856 1154 908
1153 1358 1819
682 1736 2225
689 2134 2592
2432 1567 179
2224 1882 935
1367 1989 2069
1120 2258 2609
1286 2613 2941
3269 2048 382
2724 2219 1029
1359 2402 2446
1491 2660 2884
1866 2978 3183
3889 2684 835
3429 2660 1289
1673 2728 2871
2051 3040 3202
2553 3294 3390
2195 1081 143
2527 1205 320
2010 1337 832
826 1671 1864
604 2176 2589
2982 1559 191
3077 1587 736
2701 1737 1488
1575 2218 2444
1390 2676 2955
3412 2112 329
3353 2255 912
3050 2306 1917
2310 2652 2852
2254 3103 3276
3766 2548 662
3651 2780 1079
3200 2927 2092
2714 3113 3112
2979 3479 3578
4046 3044 1393
4002 3125 1566
3668 3279 2331
3231 3526 3468
3493 3726 3772
3010 1521 160
3532 2034 288
3649 2284 466
2462 2362 1583
865 2466 2802
3720 2262 373
3836 2325 641
3904 2479 1075
3196 2753 2181
2303 3127 3250
3986 2647 628
4025 2684 1050
4039 2684 1839
3714 2965 2779
3217 3520 3577
4046 2954 1152
4050 3074 1416
4044 3198 2144
3949 3399 3122
3733 3813 3876
4051 3106 1553
4048 3236 1746
4026 3514 2403
3958 3804 3492
4035 4019 4051
