src-tauri/resources/luts/江南风质感.cube
# Converted from .3dl (size 17x17x17) using Python
LUT_3D_SIZE 9
DOMAIN_MIN 0.0 0.0 0.0
DOMAIN_MAX 1.0 1.0 1.0
0.050794 0.050794 0.062515
0.062271 0.061294 0.069109
0.093284 0.078144 0.070574
0.154090 0.104274 0.065690
0.255189 0.143590 0.053480
0.398779 0.201465 0.040293
0.536020 0.263980 0.034921
0.652747 0.323321 0.035165
0.735043 0.371429 0.039072
0.045421 0.068132 0.078388
0.091575 0.087424 0.070574
0.158974 0.114286 0.062515
0.252259 0.149206 0.053236
0.375824 0.191697 0.041758
0.518193 0.248840 0.036630
0.648107 0.318926 0.039316
0.757753 0.396825 0.049328
0.840293 0.477900 0.066422
0.043223 0.084005 0.095238
0.110134 0.109646 0.080586
0.208547 0.153602 0.062271
0.330159 0.205128 0.045910
0.465690 0.254701 0.036630
0.605128 0.311355 0.037118
0.728205 0.380708 0.046642
0.830525 0.461538 0.064469
0.908425 0.552381 0.091087
0.043223 0.100122 0.112576
0.124786 0.131136 0.095482
0.252503 0.190965 0.068864
0.398535 0.260806 0.045177
0.534799 0.321856 0.037607
0.670330 0.381197 0.043468
0.786569 0.447375 0.059341
0.880586 0.521612 0.084493
0.949451 0.604884 0.118437
0.044444 0.118681 0.129670
0.142857 0.155067 0.111844
0.300855 0.222466 0.080098
0.468376 0.304029 0.051770
0.593895 0.382662 0.043712
0.724786 0.450305 0.057143
0.833211 0.515751 0.080342
0.916728 0.580464 0.112821
0.973382 0.646398 0.153358
0.046398 0.144078 0.150916
0.168742 0.188523 0.132112
0.358486 0.259341 0.096703
0.556288 0.346276 0.066667
0.702808 0.437851 0.063736
0.788278 0.501099 0.082051
0.873016 0.568498 0.115751
0.942857 0.632723 0.160684
0.983394 0.686203 0.213675
0.050794 0.171917 0.173871
0.200488 0.226862 0.155067
0.421245 0.307692 0.117216
0.643712 0.402686 0.087668
0.798291 0.500122 0.093284
0.864469 0.565079 0.123565
0.919658 0.622222 0.161661
0.961661 0.673504 0.212698
0.988034 0.721368 0.281319
0.057387 0.195360 0.198046
0.237607 0.264957 0.180464
0.488156 0.362149 0.142369
0.729182 0.470085 0.117216
0.880586 0.571673 0.138217
0.934066 0.637363 0.188523
0.961905 0.679365 0.231990
0.976313 0.711355 0.279121
0.989255 0.747253 0.341392
0.066422 0.207326 0.222955
0.279121 0.297680 0.208059
0.557998 0.418559 0.172161
0.811722 0.545788 0.157265
0.949695 0.655433 0.203907
0.977534 0.712576 0.284737
0.988034 0.743346 0.340171
0.989255 0.755800 0.371184
0.989255 0.758486 0.379243
0.043712 0.061050 0.089133
0.052747 0.071551 0.101343
0.094750 0.085714 0.104029
0.174603 0.107937 0.097680
0.296948 0.143346 0.082295
0.452259 0.204396 0.063004
0.594872 0.279365 0.051770
0.716239 0.360928 0.049328
0.808059 0.440537 0.056654
0.038828 0.078632 0.109402
0.075946 0.106716 0.124542
0.150672 0.132357 0.127717
0.261050 0.160684 0.121612
0.403907 0.197314 0.108913
0.552137 0.249817 0.095726
0.682296 0.319658 0.086935
0.789255 0.403663 0.082784
0.868620 0.498413 0.084249
0.036386 0.096459 0.129915
0.084737 0.137485 0.144322
0.187790 0.183394 0.141880
0.325763 0.229792 0.130647
0.479365 0.272039 0.118437
0.623199 0.320147 0.110867
0.746520 0.383150 0.107692
0.846398 0.462027 0.109158
0.920635 0.557021 0.116728
0.035897 0.115018 0.151893
0.085958 0.164103 0.164347
0.211722 0.229792 0.153846
0.375092 0.297924 0.133578
0.537973 0.354823 0.117949
0.676679 0.402930 0.116972
0.794139 0.459585 0.121856
0.888889 0.528205 0.133333
0.958974 0.610745 0.153114
0.036142 0.135531 0.176313
0.086691 0.187302 0.188523
0.228816 0.262271 0.170940
0.414408 0.348230 0.140171
0.595116 0.432234 0.113797
0.723565 0.485958 0.122344
0.831746 0.538217 0.137241
0.917460 0.593162 0.159951
0.978999 0.654457 0.192186
0.038584 0.161416 0.204884
0.092308 0.212454 0.218803
0.257387 0.287179 0.193895
0.473260 0.378755 0.153358
0.678877 0.479853 0.119902
0.780952 0.543834 0.134310
0.868864 0.600733 0.161416
0.938462 0.651526 0.198779
0.985592 0.697924 0.243468
0.043956 0.191941 0.236386
0.104029 0.244933 0.252015
0.297680 0.322100 0.220513
0.544811 0.417827 0.172650
0.765079 0.526740 0.137973
0.852991 0.598291 0.162393
0.913553 0.653236 0.197802
0.955800 0.696948 0.243712
0.988523 0.735775 0.299390
0.052503 0.223687 0.271551
0.120635 0.279609 0.288156
0.347009 0.364591 0.250794
0.625153 0.468376 0.199023
0.847863 0.581441 0.172650
0.921856 0.654212 0.214652
0.956044 0.701343 0.257875
0.971673 0.733333 0.303297
0.989255 0.761172 0.352137
0.065201 0.252747 0.311844
0.140904 0.311600 0.327961
0.403175 0.412210 0.283761
0.710867 0.533089 0.232967
0.922100 0.652991 0.229060
0.969719 0.715751 0.298657
0.986813 0.750183 0.352869
0.988278 0.764835 0.386081
0.989011 0.768254 0.393407
0.037363 0.074237 0.117216
0.044200 0.085958 0.134799
0.078632 0.099145 0.146764
0.153358 0.118193 0.148962
0.280586 0.148474 0.137485
0.455433 0.210256 0.104518
0.617094 0.294261 0.078144
0.755800 0.392186 0.064713
0.862515 0.496703 0.070330
0.034188 0.092063 0.140904
0.063736 0.123321 0.170696
0.130647 0.149206 0.192918
0.237118 0.174359 0.201954
0.385836 0.203175 0.193162
0.551893 0.254701 0.164347
0.696215 0.327717 0.137241
0.814164 0.420513 0.116239
0.900366 0.530403 0.105739
0.031990 0.110867 0.166789
0.069353 0.157021 0.199756
0.158730 0.204396 0.221978
0.289866 0.247863 0.230525
0.453236 0.281807 0.221734
0.615629 0.326007 0.200000
0.751404 0.387546 0.179731
0.859341 0.467643 0.164347
0.936752 0.567766 0.156532
0.031013 0.132357 0.194139
0.067643 0.187790 0.226862
0.169231 0.256166 0.244200
0.318926 0.322344 0.245910
0.499878 0.371429 0.231258
0.659341 0.413431 0.216850
0.789988 0.464713 0.207570
0.892308 0.528938 0.204884
0.966056 0.609280 0.210745
0.031502 0.157753 0.223687
0.064225 0.216606 0.257387
0.167766 0.295238 0.269597
0.331380 0.380464 0.260073
0.543101 0.459585 0.228327
0.695971 0.505739 0.221001
0.818803 0.550672 0.222711
0.913797 0.599023 0.234188
0.982906 0.655433 0.256410
0.035409 0.187546 0.260073
0.064225 0.243956 0.294994
0.172405 0.319170 0.303053
0.352137 0.407814 0.283272
0.595604 0.504274 0.235165
0.741392 0.571429 0.225885
0.850549 0.622955 0.238095
0.930159 0.665690 0.265201
0.987302 0.705739 0.301099
0.041758 0.222466 0.299145
0.070330 0.278388 0.335775
0.189499 0.350672 0.340415
0.390476 0.438584 0.312576
0.665201 0.541880 0.251282
0.805617 0.622222 0.243468
0.891575 0.678877 0.263492
0.945299 0.719170 0.301099
0.989011 0.750672 0.345788
0.052259 0.261050 0.343834
0.081319 0.316239 0.380220
0.217094 0.388767 0.380952
0.443956 0.478632 0.346520
0.747497 0.585836 0.277656
0.875214 0.668864 0.280342
0.935775 0.723810 0.308181
0.962637 0.758730 0.348718
0.989011 0.781441 0.388278
0.067643 0.302076 0.395849
0.096215 0.354090 0.428571
0.253480 0.432967 0.423443
0.510623 0.533089 0.384371
0.837363 0.649573 0.314774
0.937485 0.721123 0.343346
0.977289 0.763126 0.382418
0.984860 0.783639 0.415629
0.988523 0.790232 0.426374
0.032234 0.088400 0.146032
0.037118 0.103053 0.170208
0.057387 0.118926 0.193162
0.111111 0.138462 0.208303
0.216117 0.164347 0.209035
0.399512 0.223199 0.169231
0.587546 0.309402 0.125031
0.758730 0.416361 0.092308
0.892308 0.536752 0.086935
0.030769 0.107692 0.173871
0.053236 0.139683 0.212454
0.104274 0.167766 0.252015
0.191209 0.194139 0.280586
0.321612 0.220513 0.286447
0.501343 0.269353 0.248352
0.670330 0.344811 0.201221
0.815385 0.443956 0.158486
0.923321 0.563858 0.134066
0.029304 0.128938 0.205128
0.059341 0.174359 0.249084
0.127717 0.222466 0.294017
0.236142 0.265934 0.326984
0.387302 0.297192 0.334554
0.568498 0.338217 0.303297
0.727717 0.399267 0.264469
0.857387 0.481074 0.228816
0.950183 0.584127 0.206349
0.029060 0.153602 0.238828
0.060073 0.208547 0.283516
0.133333 0.275946 0.327717
0.253480 0.339927 0.357509
0.426374 0.385104 0.359219
0.611477 0.422711 0.335531
0.765812 0.471062 0.310379
0.886691 0.532601 0.290354
0.971184 0.610012 0.283028
0.031013 0.183150 0.272527
0.060073 0.243223 0.318926
0.126984 0.320635 0.360440
0.250794 0.402198 0.381441
0.451282 0.474237 0.366056
0.640293 0.516239 0.347009
0.791209 0.557509 0.333822
0.905495 0.602198 0.331136
0.985104 0.654212 0.343101
0.036142 0.219048 0.315507
0.063004 0.279121 0.362393
0.120147 0.353114 0.402930
0.244200 0.435653 0.417338
0.471306 0.521612 0.385836
0.669597 0.589011 0.353602
0.814408 0.638095 0.346520
0.916972 0.676435 0.358486
0.987790 0.711844 0.384127
0.043712 0.259341 0.361661
0.071306 0.320147 0.409035
0.123810 0.389499 0.449817
0.254457 0.468132 0.458852
0.515263 0.557753 0.411722
0.720635 0.641026 0.369231
0.849084 0.699390 0.365324
0.928938 0.739194 0.387057
0.988767 0.765812 0.420269
0.055433 0.303785 0.413187
0.084005 0.364591 0.459096
0.137485 0.429792 0.499145
0.281807 0.505006 0.503053
0.583150 0.596337 0.440537
0.787546 0.684005 0.396581
0.894261 0.745543 0.397314
0.947009 0.785104 0.422955
0.988034 0.805861 0.453968
0.072283 0.352137 0.472039
0.101099 0.410012 0.511844
0.160195 0.474237 0.549695
0.325763 0.552137 0.547741
0.673748 0.651526 0.469353
0.863492 0.729670 0.439316
0.949939 0.780708 0.448107
0.976557 0.809524 0.472283
0.986813 0.821245 0.487912
0.029060 0.102320 0.175336
0.031746 0.122344 0.208547
0.043223 0.146276 0.238095
0.069109 0.172161 0.264225
0.114042 0.197558 0.286691
0.276190 0.246398 0.261783
0.490842 0.326496 0.203175
0.711355 0.432234 0.143346
0.891087 0.557753 0.113797
0.027839 0.125275 0.208303
0.042979 0.158974 0.252991
0.078144 0.191453 0.299390
0.134066 0.224420 0.343346
0.210989 0.259585 0.380708
0.384860 0.299634 0.353114
0.585104 0.371673 0.288889
0.776557 0.470085 0.218559
0.924542 0.588767 0.172161
0.028083 0.151893 0.245421
0.049573 0.195604 0.295238
0.100611 0.242979 0.349695
0.178755 0.289622 0.401954
0.281563 0.331624 0.444200
0.468620 0.365079 0.419780
0.659585 0.424176 0.363370
0.829548 0.505495 0.301832
0.953358 0.605372 0.262515
0.030281 0.180220 0.284493
0.054457 0.231746 0.335531
0.112332 0.294261 0.391697
0.202442 0.357021 0.443956
0.323565 0.408547 0.483516
0.525763 0.440537 0.465690
0.713065 0.486935 0.424176
0.868620 0.547741 0.381929
0.974847 0.622466 0.362149
0.034188 0.209035 0.323565
0.059341 0.267155 0.375092
0.115263 0.339194 0.427350
0.205372 0.415140 0.473260
0.333822 0.485714 0.505250
0.555556 0.523565 0.494017
0.744811 0.563126 0.468132
0.891575 0.606349 0.446642
0.986325 0.655433 0.449084
0.040293 0.252259 0.370940
0.066178 0.314530 0.423199
0.117216 0.386813 0.472772
0.200977 0.464713 0.515751
0.324298 0.543346 0.548230
0.565079 0.602198 0.514042
0.757021 0.648107 0.487179
0.898413 0.685470 0.476190
0.987790 0.718193 0.490110
0.049328 0.298901 0.422955
0.077656 0.364103 0.474237
0.128449 0.434921 0.521612
0.210256 0.509402 0.563370
0.331868 0.586569 0.597314
0.596581 0.658364 0.542125
0.781441 0.714774 0.510867
0.905495 0.755800 0.504518
0.987546 0.780952 0.523565
0.061783 0.348474 0.478877
0.093284 0.414652 0.526740
0.147741 0.482540 0.571673
0.233700 0.552381 0.612698
0.358974 0.624176 0.649573
0.651526 0.701832 0.574359
0.825397 0.765079 0.538706
0.922589 0.809768 0.534554
0.985836 0.831502 0.554335
0.078144 0.400244 0.538217
0.112332 0.464469 0.579976
0.174603 0.529426 0.620269
0.271306 0.596093 0.660317
0.408547 0.666178 0.701099
0.731624 0.742125 0.607082
0.895727 0.800733 0.569231
0.959951 0.840049 0.568742
0.983150 0.858120 0.586813
0.026618 0.118681 0.207082
0.030037 0.144322 0.246398
0.039316 0.175336 0.284249
0.057143 0.211233 0.319902
0.086935 0.251038 0.352137
0.158730 0.294750 0.361416
0.319902 0.361661 0.335531
0.540171 0.451282 0.285226
0.788767 0.563370 0.220757
0.027350 0.146276 0.243956
0.037851 0.183394 0.292308
0.061050 0.221978 0.341636
0.098168 0.263736 0.389255
0.150916 0.309890 0.432967
0.243956 0.359951 0.450305
0.413919 0.423687 0.420757
0.625397 0.504762 0.361172
0.843712 0.606593 0.288156
0.030037 0.178510 0.287912
0.045665 0.223199 0.339438
0.080342 0.273016 0.394383
0.134554 0.324298 0.447863
0.208059 0.374603 0.495971
0.326007 0.424908 0.518926
0.503785 0.480586 0.493773
0.705495 0.547741 0.440049
0.894017 0.631990 0.376801
0.034676 0.213919 0.335775
0.053968 0.264713 0.387057
0.096459 0.324786 0.442247
0.163370 0.386569 0.496459
0.256166 0.443468 0.544322
0.398535 0.490842 0.569963
0.583394 0.536996 0.553358
0.774603 0.588523 0.514042
0.936020 0.652015 0.471062
0.040537 0.251770 0.383883
0.063248 0.308181 0.434432
0.108425 0.373871 0.485714
0.182418 0.443956 0.535531
0.292552 0.513797 0.580708
0.456166 0.559463 0.606349
0.646154 0.597558 0.598535
0.827595 0.635165 0.575580
0.965812 0.678877 0.554823
0.048107 0.286447 0.421245
0.074725 0.351160 0.475458
0.122833 0.420757 0.526007
0.199023 0.492796 0.572161
0.310379 0.565324 0.613675
0.480098 0.622222 0.628816
0.674969 0.666667 0.622955
0.854701 0.703541 0.610256
0.979976 0.736996 0.605372
0.057875 0.332845 0.470574
0.089621 0.402930 0.523321
0.143346 0.473260 0.571673
0.224908 0.544322 0.615873
0.340904 0.615385 0.656410
0.516728 0.680586 0.666911
0.700855 0.732845 0.657387
0.865690 0.772650 0.644444
0.983150 0.800488 0.644200
0.069841 0.384860 0.524298
0.107448 0.456899 0.573138
0.169963 0.526496 0.619048
0.261294 0.594628 0.662027
0.386325 0.663004 0.702808
0.569475 0.732601 0.712821
0.740171 0.789499 0.698169
0.882051 0.831990 0.680342
0.978999 0.857143 0.681075
0.083761 0.435897 0.574359
0.128205 0.506960 0.620269
0.202686 0.574603 0.663736
0.308913 0.640537 0.705739
0.449084 0.706716 0.747741
0.642491 0.775824 0.759951
0.808059 0.830525 0.741148
0.924786 0.870330 0.720147
0.971673 0.894506 0.726496
0.025397 0.138706 0.241758
0.029548 0.168010 0.282540
0.038828 0.204640 0.327473
0.054212 0.248352 0.373626
0.076679 0.298901 0.417827
0.113309 0.350916 0.448352
0.201709 0.408059 0.455189
0.358730 0.480098 0.435653
0.601221 0.576801 0.386569
0.028083 0.169475 0.281807
0.037607 0.210256 0.333333
0.054701 0.255189 0.385348
0.081074 0.305250 0.436142
0.118681 0.360928 0.484982
0.177289 0.420024 0.522833
0.289622 0.480586 0.531380
0.461050 0.549451 0.509646
0.696215 0.633944 0.455678
0.033700 0.207326 0.331624
0.047131 0.255189 0.385348
0.073016 0.308181 0.439805
0.112332 0.364835 0.493040
0.166545 0.423932 0.543346
0.250549 0.483761 0.584615
0.384615 0.541636 0.596825
0.563370 0.602686 0.579487
0.780464 0.672283 0.532601
0.041270 0.249573 0.385836
0.058608 0.302320 0.437363
0.092552 0.361905 0.490842
0.145055 0.424664 0.543834
0.218559 0.487668 0.593651
0.327473 0.544567 0.635409
0.478877 0.595849 0.651526
0.658608 0.645910 0.642735
0.851282 0.699634 0.609524
0.050061 0.294261 0.439316
0.071795 0.352137 0.488645
0.111355 0.415140 0.537973
0.175824 0.482051 0.587546
0.273504 0.551404 0.637118
0.401709 0.604396 0.677167
0.564103 0.647619 0.696459
0.739683 0.685959 0.696459
0.906960 0.724054 0.678632
0.058120 0.330159 0.477167
0.086691 0.397070 0.528694
0.134554 0.464225 0.577289
0.208059 0.532112 0.623687
0.313797 0.600488 0.668864
0.453724 0.659585 0.706960
0.620513 0.704762 0.727228
0.790965 0.740659 0.732357
0.942369 0.772650 0.725763
0.066178 0.370208 0.515995
0.104762 0.446154 0.569475
0.163858 0.516484 0.617582
0.248596 0.583639 0.661538
0.364103 0.649573 0.704274
0.506227 0.711355 0.742369
0.662759 0.760195 0.759951
0.820024 0.798779 0.764103
0.964347 0.830037 0.762393
0.075946 0.413431 0.555311
0.125519 0.495726 0.610012
0.198535 0.567521 0.657387
0.297680 0.633455 0.700611
0.425885 0.697436 0.742369
0.567521 0.759951 0.783150
0.711844 0.812698 0.798535
0.849817 0.854945 0.800244
0.972650 0.885958 0.800488
0.088645 0.459341 0.595116
0.147741 0.541636 0.648840
0.237118 0.613431 0.695727
0.355311 0.678877 0.738950
0.500855 0.742369 0.781929
0.646642 0.805861 0.829548
0.789011 0.861050 0.846886
0.903785 0.903541 0.849328
0.966545 0.928938 0.852747
0.026374 0.163858 0.276435
0.031258 0.194139 0.317949
0.041270 0.235165 0.368987
0.056410 0.285714 0.424664
0.076435 0.345055 0.480098
0.107937 0.409524 0.523810
0.142369 0.464957 0.556044
0.221978 0.522100 0.569963
0.388767 0.591941 0.558730
0.030281 0.194872 0.320879
0.041026 0.238584 0.374603
0.056410 0.289866 0.429060
0.078388 0.347497 0.483272
0.108669 0.411233 0.536264
0.159463 0.477411 0.580952
0.225641 0.538950 0.618315
0.339194 0.600000 0.636874
0.532112 0.664957 0.625153
0.038339 0.236874 0.376068
0.053236 0.289133 0.431502
0.076435 0.345788 0.484982
0.109402 0.407570 0.537241
0.154090 0.474481 0.588278
0.227595 0.539683 0.632723
0.322833 0.601221 0.672772
0.459341 0.660562 0.694750
0.655678 0.718681 0.686203
0.048840 0.285714 0.435409
0.067399 0.342613 0.486691
0.099145 0.402686 0.536996
0.146276 0.466667 0.587057
0.211233 0.535287 0.636386
0.306716 0.597558 0.679853
0.425397 0.655189 0.720391
0.573382 0.708425 0.745543
0.757998 0.757509 0.742369
0.060317 0.336508 0.491575
0.083272 0.397314 0.538706
0.122833 0.460073 0.585348
0.185836 0.525763 0.632234
0.279365 0.594383 0.680830
0.391941 0.653480 0.723077
0.523810 0.704029 0.763126
0.673016 0.747741 0.790232
0.837851 0.786081 0.793895
0.069353 0.378266 0.531380
0.101099 0.446398 0.578755
0.152381 0.511844 0.623687
0.228816 0.576557 0.668376
0.337241 0.642735 0.713797
0.471795 0.706227 0.759951
0.606349 0.754335 0.799512
0.745543 0.792186 0.826374
0.893773 0.825641 0.833944
0.075946 0.410745 0.557998
0.122344 0.491087 0.611722
0.189255 0.560684 0.658120
0.281074 0.624664 0.700855
0.402198 0.687424 0.743834
0.542125 0.749206 0.789255
0.670330 0.798291 0.828571
0.798291 0.838584 0.856166
0.938217 0.872772 0.866911
0.082784 0.440049 0.579731
0.146520 0.532357 0.641270
0.232723 0.606593 0.690110
0.342125 0.670085 0.732357
0.476190 0.730403 0.773871
0.613919 0.789011 0.818559
0.733333 0.841514 0.859341
0.846642 0.885714 0.889377
0.965324 0.919658 0.901587
0.092063 0.472039 0.605372
0.173382 0.570696 0.670574
0.281563 0.648596 0.721368
0.411966 0.713797 0.764835
0.560195 0.774115 0.807570
0.696948 0.833211 0.854945
0.812698 0.888889 0.901832
0.904762 0.933333 0.936508
0.970208 0.958730 0.946764
0.031258 0.195604 0.308913
0.034676 0.222466 0.352625
0.045421 0.267399 0.408791
0.061294 0.325519 0.471795
0.080342 0.392674 0.535775
0.109890 0.465201 0.589499
0.147497 0.531380 0.632234
0.184127 0.580464 0.663980
0.211233 0.602198 0.684249
0.034921 0.221490 0.360440
0.047619 0.267643 0.415385
0.064225 0.324054 0.471795
0.086203 0.388523 0.529182
0.115995 0.458608 0.585836
0.166545 0.529426 0.635409
0.235653 0.595360 0.678877
0.315995 0.651526 0.715995
0.400977 0.693285 0.745543
0.043956 0.265934 0.421978
0.062515 0.323321 0.477167
0.087912 0.383394 0.529182
0.122589 0.448352 0.580220
0.168254 0.521123 0.632967
0.242491 0.589499 0.679365
0.339438 0.653480 0.721612
0.449084 0.711844 0.759951
0.562393 0.763614 0.793651
0.056410 0.321123 0.485226
0.078877 0.383883 0.534799
0.114530 0.444444 0.580952
0.165812 0.508181 0.627106
0.234921 0.580708 0.677167
0.331380 0.646398 0.720879
0.448107 0.706960 0.761661
0.572405 0.763858 0.799512
0.691819 0.817582 0.834188
0.069841 0.379243 0.542613
0.096703 0.442979 0.584860
0.141880 0.506471 0.628083
0.212210 0.571184 0.672527
0.314042 0.638095 0.718193
0.426618 0.701343 0.760195
0.550427 0.757753 0.800000
0.673993 0.809768 0.837607
0.785592 0.859585 0.873504
0.080830 0.424908 0.576068
0.117460 0.493040 0.620269
0.175580 0.557265 0.662515
0.262027 0.620513 0.704762
0.382906 0.685714 0.749451
0.520391 0.753602 0.799512
0.644933 0.807814 0.840049
0.756288 0.853724 0.875946
0.853724 0.896215 0.912576
0.088156 0.454701 0.595849
0.140904 0.534554 0.648107
0.217827 0.602686 0.692796
0.321856 0.664957 0.734310
0.455678 0.727228 0.777289
0.601954 0.792918 0.828327
0.727473 0.849573 0.873748
0.831013 0.895971 0.913065
0.911600 0.931136 0.946520
0.092308 0.471306 0.605861
0.169963 0.568742 0.670818
0.271306 0.644200 0.720147
0.393895 0.706716 0.761905
0.535043 0.765812 0.803175
0.675946 0.825885 0.851770
0.797070 0.883516 0.900855
0.892552 0.930891 0.943346
0.956288 0.960684 0.972894
0.093773 0.476923 0.610012
0.206838 0.596581 0.690110
0.339194 0.683028 0.746032
0.481074 0.748474 0.788278
0.623443 0.804396 0.827839
0.746520 0.858852 0.874481
0.852991 0.909890 0.921123
0.935287 0.952625 0.961661
0.985348 0.981441 0.989255
