src-tauri/resources/luts/电影胶片莱卡质感.3dl
# LUT by SparkleStock. Enhanced with VOXCOLOR algorithms.
0 256 512 768 1023
192 144 176
175 161 646
210 234 1093
265 318 1352
304 368 1473
241 215 236
224 256 832
287 352 1341
391 487 1669
480 613 1902
386 340 359
361 462 1072
442 556 1645
563 731 1968
677 875 2185
1395 1021 711
1060 1132 1502
863 1111 2102
992 1250 2375
1144 1423 2530
3314 2498 1681
2785 2447 2191
1974 2234 2748
1774 2113 2878
1761 2098 2898
638 194 171
448 282 829
361 374 1318
411 492 1642
497 608 1886
962 503 216
765 715 1072
665 727 1685
658 794 1956
732 896 2135
1280 820 423
990 1123 1290
896 1107 1972
949 1158 2267
1047 1273 2443
2186 1534 942
1848 1714 1645
1331 1611 2339
1366 1642 2587
1472 1753 2711
3421 2581 1702
3092 2551 2059
2279 2424 2710
1963 2267 2926
1911 2203 2963
1408 336 153
1204 555 1019
814 678 1596
684 763 1865
707 837 2084
1960 833 176
1772 1084 1188
1426 1171 2010
1124 1223 2279
1114 1314 2447
2376 1432 382
2067 1847 1344
1734 1839 2243
1569 1760 2599
1599 1827 2736
3018 2112 1152
2727 2349 1752
2095 2312 2578
1994 2225 2876
2045 2273 2993
3704 2852 1856
3468 2811 2141
2986 2823 2819
2522 2689 3124
2442 2629 3198
2323 657 182
2158 933 981
1972 1412 1822
1691 1513 2099
1505 1481 2245
2831 1141 248
2761 1360 1197
2603 1714 2141
2202 1987 2586
1933 2044 2780
3208 1792 546
3051 2070 1369
2924 2221 2309
2633 2393 2903
2389 2517 3125
3608 2537 1357
3410 2795 1819
3126 2872 2517
2923 2855 3100
2831 2879 3317
3946 3180 2200
3847 3277 2412
3556 3190 2798
3327 3178 3277
3232 3157 3435
2850 945 208
3160 1666 1082
3319 2222 1926
3436 2431 2212
3475 2498 2274
3341 1549 428
3414 1867 1301
3528 2306 2198
3563 2649 2637
3571 2932 2866
3730 2216 959
3712 2314 1523
3761 2474 2350
3719 2754 2962
3610 3226 3292
3920 2880 1795
3927 3008 1946
3853 3050 2475
3758 3113 3105
3615 3332 3450
3987 3298 2386
4004 3510 2579
3906 3486 2792
3713 3383 3215
3603 3346 3459
