src-tauri/resources/luts/电影胶片莱卡质感.3dl
# LUT by SparkleStock. Enhanced with VOXCOLOR algorithms.
0 128 256 384 512 640 768 896 1023
192 144 176
176 143 408
175 161 646
187 193 879
210 234 1093
239 279 1248
265 318 1352
286 348 1422
304 368 1473
217 181 198
188 178 470
189 195 735
211 232 986
246 285 1215
288 345 1388
329 400 1520
367 451 1626
401 500 1716
241 215 236
223 238 542
224 256 832
246 289 1100
287 352 1341
339 422 1524
391 487 1669
439 550 1791
480 613 1902
289 263 290
280 319 627
282 345 943
301 374 1230
348 440 1481
405 521 1667
464 593 1813
519 662 1936
564 731 2051
386 340 359
361 418 724
361 462 1072
387 498 1385
442 556 1645
500 650 1828
563 731 1968
624 804 2081
677 875 2185
736 572 476
651 667 878
579 703 1254
552 723 1585
599 770 1851
677 862 2029
749 953 2161
814 1038 2262
877 1114 2345
1395 1021 711
1256 1119 1112
1060 1132 1502
899 1112 1846
863 1111 2102
924 1171 2259
992 1250 2375
1066 1338 2462
1144 1423 2530
2281 1669 1100
2110 1741 1441
1797 1722 1815
1481 1657 2157
1299 1594 2402
1293 1596 2526
1324 1634 2613
1380 1695 2675
1448 1765 2720
3314 2498 1681
3148 2501 1885
2785 2447 2191
2350 2352 2509
1974 2234 2748
1835 2155 2835
1774 2113 2878
1760 2098 2894
1761 2098 2898
378 163 179
296 180 471
256 205 734
249 242 975
264 294 1200
298 350 1373
334 401 1508
369 449 1617
405 496 1712
479 256 195
391 318 549
351 347 858
343 368 1127
353 408 1362
381 459 1527
414 508 1653
450 554 1750
482 597 1828
551 335 235
457 441 625
418 477 966
415 489 1260
430 521 1508
462 570 1674
502 623 1802
546 678 1907
590 735 2001
637 421 302
537 561 711
491 607 1077
487 616 1393
515 646 1652
557 700 1824
605 759 1957
659 823 2069
716 895 2180
784 533 397
674 695 816
603 750 1205
582 762 1542
626 795 1810
678 861 1987
734 925 2116
791 990 2218
848 1060 2315
1166 810 560
1065 961 963
907 1002 1369
786 997 1730
794 1008 2000
860 1076 2167
921 1146 2288
980 1218 2378
1041 1289 2454
1780 1268 828
1693 1392 1175
1440 1411 1575
1178 1375 1949
1068 1338 2219
1102 1368 2366
1151 1423 2472
1211 1492 2548
1280 1565 2609
2537 1856 1202
2452 1930 1456
2134 1922 1817
1754 1860 2185
1486 1774 2459
1440 1745 2585
1445 1759 2670
1484 1798 2725
1538 1849 2765
3344 2521 1684
3237 2514 1807
2924 2481 2090
2506 2415 2427
2084 2307 2713
1909 2214 2828
1826 2157 2884
1798 2123 2904
1787 2105 2909
638 194 171
539 250 528
448 282 829
383 315 1087
361 374 1318
381 437 1497
411 492 1642
450 548 1768
497 608 1886
820 344 181
718 448 605
637 486 966
574 502 1269
528 536 1517
514 582 1673
526 631 1796
556 681 1897
596 730 1987
962 503 216
848 661 670
765 715 1072
706 718 1413
665 727 1685
648 754 1840
658 794 1956
689 842 2049
732 896 2135
1103 664 291
975 868 745
870 937 1172
802 934 1544
784 925 1834
782 939 1998
801 972 2115
838 1021 2208
889 1085 2299
1280 820 423
1145 1045 852
990 1123 1290
885 1121 1681
896 1107 1972
916 1124 2148
949 1158 2267
993 1208 2356
1047 1273 2443
1650 1100 642
1555 1299 1020
1323 1360 1454
1105 1343 1858
1055 1308 2147
1099 1340 2311
1142 1383 2424
1190 1437 2505
1244 1499 2572
2186 1534 942
2125 1678 1244
1848 1714 1645
1525 1680 2044
1331 1611 2339
1336 1612 2486
1366 1642 2587
1413 1693 2657
1472 1753 2711
2805 2051 1302
2752 2120 1509
2469 2130 1851
2087 2086 2226
1736 1991 2533
1651 1941 2669
1634 1936 2755
1660 1961 2808
1703 1999 2845
3421 2581 1702
3331 2562 1799
3092 2551 2059
2732 2515 2392
2279 2424 2710
2067 2331 2855
1963 2267 2926
1925 2226 2952
1911 2203 2963
979 249 159
883 333 562
760 397 925
635 448 1228
534 494 1450
515 556 1620
520 607 1759
547 658 1882
594 718 2007
1236 446 165
1143 560 632
1040 623 1055
923 658 1411
791 690 1675
711 736 1825
683 785 1944
695 837 2047
737 892 2151
1442 681 192
1337 855 684
1229 930 1147
1115 949 1549
995 950 1857
903 964 2011
864 995 2119
869 1038 2204
907 1091 2289
1629 923 269
1506 1155 747
1366 1249 1230
1238 1256 1666
1151 1225 2004
1079 1208 2173
1049 1218 2281
1055 1251 2356
1095 1305 2430
1827 1140 423
1691 1401 854
1490 1512 1334
1316 1517 1784
1263 1464 2121
1229 1433 2310
1223 1435 2426
1244 1466 2505
1292 1524 2581
2162 1418 712
2066 1647 1062
1806 1737 1509
1532 1729 1950
1396 1663 2284
1406 1653 2460
1423 1665 2572
1452 1697 2646
1498 1749 2707
2602 1816 1051
2540 1971 1319
2279 2031 1706
1945 2012 2118
1668 1934 2460
1637 1904 2619
1644 1909 2722
1677 1941 2788
1724 1988 2838
3084 2262 1408
3030 2326 1592
2803 2351 1904
2462 2329 2272
2066 2253 2622
1937 2188 2775
1897 2169 2868
1911 2181 2923
1943 2210 2960
3542 2688 1753
3453 2667 1851
3278 2659 2081
2992 2642 2396
2575 2593 2744
2321 2508 2918
2193 2445 3005
2146 2403 3041
2129 2382 3060
1408 336 153
1306 408 557
1204 555 1019
1055 679 1409
814 678 1596
725 728 1747
684 763 1865
681 795 1971
707 837 2084
1725 561 154
1637 652 624
1549 768 1118
1408 862 1551
1164 890 1836
993 939 1982
901 984 2088
875 1028 2180
901 1075 2281
1960 833 176
1865 976 672
1772 1084 1188
1640 1152 1657
1426 1171 2010
1234 1191 2174
1124 1223 2279
1087 1265 2359
1114 1314 2447
2161 1131 243
2044 1338 734
1927 1459 1255
1790 1508 1744
1613 1496 2139
1447 1476 2334
1347 1481 2446
1314 1511 2518
1346 1562 2595
2376 1432 382
2231 1697 841
2067 1847 1344
1898 1891 1831
1734 1839 2243
1631 1784 2474
1569 1760 2599
1556 1772 2670
1599 1827 2736
2673 1743 759
2544 1974 1103
2339 2098 1534
2091 2126 1989
1832 2065 2407
1794 2014 2610
1773 1993 2733
1777 2003 2807
1813 2045 2864
3018 2112 1152
2926 2269 1402
2727 2349 1752
2443 2361 2159
2095 2312 2578
2017 2247 2762
1994 2225 2876
2009 2237 2944
2045 2273 2993
3373 2495 1529
3309 2566 1698
3135 2590 1966
2860 2585 2315
2491 2569 2727
2309 2489 2906
2241 2457 3011
2241 2458 3070
2264 2478 3108
3704 2852 1856
3627 2847 1953
3468 2811 2141
3248 2788 2427
2986 2823 2819
2678 2748 3019
2522 2689 3124
2462 2649 3173
2442 2629 3198
1901 489 164
1784 542 538
1679 711 1001
1556 916 1450
1383 1080 1785
1193 1092 1911
1070 1084 1997
1002 1074 2069
977 1077 2152
2207 705 168
2136 774 615
2058 906 1110
1944 1070 1585
1760 1233 1974
1499 1296 2146
1319 1327 2245
1219 1344 2316
1201 1361 2404
2439 978 198
2371 1089 675
2303 1204 1185
2202 1324 1681
2038 1454 2114
1769 1528 2333
1570 1571 2450
1456 1601 2524
1442 1633 2611
2633 1288 277
2544 1453 747
2463 1569 1254
2367 1657 1758
2231 1735 2217
1998 1787 2483
1813 1821 2622
1703 1851 2700
1693 1895 2781
2827 1613 430
2710 1829 860
2592 1968 1342
2474 2042 1834
2356 2065 2298
2182 2074 2605
2038 2079 2769
1951 2098 2854
1948 2147 2922
3074 1956 784
2950 2179 1131
2797 2316 1532
2625 2383 1968
2444 2392 2415
2324 2359 2713
2233 2337 2888
2188 2339 2985
2204 2378 3047
3350 2346 1232
3251 2514 1480
3092 2608 1784
2887 2647 2144
2651 2650 2563
2508 2602 2853
2437 2571 3022
2420 2565 3112
2439 2589 3164
3620 2726 1680
3556 2822 1839
3409 2851 2047
3199 2848 2328
2946 2848 2705
2761 2811 2990
2675 2782 3148
2652 2767 3225
2656 2772 3266
3853 3039 2034
3810 3090 2139
3681 3055 2274
3500 3001 2482
3297 2995 2808
3105 2997 3093
2969 2971 3244
2887 2939 3311
2859 2924 3348
2323 657 182
2239 738 531
2158 933 981
2071 1179 1441
1972 1412 1822
1820 1484 1987
1691 1513 2099
1587 1508 2178
1505 1481 2245
2604 872 197
2569 946 621
2519 1103 1106
2443 1312 1589
2331 1547 2003
2130 1682 2220
1951 1766 2366
1806 1797 2465
1710 1773 2538
2831 1141 248
2797 1235 700
2761 1360 1197
2703 1519 1692
2603 1714 2141
2399 1872 2408
2202 1987 2586
2038 2048 2701
1933 2044 2780
3026 1452 357
2968 1578 793
2924 1688 1276
2874 1800 1771
2798 1932 2240
2619 2073 2556
2433 2191 2764
2271 2270 2893
2163 2292 2975
3208 1792 546
3127 1951 923
3051 2070 1369
2982 2157 1845
2924 2221 2309
2786 2305 2667
2633 2393 2903
2492 2469 3046
2389 2517 3125
3409 2154 903
3316 2335 1200
3209 2454 1554
3098 2530 1957
2994 2577 2399
2890 2596 2751
2781 2629 3000
2685 2670 3156
2617 2710 3230
3608 2537 1357
3528 2700 1569
3410 2795 1819
3271 2844 2129
3126 2872 2517
3007 2859 2859
2923 2855 3100
2866 2861 3249
2831 2879 3317
3791 2895 1819
3740 3023 1963
3631 3075 2120
3484 3083 2335
3315 3083 2652
3173 3068 2976
3093 3046 3195
3054 3029 3325
3035 3027 3385
3946 3180 2200
3930 3280 2314
3847 3277 2412
3716 3228 2554
3556 3190 2798
3424 3192 3090
3327 3178 3277
3265 3162 3383
3232 3157 3435
2648 818 199
2662 997 550
2648 1244 996
2624 1514 1451
2607 1764 1828
2566 1906 2035
2498 1983 2171
2414 2004 2255
2326 1978 2305
2905 1054 237
2925 1176 650
2926 1378 1129
2910 1625 1605
2879 1883 2008
2809 2075 2252
2706 2211 2435
2588 2274 2558
2473 2249 2621
3133 1329 325
3131 1424 751
3135 1574 1232
3132 1766 1716
3106 1987 2149
3026 2198 2436
2905 2377 2658
2764 2488 2810
2629 2493 2888
3335 1641 481
3303 1731 872
3296 1839 1326
3295 1968 1800
3282 2124 2251
3207 2317 2583
3084 2510 2839
2936 2657 3014
2787 2709 3105
3513 1986 724
3467 2086 1028
3428 2178 1429
3404 2264 1875
3403 2343 2314
3343 2476 2687
3233 2639 2976
3092 2792 3173
2938 2892 3273
3668 2352 1106
3622 2472 1315
3561 2556 1607
3500 2619 1968
3458 2680 2387
3409 2742 2755
3321 2834 3055
3207 2935 3266
3080 3022 3364
3797 2708 1540
3757 2845 1683
3687 2924 1870
3605 2967 2126
3525 2999 2476
3460 3017 2831
3385 3046 3123
3305 3084 3328
3223 3131 3421
3902 3024 1967
3878 3167 2079
3817 3234 2187
3729 3252 2344
3621 3246 2603
3529 3237 2927
3460 3223 3188
3407 3215 3369
3364 3224 3453
3988 3269 2327
3994 3401 2448
3957 3441 2524
3879 3419 2618
3760 3367 2792
3650 3336 3051
3581 3315 3257
3537 3304 3399
3500 3305 3468
2850 945 208
3047 1322 608
3160 1666 1082
3236 1969 1548
3319 2222 1926
3391 2356 2113
3436 2431 2212
3461 2470 2255
3475 2498 2274
3102 1240 285
3193 1469 705
3276 1752 1195
3349 2042 1677
3407 2291 2074
3456 2451 2289
3490 2573 2431
3514 2664 2524
3532 2731 2591
3341 1549 428
3358 1670 830
3414 1867 1301
3480 2093 1778
3528 2306 2198
3552 2480 2453
3563 2649 2637
3567 2804 2768
3571 2932 2866
3555 1874 649
3535 1932 986
3562 2044 1408
3610 2188 1861
3655 2342 2292
3658 2504 2593
3643 2697 2818
3618 2901 2982
3595 3098 3100
3730 2216 959
3717 2255 1175
3712 2314 1523
3723 2389 1937
3761 2474 2350
3754 2584 2693
3719 2754 2962
3668 2972 3161
3610 3226 3292
3840 2563 1382
3849 2623 1479
3839 2664 1696
3821 2703 2012
3810 2757 2407
3796 2815 2754
3755 2917 3042
3693 3074 3260
3617 3295 3399
3920 2880 1795
3937 2966 1837
3927 3008 1946
3897 3027 2150
3853 3050 2475
3811 3072 2819
3758 3113 3105
3693 3194 3320
3615 3332 3450
3969 3136 2147
3988 3251 2198
3982 3304 2249
3949 3315 2360
3886 3308 2591
3811 3297 2902
3741 3287 3161
3674 3297 3352
3609 3347 3463
3987 3298 2386
4007 3441 2511
4004 3510 2579
3973 3519 2653
3906 3486 2792
3804 3434 3018
3713 3383 3215
3643 3349 3368
3603 3346 3459
