src-tauri/resources/luts/电影胶片莱卡质感.cube
# Converted from .3dl using Python
LUT_3D_SIZE 9
DOMAIN_MIN 0.0 0.0 0.0
DOMAIN_MAX 1.0 1.0 1.0
0.047856 0.035892 0.043868
0.043868 0.035643 0.101695
0.043619 0.040130 0.161017
0.046610 0.048106 0.219093
0.052343 0.058325 0.272433
0.059571 0.069541 0.311067
0.066052 0.079262 0.336989
0.071286 0.086740 0.354437
0.075773 0.091725 0.367149
0.054088 0.045115 0.049352
0.046859 0.044367 0.117149
0.047109 0.048604 0.183200
0.052592 0.057827 0.245763
0.061316 0.071037 0.302841
0.071785 0.085992 0.345962
0.082004 0.099701 0.378863
0.091476 0.112413 0.405284
0.099950 0.124626 0.427717
0.060070 0.053589 0.058824
0.055583 0.059322 0.135095
0.055833 0.063809 0.207378
0.061316 0.072034 0.274177
0.071535 0.087737 0.334247
0.084497 0.105184 0.379860
0.097458 0.121386 0.416002
0.109422 0.137089 0.446411
0.119641 0.152792 0.474078
0.072034 0.065553 0.072283
0.069791 0.079511 0.156281
0.070289 0.085992 0.235045
0.075025 0.093220 0.306580
0.086740 0.109671 0.369143
0.100947 0.129860 0.415504
0.115653 0.147807 0.451894
0.129362 0.165005 0.482552
0.140578 0.182203 0.511216
0.096211 0.084746 0.089482
0.089980 0.104187 0.180459
0.089980 0.115155 0.267198
0.096461 0.124128 0.345214
0.110169 0.138584 0.410020
0.124626 0.162014 0.455633
0.140329 0.182203 0.490528
0.155533 0.200399 0.518694
0.168744 0.218096 0.544616
0.183450 0.142572 0.118644
0.162263 0.166251 0.218843
0.144317 0.175224 0.312562
0.137587 0.180209 0.395065
0.149302 0.191924 0.461366
0.168744 0.214855 0.505733
0.186690 0.237537 0.538634
0.202891 0.258724 0.563809
0.218594 0.277667 0.584496
0.347707 0.254487 0.177218
0.313061 0.278913 0.277168
0.264207 0.282154 0.374377
0.224078 0.277168 0.460120
0.215105 0.276919 0.523928
0.230309 0.291874 0.563061
0.247258 0.311565 0.591974
0.265703 0.333499 0.613659
0.285145 0.354686 0.630608
0.568544 0.416002 0.274177
0.525922 0.433948 0.359172
0.447906 0.429212 0.452393
0.369143 0.413011 0.537637
0.323779 0.397308 0.598704
0.322283 0.397807 0.629611
0.330010 0.407278 0.651296
0.343968 0.422483 0.666750
0.360917 0.439930 0.677966
0.826022 0.622632 0.418993
0.784646 0.623380 0.469840
0.694167 0.609920 0.546112
0.585743 0.586241 0.625374
0.492024 0.556830 0.684945
0.457378 0.537139 0.706630
0.442173 0.526670 0.717348
0.438684 0.522931 0.721336
0.438933 0.522931 0.722333
0.094217 0.040628 0.044616
0.073779 0.044865 0.117398
0.063809 0.051097 0.182951
0.062064 0.060319 0.243021
0.065803 0.073280 0.299103
0.074277 0.087238 0.342223
0.083250 0.099950 0.375872
0.091974 0.111914 0.403041
0.100947 0.123629 0.426720
0.119392 0.063809 0.048604
0.097458 0.079262 0.136839
0.087488 0.086491 0.213858
0.085494 0.091725 0.280907
0.087986 0.101695 0.339482
0.094965 0.114407 0.380608
0.103190 0.126620 0.412014
0.112164 0.138086 0.436191
0.120140 0.148804 0.455633
0.137338 0.083499 0.058574
0.113908 0.109920 0.155783
0.104187 0.118893 0.240778
0.103440 0.121884 0.314058
0.107178 0.129860 0.375872
0.115155 0.142074 0.417248
0.125125 0.155284 0.449153
0.136092 0.168993 0.475324
0.147059 0.183200 0.498754
0.158774 0.104935 0.075274
0.133848 0.139831 0.177218
0.122383 0.151296 0.268445
0.121386 0.153539 0.347208
0.128365 0.161017 0.411765
0.138833 0.174477 0.454636
0.150798 0.189182 0.487787
0.164257 0.205135 0.515703
0.178465 0.223081 0.543370
0.195414 0.132851 0.098953
0.167996 0.173230 0.203390
0.150299 0.186939 0.300349
0.145065 0.189930 0.384347
0.156032 0.198156 0.451147
0.168993 0.214606 0.495264
0.182951 0.230558 0.527418
0.197159 0.246760 0.552841
0.211366 0.264207 0.577019
0.290628 0.201894 0.139581
0.265454 0.239531 0.240030
0.226072 0.249751 0.341226
0.195912 0.248504 0.431206
0.197906 0.251246 0.498504
0.214357 0.268195 0.540130
0.229561 0.285643 0.570289
0.244267 0.303589 0.592722
0.259472 0.321286 0.611665
0.443669 0.316052 0.206381
0.421984 0.346959 0.292871
0.358923 0.351695 0.392572
0.293619 0.342722 0.485793
0.266201 0.333499 0.553091
0.274676 0.340977 0.589731
0.286889 0.354686 0.616152
0.301844 0.371884 0.635095
0.319043 0.390080 0.650299
0.632353 0.462612 0.299601
0.611166 0.481057 0.362911
0.531904 0.479063 0.452891
0.437188 0.463609 0.544616
0.370389 0.442173 0.612911
0.358923 0.434945 0.644317
0.360170 0.438435 0.665504
0.369890 0.448156 0.679212
0.383350 0.460867 0.689182
0.833499 0.628365 0.419741
0.806830 0.626620 0.450399
0.728814 0.618395 0.520937
0.624626 0.601944 0.604935
0.519442 0.575025 0.676221
0.475823 0.551844 0.704885
0.455135 0.537637 0.718843
0.448156 0.529163 0.723828
0.445414 0.524676 0.725075
0.159023 0.048355 0.042622
0.134347 0.062313 0.131605
0.111665 0.070289 0.206630
0.095464 0.078514 0.270937
0.089980 0.093220 0.328514
0.094965 0.108923 0.373131
0.102443 0.122632 0.409272
0.112164 0.136590 0.440678
0.123878 0.151545 0.470090
0.204387 0.085743 0.045115
0.178963 0.111665 0.150798
0.158774 0.121137 0.240778
0.143071 0.125125 0.316301
0.131605 0.133599 0.378116
0.128116 0.145065 0.416999
0.131107 0.157278 0.447657
0.138584 0.169741 0.472832
0.148554 0.181954 0.495264
0.239781 0.125374 0.053838
0.211366 0.164756 0.166999
0.190678 0.178215 0.267198
0.175972 0.178963 0.352193
0.165753 0.181206 0.419990
0.161515 0.187936 0.458624
0.164008 0.197906 0.487537
0.171735 0.209870 0.510718
0.182453 0.223330 0.532154
0.274925 0.165503 0.072532
0.243021 0.216351 0.185693
0.216849 0.233549 0.292124
0.199900 0.232802 0.384845
0.195414 0.230558 0.457129
0.194915 0.234048 0.498006
0.199651 0.242273 0.527169
0.208873 0.254487 0.550349
0.221585 0.270439 0.573031
0.319043 0.204387 0.105434
0.285394 0.260469 0.212363
0.246760 0.279910 0.321535
0.220588 0.279412 0.418993
0.223330 0.275922 0.491525
0.228315 0.280160 0.535394
0.236540 0.288634 0.565055
0.247507 0.301097 0.587238
0.260967 0.317298 0.608923
0.411266 0.274177 0.160020
0.387587 0.323779 0.254237
0.329761 0.338983 0.362413
0.275424 0.334746 0.463111
0.262961 0.326022 0.535145
0.273928 0.333998 0.576022
0.284646 0.344716 0.604187
0.296610 0.358175 0.624377
0.310070 0.373629 0.641077
0.544865 0.382353 0.234796
0.529661 0.418245 0.310070
0.460618 0.427218 0.410020
0.380110 0.418744 0.509472
0.331755 0.401545 0.583001
0.333001 0.401795 0.619641
0.340479 0.409272 0.644816
0.352193 0.421984 0.662263
0.366899 0.436939 0.675723
0.699153 0.511216 0.324526
0.685942 0.528415 0.376122
0.615404 0.530907 0.461366
0.520189 0.519940 0.554835
0.432702 0.496261 0.631356
0.411515 0.483799 0.665254
0.407278 0.482552 0.686690
0.413759 0.488784 0.699900
0.424477 0.498255 0.709123
0.852692 0.643320 0.424227
0.830259 0.638584 0.448405
0.770688 0.635843 0.513210
0.680957 0.626869 0.596211
0.568046 0.604187 0.675474
0.515204 0.581007 0.711615
0.489282 0.565055 0.729312
0.479811 0.554835 0.735793
0.476321 0.549103 0.738534
0.244018 0.062064 0.039631
0.220090 0.083001 0.140080
0.189432 0.098953 0.230558
0.158275 0.111665 0.306082
0.133101 0.123131 0.361416
0.128365 0.138584 0.403789
0.129611 0.151296 0.438435
0.136341 0.164008 0.469093
0.148056 0.178963 0.500249
0.308076 0.111166 0.041127
0.284895 0.139581 0.157527
0.259222 0.155284 0.262961
0.230060 0.164008 0.351695
0.197159 0.171984 0.417498
0.177218 0.183450 0.454885
0.170239 0.195663 0.484546
0.173230 0.208624 0.510219
0.183699 0.222333 0.536142
0.359422 0.169741 0.047856
0.333250 0.213111 0.170489
0.306331 0.231805 0.285892
0.277916 0.236540 0.386092
0.248006 0.236790 0.462861
0.225075 0.240279 0.501246
0.215354 0.248006 0.528166
0.216600 0.258724 0.549352
0.226072 0.271934 0.570538
0.406032 0.230060 0.067049
0.375374 0.287886 0.186191
0.340479 0.311316 0.306580
0.308574 0.313061 0.415254
0.286889 0.305334 0.499501
0.268943 0.301097 0.541625
0.261466 0.303589 0.568544
0.262961 0.311815 0.587238
0.272931 0.325274 0.605683
0.455384 0.284148 0.105434
0.421486 0.349202 0.212861
0.371386 0.376869 0.332502
0.328016 0.378116 0.444666
0.314806 0.364905 0.528664
0.306331 0.357178 0.575773
0.304835 0.357677 0.604686
0.310070 0.365404 0.624377
0.322034 0.379860 0.643320
0.538883 0.353440 0.177468
0.514955 0.410518 0.264706
0.450150 0.432951 0.376122
0.381854 0.430957 0.486042
0.347956 0.414506 0.569292
0.350449 0.412014 0.613160
0.354686 0.415005 0.641077
0.361914 0.422981 0.659521
0.373380 0.435942 0.674726
0.648554 0.452642 0.261964
0.633101 0.491276 0.328764
0.568046 0.506231 0.425224
0.484796 0.501496 0.527916
0.415753 0.482054 0.613160
0.408026 0.474576 0.652792
0.409771 0.475823 0.678465
0.417996 0.483799 0.694915
0.429711 0.495513 0.707378
0.768694 0.563809 0.350947
0.755234 0.579761 0.396810
0.698654 0.585992 0.474576
0.613659 0.580508 0.566301
0.514955 0.561565 0.653539
0.482802 0.545364 0.691675
0.472832 0.540628 0.714855
0.476321 0.543619 0.728564
0.484297 0.550847 0.737787
0.882851 0.669990 0.436939
0.860668 0.664756 0.461366
0.817049 0.662762 0.518694
0.745763 0.658524 0.597208
0.641825 0.646311 0.683948
0.578514 0.625125 0.727318
0.546610 0.609422 0.749003
0.534895 0.598953 0.757976
0.530658 0.593719 0.762712
0.350947 0.083749 0.038136
0.325523 0.101695 0.138833
0.300100 0.138335 0.253988
0.262961 0.169242 0.351196
0.202891 0.168993 0.397807
0.180708 0.181456 0.435444
0.170489 0.190179 0.464855
0.169741 0.198156 0.491276
0.176221 0.208624 0.519442
0.429960 0.139831 0.038385
0.408026 0.162512 0.155533
0.386092 0.191426 0.278664
0.350947 0.214855 0.386590
0.290130 0.221834 0.457627
0.247507 0.234048 0.494018
0.224576 0.245264 0.520439
0.218096 0.256231 0.543370
0.224576 0.267946 0.568544
0.488534 0.207627 0.043868
0.464855 0.243270 0.167498
0.441675 0.270189 0.296112
0.408774 0.287139 0.413011
0.355434 0.291874 0.500997
0.307577 0.296859 0.541874
0.280160 0.304835 0.568046
0.270937 0.315304 0.587986
0.277667 0.327517 0.609920
0.538634 0.281904 0.060568
0.509472 0.333499 0.182951
0.480309 0.363659 0.312812
0.446162 0.375872 0.434696
0.402044 0.372881 0.533151
0.360668 0.367896 0.581755
0.335743 0.369143 0.609671
0.327517 0.376620 0.627617
0.335494 0.389332 0.646810
0.592223 0.356929 0.095214
0.556082 0.422981 0.209621
0.515204 0.460369 0.334995
0.473081 0.471336 0.456381
0.432203 0.458375 0.559073
0.406530 0.444666 0.616650
0.391077 0.438684 0.647807
0.387836 0.441675 0.665504
0.398554 0.455384 0.681954
0.666251 0.434447 0.189182
0.634098 0.492024 0.274925
0.583001 0.522931 0.382353
0.521186 0.529910 0.495763
0.456630 0.514706 0.599950
0.447159 0.501994 0.650548
0.441924 0.496760 0.681206
0.442921 0.499252 0.699651
0.451894 0.509721 0.713858
0.752243 0.526421 0.287139
0.729312 0.565553 0.349452
0.679711 0.585494 0.436690
0.608923 0.588485 0.538136
0.522183 0.576271 0.642572
0.502742 0.560070 0.688435
0.497009 0.554586 0.716849
0.500748 0.557577 0.733799
0.509721 0.566550 0.746012
0.840728 0.621884 0.381107
0.824776 0.639581 0.423230
0.781406 0.645563 0.490030
0.712861 0.644317 0.577019
0.620887 0.640329 0.679711
0.575523 0.620389 0.724327
0.558574 0.612413 0.750499
0.558574 0.612662 0.765204
0.564307 0.617647 0.774676
0.923230 0.710867 0.462612
0.904038 0.709621 0.486790
0.864407 0.700648 0.533649
0.809571 0.694915 0.604935
0.744267 0.703639 0.702642
0.667498 0.684945 0.752493
0.628614 0.670239 0.778664
0.613659 0.660269 0.790877
0.608674 0.655284 0.797109
0.473829 0.121884 0.040877
0.444666 0.135095 0.134098
0.418495 0.177218 0.249501
0.387836 0.228315 0.361416
0.344716 0.269192 0.444915
0.297358 0.272183 0.476321
0.266700 0.270189 0.497757
0.249751 0.267697 0.515703
0.243519 0.268445 0.536391
0.550100 0.175723 0.041874
0.532403 0.192921 0.153290
0.512961 0.225823 0.276670
0.484546 0.266700 0.395065
0.438684 0.307328 0.492024
0.373629 0.323031 0.534895
0.328764 0.330758 0.559571
0.303838 0.334995 0.577268
0.299352 0.339232 0.599202
0.607926 0.243769 0.049352
0.590977 0.271436 0.168245
0.574028 0.300100 0.295364
0.548853 0.330010 0.418993
0.507976 0.362413 0.526919
0.440927 0.380857 0.581505
0.391326 0.391575 0.610668
0.362911 0.399053 0.629113
0.359422 0.407029 0.650798
0.656281 0.321037 0.069043
0.634098 0.362164 0.186191
0.613908 0.391077 0.312562
0.589980 0.413011 0.438185
0.556082 0.432453 0.552592
0.498006 0.445414 0.618893
0.451894 0.453888 0.653539
0.424477 0.461366 0.672981
0.421984 0.472333 0.693170
0.704636 0.402044 0.107178
0.675474 0.455882 0.214357
0.646062 0.490528 0.334496
0.616650 0.508973 0.457129
0.587238 0.514706 0.572782
0.543868 0.516949 0.649302
0.507976 0.518195 0.690179
0.486291 0.522931 0.711366
0.485543 0.535145 0.728315
0.766201 0.487537 0.195414
0.735294 0.543121 0.281904
0.697159 0.577268 0.381854
0.654287 0.593968 0.490528
0.609172 0.596211 0.601944
0.579262 0.587986 0.676221
0.556580 0.582502 0.719840
0.545364 0.583001 0.744018
0.549352 0.592722 0.759472
0.834995 0.584746 0.307079
0.810319 0.626620 0.368893
0.770688 0.650050 0.444666
0.719591 0.659771 0.534397
0.660768 0.660518 0.638834
0.625125 0.648554 0.711117
0.607428 0.640828 0.753240
0.603190 0.639332 0.775673
0.607926 0.645314 0.788634
0.902293 0.679462 0.418744
0.886341 0.703390 0.458375
0.849701 0.710618 0.510219
0.797358 0.709870 0.580259
0.734297 0.709870 0.674227
0.688185 0.700648 0.745264
0.666750 0.693420 0.784646
0.661017 0.689681 0.803838
0.662014 0.690927 0.814058
0.960369 0.757478 0.506979
0.949651 0.770189 0.533151
0.917498 0.761466 0.566800
0.872383 0.748006 0.618644
0.821785 0.746510 0.699900
0.773928 0.747009 0.770937
0.740030 0.740528 0.808574
0.719591 0.732552 0.825274
0.712612 0.728814 0.834496
0.579013 0.163759 0.045364
0.558076 0.183948 0.132353
0.537886 0.232552 0.244516
0.516201 0.293868 0.359172
0.491525 0.351944 0.454138
0.453639 0.369890 0.495264
0.421486 0.377119 0.523180
0.395563 0.375872 0.542871
0.375125 0.369143 0.559571
0.649053 0.217348 0.049103
0.640329 0.235793 0.154786
0.627866 0.274925 0.275673
0.608923 0.327019 0.396062
0.581007 0.385593 0.499252
0.530907 0.419242 0.553340
0.486291 0.440179 0.589731
0.450150 0.447906 0.614407
0.426221 0.441924 0.632602
0.705633 0.284397 0.061815
0.697159 0.307827 0.174477
0.688185 0.338983 0.298355
0.673729 0.378614 0.421735
0.648804 0.427218 0.533649
0.597956 0.466600 0.600199
0.548853 0.495264 0.644566
0.507976 0.510469 0.673230
0.481805 0.509472 0.692921
0.754237 0.361914 0.088983
0.739781 0.393320 0.197657
0.728814 0.420738 0.318046
0.716351 0.448654 0.441426
0.697408 0.481555 0.558325
0.652792 0.516700 0.637089
0.606431 0.546112 0.688933
0.566052 0.565803 0.721087
0.539133 0.571286 0.741525
0.799601 0.446660 0.136092
0.779412 0.486291 0.230060
0.760469 0.515952 0.341226
0.743270 0.537637 0.459870
0.728814 0.553589 0.575523
0.694417 0.574526 0.664756
0.656281 0.596461 0.723579
0.621137 0.615404 0.759222
0.595464 0.627368 0.778913
0.849701 0.536889 0.225075
0.826520 0.582004 0.299103
0.799850 0.611665 0.387338
0.772183 0.630608 0.487787
0.746261 0.642323 0.597956
0.720339 0.647059 0.685693
0.693170 0.655284 0.747757
0.669242 0.665504 0.786640
0.652293 0.675474 0.805085
0.899302 0.632353 0.338235
0.879362 0.672981 0.391077
0.849950 0.696660 0.453390
0.815304 0.708873 0.530658
0.779163 0.715852 0.627368
0.749501 0.712612 0.712612
0.728564 0.711615 0.772682
0.714357 0.713111 0.809821
0.705633 0.717597 0.826770
0.944915 0.721585 0.453390
0.932203 0.753490 0.489282
0.905035 0.766451 0.528415
0.868395 0.768445 0.582004
0.826271 0.768445 0.661017
0.790877 0.764706 0.741775
0.770937 0.759222 0.796361
0.761216 0.754985 0.828764
0.756481 0.754487 0.843719
0.983549 0.792622 0.548355
0.979561 0.817547 0.576770
0.958873 0.816800 0.601196
0.926221 0.804586 0.636590
0.886341 0.795115 0.697408
0.853440 0.795613 0.770189
0.829262 0.792124 0.816800
0.813809 0.788136 0.843220
0.805583 0.786889 0.856181
0.660020 0.203888 0.049601
0.663509 0.248504 0.137089
0.660020 0.310070 0.248255
0.654038 0.377368 0.361665
0.649801 0.439681 0.455633
0.639581 0.475075 0.507228
0.622632 0.494267 0.541127
0.601695 0.499501 0.562064
0.579761 0.493021 0.574526
0.724078 0.262712 0.059073
0.729063 0.293121 0.162014
0.729312 0.343470 0.281406
0.725324 0.405035 0.400050
0.717597 0.469342 0.500499
0.700150 0.517198 0.561316
0.674477 0.551097 0.606929
0.645065 0.566800 0.637587
0.616401 0.560568 0.653290
0.780907 0.331256 0.081007
0.780409 0.354935 0.187188
0.781406 0.392323 0.307079
0.780658 0.440179 0.427717
0.774177 0.495264 0.535643
0.754237 0.547856 0.607178
0.724078 0.592473 0.662512
0.688933 0.620140 0.700399
0.655284 0.621386 0.719840
0.831256 0.409023 0.119890
0.823280 0.431456 0.217348
0.821535 0.458375 0.330508
0.821286 0.490528 0.448654
0.818046 0.529412 0.561067
0.799352 0.577517 0.643819
0.768694 0.625623 0.707627
0.731805 0.662263 0.751246
0.694666 0.675224 0.773928
0.875623 0.495015 0.180459
0.864157 0.519940 0.256231
0.854437 0.542871 0.356181
0.848455 0.564307 0.467348
0.848205 0.583998 0.576770
0.833250 0.617149 0.669741
0.805833 0.657777 0.741775
0.770688 0.695912 0.790877
0.732303 0.720837 0.815803
0.914257 0.586241 0.275673
0.902792 0.616152 0.327767
0.887587 0.637089 0.400548
0.872383 0.652792 0.490528
0.861914 0.667996 0.594965
0.849701 0.683450 0.686690
0.827767 0.706381 0.761466
0.799352 0.731555 0.814058
0.767697 0.753240 0.838485
0.946411 0.674975 0.383848
0.936441 0.709123 0.419492
0.918993 0.728814 0.466102
0.898554 0.739531 0.529910
0.878614 0.747507 0.617149
0.862413 0.751994 0.705633
0.843719 0.759222 0.778415
0.823779 0.768694 0.829511
0.803340 0.780409 0.852692
0.972582 0.753739 0.490279
0.966600 0.789382 0.518195
0.951396 0.806082 0.545115
0.929462 0.810568 0.584247
0.902542 0.809073 0.648804
0.879611 0.806830 0.729561
0.862413 0.803340 0.794616
0.849202 0.801346 0.839731
0.838485 0.803589 0.860668
0.994018 0.814806 0.580010
0.995513 0.847707 0.610169
0.986291 0.857677 0.629113
0.966849 0.852193 0.652542
0.937188 0.839232 0.695912
0.909771 0.831505 0.760469
0.892572 0.826271 0.811815
0.881605 0.823529 0.847208
0.872383 0.823779 0.864407
0.710369 0.235543 0.051844
0.759472 0.329511 0.151545
0.787637 0.415254 0.269691
0.806580 0.490778 0.385842
0.827268 0.553838 0.480060
0.845214 0.587238 0.526670
0.856431 0.605932 0.551346
0.862662 0.615653 0.562064
0.866152 0.622632 0.566800
0.773180 0.309073 0.071037
0.795862 0.366152 0.175723
0.816550 0.436690 0.297856
0.834746 0.508973 0.417996
0.849202 0.571037 0.516949
0.861416 0.610917 0.570538
0.869890 0.641326 0.605932
0.875872 0.664008 0.629113
0.880359 0.680708 0.645813
0.832752 0.386092 0.106680
0.836989 0.416251 0.206879
0.850947 0.465354 0.324277
0.867398 0.521685 0.443170
0.879362 0.574776 0.547856
0.885344 0.618146 0.611416
0.888086 0.660269 0.657278
0.889083 0.698903 0.689930
0.890080 0.730808 0.714357
0.886092 0.467099 0.161765
0.881107 0.481555 0.245763
0.887837 0.509472 0.350947
0.899801 0.545364 0.463858
0.911017 0.583749 0.571286
0.911765 0.624128 0.646311
0.908026 0.672233 0.702393
0.901795 0.723081 0.743270
0.896062 0.772183 0.772682
0.929711 0.552343 0.239033
0.926471 0.562064 0.292871
0.925224 0.576770 0.379611
0.927966 0.595464 0.482802
0.937438 0.616650 0.585743
0.935693 0.644068 0.671236
0.926969 0.686441 0.738285
0.914257 0.740778 0.787886
0.899801 0.804088 0.820538
0.957129 0.638834 0.344467
0.959372 0.653789 0.368644
0.956879 0.664008 0.422732
0.952393 0.673729 0.501496
0.949651 0.687188 0.599950
0.946162 0.701645 0.686441
0.935942 0.727069 0.758225
0.920489 0.766201 0.812562
0.901545 0.821286 0.847208
0.977069 0.717846 0.447408
0.981306 0.739282 0.457876
0.978814 0.749751 0.485045
0.971336 0.754487 0.535892
0.960369 0.760219 0.616899
0.949900 0.765703 0.702642
0.936690 0.775922 0.773928
0.920489 0.796112 0.827517
0.901047 0.830508 0.859920
0.989282 0.781655 0.535145
0.994018 0.810319 0.547856
0.992522 0.823529 0.560568
0.984297 0.826271 0.588235
0.968594 0.824526 0.645813
0.949900 0.821785 0.723330
0.932453 0.819292 0.787886
0.915753 0.821785 0.835494
0.899551 0.834247 0.863160
0.993769 0.822034 0.594716
0.998754 0.857677 0.625872
0.998006 0.874875 0.642822
0.990279 0.877119 0.661266
0.973579 0.868893 0.695912
0.948156 0.855932 0.752243
0.925474 0.843220 0.801346
0.908026 0.834746 0.839482
0.898056 0.833998 0.862163
