src-tauri/resources/luts/电影胶片莱卡质感.cube
# Converted from .3dl using Python
LUT_3D_SIZE 17
DOMAIN_MIN 0.0 0.0 0.0
DOMAIN_MAX 1.0 1.0 1.0
0.047856 0.035892 0.043868
0.045862 0.035892 0.072782
0.043868 0.035643 0.101695
0.042622 0.036640 0.130857
0.043619 0.040130 0.161017
0.044367 0.043619 0.191426
0.046610 0.048106 0.219093
0.049352 0.053091 0.245763
0.052343 0.058325 0.272433
0.056082 0.063809 0.291874
0.059571 0.069541 0.311067
0.063061 0.074776 0.327268
0.066052 0.079262 0.336989
0.068794 0.083499 0.346959
0.071286 0.086740 0.354437
0.073529 0.089232 0.360917
0.075773 0.091725 0.367149
0.050847 0.040379 0.046610
0.048106 0.040130 0.078016
0.045364 0.039880 0.109422
0.043868 0.040877 0.140828
0.045364 0.044367 0.172233
0.046610 0.047856 0.203639
0.049601 0.052841 0.232552
0.053091 0.058824 0.259970
0.056830 0.064556 0.287637
0.061316 0.071286 0.308076
0.065803 0.077767 0.328514
0.070040 0.083998 0.346211
0.074028 0.089482 0.357926
0.078016 0.094965 0.369890
0.081505 0.099452 0.379860
0.084497 0.103938 0.388584
0.087737 0.108175 0.397557
0.054088 0.045115 0.049352
0.050598 0.044616 0.083250
0.046859 0.044367 0.117149
0.045364 0.045115 0.150548
0.047109 0.048604 0.183200
0.049103 0.052343 0.215852
0.052592 0.057827 0.245763
0.056830 0.064307 0.274427
0.061316 0.071037 0.302841
0.066550 0.078514 0.324526
0.071785 0.085992 0.345962
0.077019 0.092971 0.364905
0.082004 0.099701 0.378863
0.086989 0.106181 0.393071
0.091476 0.112413 0.405284
0.095713 0.118644 0.416501
0.099950 0.124626 0.427717
0.057079 0.049601 0.053091
0.053589 0.049850 0.089232
0.049850 0.050100 0.125623
0.048106 0.051595 0.161017
0.050349 0.054586 0.194915
0.052343 0.057827 0.228814
0.056331 0.063809 0.259721
0.061067 0.071037 0.288883
0.066052 0.078265 0.318295
0.072034 0.086491 0.340728
0.078016 0.094716 0.363161
0.083998 0.102692 0.383101
0.089980 0.110169 0.398804
0.095713 0.117647 0.414257
0.100947 0.125125 0.428215
0.105932 0.132602 0.441176
0.110917 0.139831 0.454387
0.060070 0.053589 0.058824
0.057827 0.056331 0.096959
0.055583 0.059322 0.135095
0.054586 0.061815 0.172233
0.055833 0.063809 0.207378
0.057328 0.066052 0.242522
0.061316 0.072034 0.274177
0.066301 0.079761 0.304337
0.071535 0.087737 0.334247
0.078016 0.096461 0.356929
0.084497 0.105184 0.379860
0.090977 0.113659 0.400299
0.097458 0.121386 0.416002
0.103689 0.129362 0.431705
0.109422 0.137089 0.446411
0.114407 0.145065 0.460120
0.119641 0.152792 0.474078
0.063061 0.057827 0.064556
0.062064 0.063061 0.104686
0.061316 0.068295 0.144816
0.060818 0.072034 0.183699
0.061565 0.073280 0.220090
0.062313 0.074277 0.256231
0.066301 0.080259 0.288883
0.071535 0.088485 0.319541
0.077019 0.096959 0.350199
0.083998 0.106181 0.373380
0.090977 0.115653 0.396311
0.097956 0.124626 0.417248
0.104935 0.132602 0.433200
0.111914 0.140828 0.449402
0.117647 0.149302 0.464357
0.123131 0.157527 0.479063
0.128365 0.166002 0.493519
0.072034 0.065553 0.072283
0.071037 0.072532 0.114158
0.069791 0.079511 0.156281
0.069292 0.084497 0.196909
0.070289 0.085992 0.235045
0.071037 0.087238 0.273180
0.075025 0.093220 0.306580
0.080758 0.101446 0.337737
0.086740 0.109671 0.369143
0.093719 0.119641 0.392323
0.100947 0.129860 0.415504
0.108175 0.139332 0.436191
0.115653 0.147807 0.451894
0.122881 0.156530 0.467597
0.129362 0.165005 0.482552
0.135095 0.173729 0.496760
0.140578 0.182203 0.511216
0.084247 0.075025 0.080758
0.082004 0.083499 0.124626
0.080010 0.091725 0.168245
0.079013 0.098205 0.210867
0.080010 0.100449 0.250997
0.081256 0.102941 0.291376
0.085743 0.108674 0.325773
0.091974 0.116401 0.357677
0.098455 0.124128 0.389581
0.105683 0.135095 0.412512
0.112662 0.146062 0.435444
0.120140 0.156281 0.455882
0.127866 0.165005 0.471087
0.135593 0.173978 0.486291
0.142323 0.182702 0.500499
0.148554 0.191426 0.514207
0.154786 0.200150 0.527916
0.096211 0.084746 0.089482
0.093220 0.094467 0.135095
0.089980 0.104187 0.180459
0.088485 0.111665 0.224826
0.089980 0.115155 0.267198
0.091476 0.118395 0.309322
0.096461 0.124128 0.345214
0.103440 0.131356 0.377617
0.110169 0.138584 0.410020
0.117398 0.150299 0.432951
0.124626 0.162014 0.455633
0.132104 0.172981 0.475823
0.140329 0.182203 0.490528
0.148305 0.191426 0.504985
0.155533 0.200399 0.518694
0.162014 0.209123 0.531655
0.168744 0.218096 0.544616
0.139831 0.113659 0.103938
0.132851 0.124377 0.151795
0.126122 0.135095 0.199651
0.120389 0.143071 0.246261
0.117149 0.145065 0.289880
0.113908 0.147308 0.333749
0.117149 0.152293 0.370140
0.123380 0.158774 0.402792
0.129611 0.165254 0.435693
0.138086 0.176969 0.458126
0.146810 0.188435 0.480558
0.155035 0.199651 0.500499
0.163509 0.209870 0.514457
0.171735 0.220090 0.528664
0.179212 0.229561 0.541127
0.186441 0.238784 0.552841
0.193669 0.247757 0.564556
0.183450 0.142572 0.118644
0.172732 0.154287 0.168744
0.162263 0.166251 0.218843
0.152293 0.174227 0.267448
0.144317 0.175224 0.312562
0.136341 0.176221 0.357926
0.137587 0.180209 0.395065
0.143320 0.186191 0.428215
0.149302 0.191924 0.461366
0.159023 0.203390 0.483549
0.168744 0.214855 0.505733
0.178215 0.226321 0.525174
0.186690 0.237537 0.538634
0.194915 0.248754 0.552094
0.202891 0.258724 0.563809
0.210867 0.268195 0.574028
0.218594 0.277667 0.584496
0.246261 0.184945 0.140578
0.232054 0.197408 0.191924
0.217846 0.209870 0.243021
0.203390 0.217846 0.292871
0.187936 0.217099 0.339482
0.172483 0.216102 0.386092
0.169492 0.218594 0.423729
0.172483 0.222582 0.456630
0.175474 0.226321 0.489781
0.185444 0.236790 0.511216
0.195165 0.247258 0.532652
0.204885 0.258225 0.551097
0.213360 0.269691 0.564058
0.222084 0.281406 0.577019
0.230558 0.291874 0.587488
0.239033 0.301844 0.596710
0.247757 0.311815 0.606181
0.347707 0.254487 0.177218
0.330259 0.266700 0.227069
0.313061 0.278913 0.277168
0.292124 0.285643 0.326271
0.264207 0.282154 0.374377
0.236291 0.278415 0.422732
0.224078 0.277168 0.460120
0.219591 0.276919 0.492024
0.215105 0.276919 0.523928
0.222582 0.284397 0.543619
0.230309 0.291874 0.563061
0.238534 0.300598 0.580010
0.247258 0.311565 0.591974
0.256231 0.322782 0.603938
0.265703 0.333499 0.613659
0.275424 0.344217 0.622134
0.285145 0.354686 0.630608
0.448903 0.324028 0.213858
0.428465 0.335992 0.262463
0.408026 0.347707 0.311067
0.381107 0.353440 0.359920
0.340479 0.347208 0.409521
0.300100 0.340728 0.459123
0.278664 0.335743 0.496261
0.266700 0.331505 0.527418
0.254487 0.327268 0.558325
0.259970 0.331755 0.576022
0.265454 0.336491 0.593719
0.272183 0.342971 0.609172
0.281406 0.353440 0.620140
0.290628 0.363908 0.631107
0.300847 0.375125 0.639831
0.311565 0.386590 0.647308
0.322283 0.397807 0.654786
0.568544 0.416002 0.274177
0.547358 0.424975 0.316800
0.525922 0.433948 0.359172
0.495763 0.437188 0.403789
0.447906 0.429212 0.452393
0.400050 0.421236 0.501246
0.369143 0.413011 0.537637
0.346461 0.405035 0.568046
0.323779 0.397308 0.598704
0.323031 0.397557 0.614157
0.322283 0.397807 0.629611
0.323779 0.400299 0.642822
0.330010 0.407278 0.651296
0.336491 0.414257 0.660020
0.343968 0.422483 0.666750
0.352443 0.431206 0.672233
0.360917 0.439930 0.677966
0.697408 0.519442 0.346710
0.676221 0.523928 0.380608
0.655284 0.528664 0.414506
0.623878 0.528664 0.452642
0.571037 0.519442 0.499252
0.518195 0.510469 0.545862
0.477567 0.499751 0.581505
0.442672 0.488285 0.611665
0.408026 0.477069 0.641825
0.398804 0.472333 0.655035
0.389830 0.467597 0.667996
0.384347 0.464855 0.678714
0.386092 0.467099 0.684447
0.388086 0.469093 0.689930
0.391326 0.472582 0.693918
0.395563 0.477069 0.696909
0.399801 0.481306 0.700150
0.826022 0.622632 0.418993
0.805334 0.623131 0.444417
0.784646 0.623380 0.469840
0.751745 0.620140 0.501745
0.694167 0.609920 0.546112
0.636341 0.599701 0.590728
0.585743 0.586241 0.625374
0.538883 0.571535 0.655035
0.492024 0.556830 0.684945
0.474576 0.547109 0.695663
0.457378 0.537139 0.706630
0.444915 0.529661 0.714606
0.442173 0.526670 0.717348
0.439681 0.523928 0.720090
0.438684 0.522931 0.721336
0.438933 0.522931 0.721834
0.438933 0.522931 0.722333
0.071037 0.038136 0.044118
0.064806 0.039382 0.076770
0.058824 0.040379 0.109422
0.054337 0.042124 0.141575
0.053589 0.045613 0.171984
0.053091 0.049103 0.202642
0.054337 0.054088 0.231057
0.056580 0.060070 0.258475
0.059073 0.065803 0.285892
0.063061 0.072034 0.306331
0.067049 0.078514 0.326770
0.070788 0.084247 0.344467
0.074526 0.089731 0.356431
0.078265 0.094965 0.368644
0.081755 0.099452 0.378863
0.084995 0.103440 0.387836
0.088485 0.107677 0.396810
0.079013 0.046361 0.046610
0.072283 0.048604 0.082502
0.065553 0.051097 0.118146
0.060818 0.053589 0.153041
0.060568 0.056580 0.185194
0.060070 0.059571 0.217597
0.061815 0.064556 0.247258
0.064307 0.070289 0.275424
0.066800 0.076022 0.303589
0.071037 0.082752 0.324277
0.075274 0.089232 0.344965
0.079262 0.095464 0.363161
0.083499 0.101446 0.376122
0.087737 0.107178 0.388833
0.091725 0.112164 0.399801
0.095464 0.117149 0.409521
0.099202 0.122134 0.419242
0.086740 0.054337 0.048853
0.079511 0.058076 0.087986
0.072283 0.061815 0.127119
0.067298 0.065055 0.164506
0.067298 0.067547 0.198654
0.067298 0.070040 0.232552
0.069043 0.074776 0.263460
0.071785 0.080508 0.292373
0.074526 0.086491 0.321286
0.079013 0.093220 0.342223
0.083250 0.100199 0.363410
0.087986 0.106680 0.381854
0.092722 0.113161 0.395563
0.097458 0.119392 0.409023
0.101695 0.125125 0.420738
0.105932 0.130857 0.431206
0.110169 0.136590 0.441675
0.093719 0.062064 0.052592
0.086241 0.067547 0.094217
0.078764 0.072782 0.136092
0.073779 0.077268 0.175723
0.073779 0.079013 0.211615
0.074028 0.081007 0.247258
0.076022 0.085494 0.279163
0.079013 0.091226 0.308824
0.082253 0.097208 0.338485
0.086989 0.104187 0.359920
0.091476 0.111416 0.381356
0.096461 0.118395 0.400299
0.101695 0.125374 0.414506
0.107178 0.132104 0.428714
0.111914 0.138584 0.441176
0.116650 0.145314 0.452642
0.121386 0.151795 0.464108
0.098704 0.068544 0.058824
0.091725 0.076520 0.102193
0.084746 0.084497 0.145563
0.080010 0.090229 0.186939
0.080010 0.091476 0.224078
0.080010 0.092473 0.261466
0.082253 0.096959 0.294118
0.085992 0.102941 0.324526
0.089482 0.108674 0.354935
0.094716 0.116152 0.376869
0.099950 0.123629 0.398554
0.105434 0.131107 0.417996
0.111166 0.138335 0.432702
0.117149 0.145563 0.447408
0.122632 0.153041 0.460867
0.128116 0.160518 0.473579
0.133350 0.167996 0.486291
0.103689 0.075025 0.064806
0.097208 0.085743 0.109920
0.090728 0.096211 0.155035
0.086241 0.103440 0.198156
0.086241 0.103689 0.236790
0.085992 0.104187 0.275424
0.088734 0.108425 0.309322
0.092722 0.114407 0.340479
0.096461 0.120389 0.371635
0.102443 0.128116 0.393569
0.108175 0.135842 0.415753
0.114158 0.143819 0.435693
0.120638 0.151545 0.450897
0.127119 0.159272 0.465852
0.133350 0.167498 0.480309
0.139332 0.175972 0.494516
0.145314 0.184447 0.508724
0.115404 0.085244 0.073779
0.108674 0.097458 0.120140
0.101695 0.109671 0.166750
0.096959 0.118146 0.211117
0.096211 0.118644 0.251745
0.095464 0.119143 0.292124
0.098205 0.123380 0.326770
0.102941 0.129362 0.358674
0.107428 0.135344 0.390329
0.113659 0.143819 0.412762
0.119890 0.152044 0.434945
0.126371 0.160518 0.454885
0.133350 0.168495 0.469840
0.140080 0.176720 0.484796
0.146810 0.185194 0.499252
0.153290 0.193918 0.513210
0.159521 0.202642 0.527169
0.130608 0.096959 0.083998
0.123131 0.110668 0.131605
0.115404 0.124128 0.179462
0.109920 0.133599 0.225324
0.108175 0.134845 0.267697
0.106431 0.136092 0.310070
0.109671 0.140329 0.345713
0.114905 0.146062 0.378116
0.120389 0.151795 0.410518
0.126869 0.161017 0.432951
0.133350 0.170239 0.455135
0.140080 0.179212 0.474826
0.147308 0.187438 0.489282
0.154786 0.195663 0.503739
0.161515 0.204387 0.517448
0.168245 0.213111 0.530658
0.174726 0.221834 0.544118
0.145813 0.108674 0.094217
0.137338 0.123629 0.143071
0.129113 0.138584 0.191924
0.122632 0.149302 0.239282
0.120140 0.151047 0.283649
0.117647 0.152792 0.328016
0.120887 0.157029 0.364905
0.126869 0.162762 0.397807
0.133101 0.168495 0.430708
0.139831 0.178465 0.452891
0.146810 0.188435 0.475324
0.153789 0.197906 0.495015
0.161515 0.206381 0.508973
0.169242 0.214855 0.522682
0.176221 0.223579 0.535643
0.183200 0.232303 0.548355
0.190179 0.241276 0.560818
0.191426 0.140578 0.111665
0.181456 0.155533 0.161266
0.171486 0.170738 0.210867
0.161765 0.180957 0.259222
0.152792 0.181705 0.305334
0.143569 0.182453 0.351446
0.143819 0.185693 0.389083
0.148554 0.190429 0.422233
0.153290 0.194915 0.455135
0.161266 0.204885 0.477318
0.169242 0.214855 0.499252
0.176969 0.224576 0.518195
0.184696 0.234048 0.531655
0.192423 0.243270 0.545115
0.199900 0.252243 0.557079
0.207378 0.261216 0.568295
0.214606 0.270189 0.579511
0.237039 0.172233 0.129113
0.225324 0.187438 0.179212
0.213858 0.202891 0.229561
0.200897 0.212861 0.278913
0.185194 0.212612 0.327019
0.169492 0.212114 0.374875
0.166750 0.214357 0.413260
0.170239 0.217846 0.446411
0.173729 0.221585 0.479811
0.182702 0.231555 0.501496
0.191675 0.241525 0.522931
0.200150 0.251496 0.541625
0.208126 0.261466 0.554337
0.215852 0.271685 0.567298
0.223579 0.281157 0.578265
0.231306 0.290379 0.588235
0.239033 0.299352 0.598205
0.299352 0.216351 0.153539
0.286391 0.231306 0.203141
0.273430 0.246510 0.252742
0.256730 0.255733 0.302343
0.233051 0.253988 0.351944
0.209372 0.252243 0.401296
0.201147 0.252742 0.440179
0.200897 0.254237 0.473579
0.200399 0.255733 0.506979
0.209372 0.264706 0.527667
0.218096 0.273430 0.548106
0.226570 0.282901 0.566052
0.234546 0.293370 0.578265
0.242273 0.303589 0.590479
0.250499 0.313310 0.600449
0.258724 0.322782 0.609172
0.266949 0.332253 0.617896
0.395563 0.285394 0.191924
0.381605 0.299103 0.238534
0.367398 0.312812 0.284895
0.346461 0.320788 0.333001
0.311565 0.316800 0.383599
0.276670 0.312812 0.434197
0.258973 0.310070 0.472832
0.249751 0.307577 0.505733
0.240528 0.305085 0.538634
0.246510 0.310818 0.557577
0.252493 0.316301 0.576520
0.259222 0.323529 0.592722
0.267198 0.333250 0.603938
0.275174 0.342971 0.615404
0.283898 0.352692 0.624377
0.292871 0.362662 0.632353
0.302094 0.372383 0.640329
0.492024 0.354187 0.230060
0.476820 0.366899 0.273679
0.461615 0.379362 0.317298
0.436191 0.385842 0.363410
0.390080 0.379611 0.415254
0.343968 0.373629 0.466849
0.316550 0.367398 0.505484
0.298604 0.360917 0.537886
0.280658 0.354437 0.570289
0.283898 0.356929 0.587488
0.287139 0.359422 0.604686
0.291874 0.363908 0.619641
0.299850 0.373131 0.629860
0.307827 0.382104 0.640080
0.317049 0.392074 0.648305
0.327019 0.402293 0.655533
0.336989 0.412512 0.662762
0.600449 0.439182 0.287139
0.584496 0.448405 0.324028
0.568544 0.457378 0.361167
0.541127 0.461117 0.402542
0.490030 0.454138 0.452642
0.438933 0.446909 0.502991
0.403041 0.438435 0.541127
0.375125 0.428963 0.573280
0.346959 0.419741 0.605683
0.343719 0.417996 0.621386
0.340479 0.416501 0.637089
0.339980 0.417248 0.650050
0.345214 0.422732 0.658275
0.350199 0.428465 0.666750
0.356929 0.435444 0.672981
0.364656 0.442921 0.678215
0.372134 0.450399 0.683450
0.715105 0.532403 0.353190
0.698654 0.536889 0.381854
0.682203 0.541127 0.410518
0.653539 0.541625 0.445663
0.600698 0.534148 0.493021
0.547856 0.526670 0.540628
0.504237 0.516201 0.578016
0.465354 0.504487 0.610668
0.426471 0.492772 0.643071
0.415005 0.486540 0.657278
0.403539 0.480558 0.671236
0.396062 0.476570 0.682702
0.396810 0.477567 0.688185
0.397557 0.478315 0.693918
0.400299 0.480808 0.697657
0.403789 0.483799 0.700648
0.407278 0.487039 0.703639
0.829761 0.625623 0.419242
0.812812 0.625125 0.439681
0.795862 0.624875 0.460120
0.766201 0.622134 0.488534
0.711366 0.614157 0.533400
0.656530 0.606181 0.578265
0.605184 0.594217 0.615155
0.555334 0.580010 0.647807
0.505733 0.565803 0.680459
0.486042 0.555334 0.693170
0.466600 0.544616 0.705633
0.452144 0.536142 0.715105
0.448654 0.532154 0.718096
0.444915 0.528166 0.721087
0.443420 0.526172 0.722582
0.442921 0.524925 0.723081
0.442173 0.523679 0.723579
0.094217 0.040628 0.044616
0.083998 0.042622 0.081007
0.073779 0.044865 0.117398
0.066052 0.047607 0.152044
0.063809 0.051097 0.182951
0.061565 0.054835 0.213858
0.062064 0.060319 0.243021
0.064058 0.066800 0.270937
0.065803 0.073280 0.299103
0.070040 0.080259 0.320788
0.074277 0.087238 0.342223
0.078764 0.093968 0.361665
0.083250 0.099950 0.375872
0.087488 0.106181 0.390329
0.091974 0.111914 0.403041
0.096461 0.117647 0.414756
0.100947 0.123629 0.426720
0.106929 0.052094 0.046610
0.096211 0.057079 0.086989
0.085494 0.062064 0.127119
0.077767 0.066301 0.165005
0.075773 0.068794 0.198405
0.073529 0.071286 0.231555
0.073779 0.076022 0.261964
0.075274 0.081755 0.290628
0.076770 0.087488 0.319292
0.080758 0.094217 0.340479
0.084746 0.100698 0.361416
0.088734 0.107178 0.380110
0.093220 0.113410 0.394068
0.097707 0.119392 0.407777
0.101944 0.125125 0.419492
0.106431 0.130608 0.430459
0.110668 0.136092 0.441176
0.119392 0.063809 0.048604
0.108425 0.071535 0.092722
0.097458 0.079262 0.136839
0.089482 0.084995 0.178215
0.087488 0.086491 0.213858
0.085494 0.087986 0.249501
0.085494 0.091725 0.280907
0.086740 0.096710 0.310319
0.087986 0.101695 0.339482
0.091476 0.107926 0.360170
0.094965 0.114407 0.380608
0.098704 0.120638 0.398804
0.103190 0.126620 0.412014
0.107926 0.132602 0.425224
0.112164 0.138086 0.436191
0.116152 0.143320 0.445912
0.120140 0.148804 0.455633
0.130110 0.074526 0.052094
0.118893 0.084995 0.099202
0.107428 0.095713 0.146560
0.099202 0.102941 0.190429
0.097458 0.103440 0.228315
0.095713 0.104187 0.265952
0.095962 0.107178 0.298604
0.097208 0.111416 0.328764
0.098205 0.115902 0.358674
0.101695 0.121884 0.379113
0.105184 0.128116 0.399551
0.108923 0.134098 0.417248
0.113659 0.140329 0.430209
0.118644 0.146560 0.443170
0.123131 0.152293 0.454138
0.127368 0.158026 0.463858
0.131605 0.163509 0.473579
0.137338 0.083499 0.058574
0.125623 0.096710 0.107178
0.113908 0.109920 0.155783
0.105683 0.118644 0.201396
0.104187 0.118893 0.240778
0.102692 0.119143 0.280409
0.103440 0.121884 0.314058
0.105434 0.125872 0.344965
0.107178 0.129860 0.375872
0.111166 0.136092 0.396560
0.115155 0.142074 0.417248
0.119641 0.148554 0.435693
0.125125 0.155284 0.449153
0.130608 0.162014 0.462861
0.136092 0.168993 0.475324
0.141575 0.176221 0.487039
0.147059 0.183200 0.498754
0.144317 0.092473 0.065055
0.132353 0.108425 0.115155
0.120140 0.124128 0.165254
0.111914 0.134596 0.212363
0.110668 0.134347 0.253490
0.109671 0.134098 0.294616
0.111166 0.136590 0.329511
0.113659 0.140080 0.361167
0.116152 0.143819 0.392822
0.120638 0.150050 0.414008
0.125374 0.156281 0.435194
0.130359 0.163011 0.453888
0.136341 0.170239 0.468345
0.142572 0.177717 0.482552
0.149053 0.185942 0.496510
0.155783 0.194417 0.510219
0.162263 0.202891 0.523679
0.158774 0.104935 0.075274
0.146311 0.122383 0.126122
0.133848 0.139831 0.177218
0.124626 0.151545 0.225573
0.122383 0.151296 0.268445
0.119890 0.151047 0.311316
0.121386 0.153539 0.347208
0.124875 0.157278 0.379362
0.128365 0.161017 0.411765
0.133599 0.167747 0.433200
0.138833 0.174477 0.454636
0.144317 0.181456 0.473579
0.150798 0.189182 0.487787
0.157527 0.196660 0.501994
0.164257 0.205135 0.515703
0.171486 0.214108 0.529661
0.178465 0.223081 0.543370
0.176969 0.118893 0.086989
0.164008 0.137587 0.138584
0.151047 0.156530 0.190429
0.140828 0.168993 0.239781
0.136341 0.168993 0.284397
0.131854 0.169242 0.329013
0.133350 0.171735 0.365902
0.137836 0.175723 0.398554
0.142074 0.179711 0.431456
0.148056 0.186939 0.453141
0.153789 0.194417 0.474826
0.160020 0.202144 0.494018
0.166750 0.209870 0.507478
0.173729 0.217597 0.521186
0.180708 0.226072 0.534397
0.187687 0.234796 0.547109
0.194915 0.243769 0.560070
0.195414 0.132851 0.098953
0.181705 0.153041 0.151047
0.167996 0.173230 0.203390
0.156780 0.186690 0.253739
0.150299 0.186939 0.300349
0.143819 0.187188 0.346710
0.145065 0.189930 0.384347
0.150548 0.194167 0.417747
0.156032 0.198156 0.451147
0.162512 0.206381 0.473081
0.168993 0.214606 0.495264
0.175723 0.222582 0.514207
0.182951 0.230558 0.527418
0.189930 0.238285 0.540379
0.197159 0.246760 0.552841
0.204138 0.255484 0.564806
0.211366 0.264207 0.577019
0.243021 0.167248 0.119143
0.229811 0.186939 0.170489
0.216849 0.206381 0.221834
0.203141 0.219093 0.272183
0.188185 0.218345 0.320788
0.173230 0.217597 0.369392
0.170489 0.219342 0.407777
0.173729 0.222084 0.441426
0.176969 0.224826 0.474826
0.184447 0.233051 0.496261
0.191675 0.241276 0.517697
0.198903 0.249751 0.536142
0.206132 0.257976 0.548853
0.213360 0.266451 0.561316
0.220588 0.275174 0.572782
0.228066 0.283898 0.583499
0.235294 0.292871 0.594217
0.290628 0.201894 0.139581
0.277916 0.220588 0.189930
0.265454 0.239531 0.240030
0.249252 0.251496 0.290379
0.226072 0.249751 0.341226
0.202891 0.248255 0.392074
0.195912 0.248504 0.431206
0.196909 0.249751 0.464855
0.197906 0.251246 0.498504
0.206132 0.259721 0.519442
0.214357 0.268195 0.540130
0.222333 0.276670 0.558076
0.229561 0.285643 0.570289
0.236790 0.294616 0.582253
0.244267 0.303589 0.592722
0.251994 0.312313 0.602193
0.259472 0.321286 0.611665
0.352692 0.247757 0.166500
0.340728 0.265454 0.214606
0.329013 0.282901 0.262463
0.310319 0.293868 0.311815
0.278165 0.291127 0.364407
0.246261 0.288136 0.416750
0.233051 0.286640 0.456630
0.229312 0.285892 0.490279
0.225573 0.285145 0.524177
0.233300 0.292373 0.543868
0.240778 0.299601 0.563809
0.248255 0.307577 0.580758
0.255484 0.316800 0.592473
0.262712 0.325773 0.603938
0.270439 0.334746 0.613410
0.278415 0.343719 0.621635
0.286391 0.352692 0.629860
0.443669 0.316052 0.206381
0.432951 0.331505 0.249751
0.421984 0.346959 0.292871
0.400798 0.355932 0.339482
0.358923 0.351695 0.392572
0.316800 0.347458 0.445663
0.293619 0.342722 0.485793
0.279910 0.337986 0.519442
0.266201 0.333499 0.553091
0.270439 0.337238 0.571286
0.274676 0.340977 0.589731
0.279910 0.346211 0.605434
0.286889 0.354686 0.616152
0.293868 0.363161 0.626620
0.301844 0.371884 0.635095
0.310568 0.380857 0.642572
0.319043 0.390080 0.650299
0.534895 0.384347 0.246510
0.524925 0.397807 0.284895
0.514955 0.411017 0.323529
0.491276 0.417996 0.367149
0.439432 0.412263 0.420738
0.387587 0.406530 0.474576
0.354437 0.398804 0.514706
0.330758 0.390329 0.548355
0.307079 0.381854 0.582004
0.307827 0.382104 0.598704
0.308574 0.382353 0.615653
0.311316 0.384845 0.630110
0.318295 0.392572 0.639581
0.325025 0.400299 0.649302
0.333499 0.409023 0.657029
0.342722 0.418245 0.663759
0.351944 0.427218 0.670489
0.632353 0.462612 0.299601
0.621884 0.471835 0.331256
0.611166 0.481057 0.362911
0.586241 0.485045 0.401047
0.531904 0.479063 0.452891
0.477567 0.472832 0.504487
0.437188 0.463609 0.544616
0.403789 0.452891 0.578764
0.370389 0.442173 0.612911
0.364656 0.438684 0.628614
0.358923 0.434945 0.644317
0.356431 0.433948 0.657527
0.360170 0.438435 0.665504
0.364158 0.442672 0.673230
0.369890 0.448156 0.679212
0.376620 0.454636 0.684197
0.383350 0.460867 0.689182
0.732802 0.545364 0.359671
0.721087 0.549601 0.383101
0.709123 0.553838 0.406530
0.683450 0.554586 0.438435
0.630359 0.548604 0.486790
0.577268 0.542871 0.535394
0.530907 0.532901 0.574776
0.487787 0.520688 0.609671
0.444915 0.508724 0.644566
0.430957 0.500997 0.659521
0.417248 0.493519 0.674726
0.408026 0.488285 0.686690
0.407777 0.488036 0.692173
0.407278 0.487537 0.697906
0.409023 0.488784 0.701396
0.411765 0.490778 0.704387
0.414506 0.492772 0.707129
0.833499 0.628365 0.419741
0.820289 0.627368 0.434945
0.806830 0.626620 0.450399
0.780658 0.624128 0.475573
0.728814 0.618395 0.520937
0.676969 0.612911 0.566052
0.624626 0.601944 0.604935
0.572034 0.588485 0.640578
0.519442 0.575025 0.676221
0.497507 0.563559 0.690429
0.475823 0.551844 0.704885
0.459621 0.542622 0.715603
0.455135 0.537637 0.718843
0.450399 0.532403 0.722333
0.448156 0.529163 0.723828
0.446660 0.526919 0.724327
0.445414 0.524676 0.725075
0.122134 0.043619 0.044367
0.109172 0.047607 0.084497
0.096461 0.051595 0.124875
0.085992 0.055334 0.162263
0.081007 0.058824 0.194167
0.075773 0.062064 0.226072
0.074277 0.068046 0.255982
0.074776 0.075025 0.284646
0.075274 0.082004 0.313310
0.079262 0.089482 0.335494
0.083250 0.097208 0.357926
0.087488 0.104437 0.378116
0.092223 0.110917 0.394068
0.096959 0.117647 0.410020
0.102193 0.124377 0.424726
0.107677 0.131356 0.438435
0.113161 0.138584 0.452393
0.139581 0.058824 0.045862
