src-tauri/resources/luts/电影胶片莱卡质感.cube
# Converted from .3dl using Python
LUT_3D_SIZE 5
DOMAIN_MIN 0.0 0.0 0.0
DOMAIN_MAX 1.0 1.0 1.0
0.047856 0.035892 0.043868
0.043619 0.040130 0.161017
0.052343 0.058325 0.272433
0.066052 0.079262 0.336989
0.075773 0.091725 0.367149
0.060070 0.053589 0.058824
0.055833 0.063809 0.207378
0.071535 0.087737 0.334247
0.097458 0.121386 0.416002
0.119641 0.152792 0.474078
0.096211 0.084746 0.089482
0.089980 0.115155 0.267198
0.110169 0.138584 0.410020
0.140329 0.182203 0.490528
0.168744 0.218096 0.544616
0.347707 0.254487 0.177218
0.264207 0.282154 0.374377
0.215105 0.276919 0.523928
0.247258 0.311565 0.591974
0.285145 0.354686 0.630608
0.826022 0.622632 0.418993
0.694167 0.609920 0.546112
0.492024 0.556830 0.684945
0.442173 0.526670 0.717348
0.438933 0.522931 0.722333
0.159023 0.048355 0.042622
0.111665 0.070289 0.206630
0.089980 0.093220 0.328514
0.102443 0.122632 0.409272
0.123878 0.151545 0.470090
0.239781 0.125374 0.053838
0.190678 0.178215 0.267198
0.165753 0.181206 0.419990
0.164008 0.197906 0.487537
0.182453 0.223330 0.532154
0.319043 0.204387 0.105434
0.246760 0.279910 0.321535
0.223330 0.275922 0.491525
0.236540 0.288634 0.565055
0.260967 0.317298 0.608923
0.544865 0.382353 0.234796
0.460618 0.427218 0.410020
0.331755 0.401545 0.583001
0.340479 0.409272 0.644816
0.366899 0.436939 0.675723
0.852692 0.643320 0.424227
0.770688 0.635843 0.513210
0.568046 0.604187 0.675474
0.489282 0.565055 0.729312
0.476321 0.549103 0.738534
0.350947 0.083749 0.038136
0.300100 0.138335 0.253988
0.202891 0.168993 0.397807
0.170489 0.190179 0.464855
0.176221 0.208624 0.519442
0.488534 0.207627 0.043868
0.441675 0.270189 0.296112
0.355434 0.291874 0.500997
0.280160 0.304835 0.568046
0.277667 0.327517 0.609920
0.592223 0.356929 0.095214
0.515204 0.460369 0.334995
0.432203 0.458375 0.559073
0.391077 0.438684 0.647807
0.398554 0.455384 0.681954
0.752243 0.526421 0.287139
0.679711 0.585494 0.436690
0.522183 0.576271 0.642572
0.497009 0.554586 0.716849
0.509721 0.566550 0.746012
0.923230 0.710867 0.462612
0.864407 0.700648 0.533649
0.744267 0.703639 0.702642
0.628614 0.670239 0.778664
0.608674 0.655284 0.797109
0.579013 0.163759 0.045364
0.537886 0.232552 0.244516
0.491525 0.351944 0.454138
0.421486 0.377119 0.523180
0.375125 0.369143 0.559571
0.705633 0.284397 0.061815
0.688185 0.338983 0.298355
0.648804 0.427218 0.533649
0.548853 0.495264 0.644566
0.481805 0.509472 0.692921
0.799601 0.446660 0.136092
0.760469 0.515952 0.341226
0.728814 0.553589 0.575523
0.656281 0.596461 0.723579
0.595464 0.627368 0.778913
0.899302 0.632353 0.338235
0.849950 0.696660 0.453390
0.779163 0.715852 0.627368
0.728564 0.711615 0.772682
0.705633 0.717597 0.826770
0.983549 0.792622 0.548355
0.958873 0.816800 0.601196
0.886341 0.795115 0.697408
0.829262 0.792124 0.816800
0.805583 0.786889 0.856181
0.710369 0.235543 0.051844
0.787637 0.415254 0.269691
0.827268 0.553838 0.480060
0.856431 0.605932 0.551346
0.866152 0.622632 0.566800
0.832752 0.386092 0.106680
0.850947 0.465354 0.324277
0.879362 0.574776 0.547856
0.888086 0.660269 0.657278
0.890080 0.730808 0.714357
0.929711 0.552343 0.239033
0.925224 0.576770 0.379611
0.937438 0.616650 0.585743
0.926969 0.686441 0.738285
0.899801 0.804088 0.820538
0.977069 0.717846 0.447408
0.978814 0.749751 0.485045
0.960369 0.760219 0.616899
0.936690 0.775922 0.773928
0.901047 0.830508 0.859920
0.993769 0.822034 0.594716
0.998006 0.874875 0.642822
0.973579 0.868893 0.695912
0.925474 0.843220 0.801346
0.898056 0.833998 0.862163
