src-tauri/resources/luts/电影胶片莱卡质感.3dl
# LUT by SparkleStock. Enhanced with VOXCOLOR algorithms.
0 64 128 192 256 320 384 448 512 576 640 704 768 832 896 960 1023
192 144 176
184 144 292
176 143 408
171 147 525
175 161 646
178 175 768
187 193 879
198 213 986
210 234 1093
225 256 1171
239 279 1248
253 300 1313
265 318 1352
276 335 1392
286 348 1422
295 358 1448
304 368 1473
204 162 187
193 161 313
182 160 439
176 164 565
182 178 691
187 192 817
199 212 933
213 236 1043
228 259 1154
246 286 1236
264 312 1318
281 337 1389
297 359 1436
313 381 1484
327 399 1524
339 417 1559
352 434 1595
217 181 198
203 179 334
188 178 470
182 181 604
189 195 735
197 210 866
211 232 986
228 258 1101
246 285 1215
267 315 1302
288 345 1388
309 373 1464
329 400 1520
349 426 1577
367 451 1626
384 476 1671
401 500 1716
229 199 213
215 200 358
200 201 504
193 207 646
202 219 782
210 232 918
226 256 1042
245 285 1159
265 314 1277
289 347 1367
313 380 1457
337 412 1537
361 442 1600
384 472 1662
405 502 1718
425 532 1770
445 561 1823
241 215 236
232 226 389
223 238 542
219 248 691
224 256 832
230 265 973
246 289 1100
266 320 1221
287 352 1341
313 387 1432
339 422 1524
365 456 1606
391 487 1669
416 519 1732
439 550 1791
459 582 1846
480 613 1902
253 232 259
249 253 420
246 274 581
244 289 737
247 294 883
250 298 1028
266 322 1159
287 355 1282
309 389 1405
337 426 1498
365 464 1590
393 500 1674
421 532 1738
449 565 1803
472 599 1863
494 632 1922
515 666 1980
289 263 290
285 291 458
280 319 627
278 339 790
282 345 943
285 350 1096
301 374 1230
324 407 1355
348 440 1481
376 480 1574
405 521 1667
434 559 1750
464 593 1813
493 628 1876
519 662 1936
542 697 1993
564 731 2051
338 301 324
329 335 500
321 368 675
317 394 846
321 403 1007
326 413 1169
344 436 1307
369 467 1435
395 498 1563
424 542 1655
452 586 1747
482 627 1829
513 662 1890
544 698 1951
571 733 2008
596 768 2063
621 803 2118
386 340 359
374 379 542
361 418 724
355 448 902
361 462 1072
367 475 1241
387 498 1385
415 527 1515
442 556 1645
471 603 1737
500 650 1828
530 694 1909
563 731 1968
595 768 2026
624 804 2081
650 839 2133
677 875 2185
561 456 417
533 499 609
506 542 801
483 574 988
470 582 1163
457 591 1339
470 611 1485
495 637 1616
520 663 1748
554 710 1838
589 756 1928
622 801 2008
656 842 2064
689 883 2121
719 921 2171
748 958 2218
777 994 2265
736 572 476
693 619 677
651 667 878
611 699 1073
579 703 1254
547 707 1436
552 723 1585
575 747 1718
599 770 1851
638 816 1940
677 862 2029
715 908 2107
749 953 2161
782 998 2215
814 1038 2262
846 1076 2303
877 1114 2345
988 742 564
931 792 770
874 842 975
816 874 1175
754 871 1362
692 867 1549
680 877 1700
692 893 1832
704 908 1965
744 950 2051
783 992 2137
822 1036 2211
856 1082 2263
891 1129 2315
925 1171 2357
959 1211 2394
994 1251 2432
1395 1021 711
1325 1070 911
1256 1119 1112
1172 1146 1309
1060 1132 1502
948 1117 1696
899 1112 1846
881 1111 1974
863 1111 2102
893 1141 2181
924 1171 2259
957 1206 2327
992 1250 2375
1028 1295 2423
1066 1338 2462
1105 1381 2496
1144 1423 2530
1801 1300 858
1719 1348 1053
1637 1395 1248
1529 1418 1444
1366 1393 1643
1204 1367 1842
1118 1347 1991
1070 1330 2116
1021 1313 2240
1043 1331 2311
1065 1350 2382
1092 1376 2444
1129 1418 2488
1166 1460 2532
1207 1505 2567
1250 1551 2597
1293 1596 2627
2281 1669 1100
2196 1705 1271
2110 1741 1441
1989 1754 1620
1797 1722 1815
1605 1690 2011
1481 1657 2157
1390 1625 2279
1299 1594 2402
1296 1595 2464
1293 1596 2526
1299 1606 2579
1324 1634 2613
1350 1662 2648
1380 1695 2675
1414 1730 2697
1448 1765 2720
2798 2084 1391
2713 2102 1527
2629 2121 1663
2503 2121 1816
2291 2084 2003
2079 2048 2190
1916 2005 2333
1776 1959 2454
1637 1914 2575
1600 1895 2628
1564 1876 2680
1542 1865 2723
1549 1874 2746
1557 1882 2768
1570 1896 2784
1587 1914 2796
1604 1931 2809
3314 2498 1681
3231 2500 1783
3148 2501 1885
3016 2488 2013
2785 2447 2191
2553 2406 2370
2350 2352 2509
2162 2293 2628
1974 2234 2748
1904 2195 2791
1835 2155 2835
1785 2125 2867
1774 2113 2878
1764 2102 2889
1760 2098 2894
1761 2098 2896
1761 2098 2898
285 153 177
260 158 308
236 162 439
218 169 568
215 183 690
213 197 813
218 217 927
227 241 1037
237 264 1147
253 289 1229
269 315 1311
284 338 1382
299 360 1430
314 381 1479
328 399 1520
341 415 1556
355 432 1592
317 186 187
290 195 331
263 205 474
244 215 614
243 227 743
241 239 873
248 259 992
258 282 1105
268 305 1218
285 332 1301
302 358 1384
318 383 1457
335 407 1509
352 430 1560
368 450 1604
383 470 1643
398 490 1682
348 218 196
319 233 353
290 248 510
270 261 660
270 271 797
270 281 933
277 300 1057
288 323 1173
299 347 1289
317 374 1373
334 402 1458
353 428 1532
372 454 1587
391 479 1641
408 502 1688
425 525 1730
442 548 1772
376 249 211
346 271 378
316 292 546
296 310 705
296 317 849
297 325 992
305 343 1120
317 366 1239
330 390 1358
349 418 1444
367 447 1530
387 475 1606
408 503 1663
430 530 1720
449 556 1770
468 583 1816
487 609 1862
396 275 236
368 307 410
340 339 584
321 362 750
321 367 899
321 371 1049
330 389 1180
345 413 1302
359 436 1424
380 466 1512
401 496 1599
423 526 1677
446 555 1736
470 584 1795
492 614 1849
514 644 1900
535 674 1951
416 301 260
390 344 441
364 386 622
346 415 795
346 416 950
345 418 1105
356 435 1241
372 459 1366
387 483 1491
411 514 1579
434 545 1668
458 577 1748
484 608 1809
510 639 1869
535 672 1927
559 706 1984
583 740 2041
463 342 296
436 391 482
408 440 669
389 474 847
386 476 1010
383 478 1172
394 495 1311
413 519 1439
431 543 1566
456 577 1656
481 610 1745
507 644 1825
535 676 1885
562 709 1945
589 743 2003
615 778 2059
640 813 2115
524 389 337
494 444 528
463 498 720
441 536 904
434 541 1074
427 546 1244
440 563 1387
461 586 1517
483 609 1647
509 646 1737
535 683 1826
562 719 1905
591 752 1963
621 785 2021
648 820 2076
675 855 2129
701 890 2183
585 436 378
551 496 574
518 556 770
492 599 960
482 606 1138
472 613 1316
485 630 1464
509 653 1596
534 676 1728
561 716 1817
589 756 1907
617 794 1986
648 828 2042
679 862 2097
707 897 2149
735 932 2200
763 968 2250
768 564 448
728 624 647
688 685 846
649 726 1040
613 729 1225
576 732 1410
577 745 1561
596 764 1694
615 782 1826
647 822 1915
679 862 2003
710 901 2079
741 939 2133
772 976 2187
802 1012 2235
832 1048 2280
861 1084 2325
951 691 518
904 752 719
858 814 921
806 854 1119
743 853 1312
680 851 1504
669 860 1658
683 874 1791
697 889 1925
733 929 2012
769 969 2098
803 1009 2173
835 1049 2224
866 1090 2276
897 1128 2320
928 1165 2360
959 1201 2400
1201 868 616
1149 928 815
1097 989 1014
1030 1026 1213
935 1019 1412
840 1012 1610
807 1014 1766
806 1020 1900
804 1026 2034
840 1062 2117
875 1097 2199
909 1135 2271
941 1177 2320
972 1218 2369
1005 1257 2409
1038 1295 2444
1071 1333 2479
1587 1145 770
1531 1200 957
1474 1255 1143
1390 1287 1336
1250 1271 1539
1110 1255 1742
1039 1244 1897
1002 1234 2029
965 1224 2161
989 1247 2237
1013 1269 2313
1040 1298 2378
1072 1337 2423
1104 1376 2469
1139 1415 2505
1175 1455 2537
1212 1494 2569
1974 1421 923
1913 1472 1098
1852 1522 1273
1750 1548 1458
1565 1523 1666
1380 1499 1873
1270 1474 2028
1198 1448 2158
1126 1422 2288
1139 1432 2357
1152 1442 2426
1171 1460 2486
1203 1497 2527
1235 1533 2568
1272 1573 2601
1312 1614 2630
1352 1655 2659
2409 1762 1152
2345 1799 1300
2281 1835 1449
2171 1850 1615
1966 1822 1816
1761 1793 2018
1617 1759 2171
1505 1721 2300
1392 1684 2430
1379 1677 2493
1366 1671 2556
1364 1674 2608
1385 1696 2641
1405 1719 2675
1432 1747 2700
1463 1777 2721
1493 1807 2742
2869 2136 1417
2803 2154 1532
2737 2171 1647
2622 2173 1788
2410 2143 1978
2198 2113 2169
2023 2071 2319
1867 2024 2450
1711 1977 2580
1665 1952 2637
1619 1928 2693
1589 1912 2739
1592 1916 2761
1595 1919 2784
1606 1929 2799
1620 1941 2811
1634 1954 2823
3329 2510 1682
3261 2508 1764
3193 2507 1846
3074 2496 1960
2854 2464 2140
2634 2432 2320
2428 2384 2468
2228 2327 2599
2029 2270 2730
1950 2228 2781
1872 2185 2831
1814 2151 2869
1800 2135 2881
1785 2119 2893
1779 2111 2899
1777 2106 2901
1774 2101 2903
378 163 179
337 171 325
296 180 471
265 191 610
256 205 734
247 220 858
249 242 975
257 268 1087
264 294 1200
281 322 1287
298 350 1373
316 377 1451
334 401 1508
351 426 1566
369 449 1617
387 472 1664
405 496 1712
429 209 187
386 229 349
343 249 510
312 266 662
304 276 796
295 286 929
296 305 1051
302 328 1166
308 351 1281
324 378 1366
340 404 1450
356 430 1525
374 455 1581
392 479 1636
409 502 1683
427 524 1727
444 546 1770
479 256 195
435 287 372
391 318 549
359 341 715
351 347 858
343 353 1001
343 368 1127
348 388 1245
353 408 1362
367 433 1445
381 459 1527
396 484 1600
414 508 1653
433 532 1706
450 554 1750
466 575 1789
482 597 1828
522 299 209
477 341 398
431 384 588
398 413 764
391 415 916
384 418 1067
385 430 1198
390 447 1319
394 465 1439
408 489 1521
422 514 1603
437 538 1674
456 563 1726
476 588 1778
494 611 1822
511 634 1861
528 656 1900
551 335 235
504 388 430
457 441 625
424 476 808
418 477 966
412 478 1125
415 489 1260
423 505 1384
430 521 1508
446 546 1591
462 570 1674
480 596 1748
502 623 1802
524 650 1857
546 678 1907
568 707 1954
590 735 2001
579 371 261
531 435 462
482 498 663
449 540 852
444 539 1017
440 538 1182
446 548 1322
456 562 1449
466 577 1576
484 602 1661
503 627 1746
523 654 1821
547 683 1879
572 713 1936
598 746 1992
625 780 2047
651 814 2101
637 421 302
587 491 506
537 561 711
500 608 905
491 607 1077
481 606 1249
487 616 1393
501 631 1522
515 646 1652
536 673 1738
557 700 1824
579 728 1900
605 759 1957
632 789 2014
659 823 2069
688 859 2125
716 895 2180
710 477 349
658 552 556
606 628 764
565 678 962
547 678 1141
529 679 1320
535 689 1468
553 705 1599
570 721 1731
594 750 1818
617 780 1905
642 811 1982
669 842 2036
697 873 2091
725 907 2144
753 942 2195
782 978 2247
784 533 397
729 614 606
674 695 816
629 749 1018
603 750 1205
577 751 1391
582 762 1542
604 779 1676
626 795 1810
652 828 1898
678 861 1987
705 893 2063
734 925 2116
762 956 2168
791 990 2218
819 1025 2266
848 1060 2315
975 671 478
922 750 684
870 828 890
815 879 1092
755 876 1287
695 873 1482
684 880 1636
697 891 1771
710 902 1905
740 935 1991
769 968 2077
798 1002 2151
827 1035 2202
856 1069 2252
885 1104 2298
915 1139 2341
944 1175 2384
1166 810 560
1115 885 762
1065 961 963
1000 1009 1165
907 1002 1369
814 996 1573
786 997 1730
790 1002 1865
794 1008 2000
827 1042 2084
860 1076 2167
892 1110 2239
921 1146 2288
950 1182 2336
980 1218 2378
1011 1253 2416
1041 1289 2454
1415 994 668
1367 1065 861
1320 1135 1053
1245 1179 1251
1116 1168 1462
988 1156 1672
935 1150 1832
920 1147 1967
905 1144 2103
936 1173 2182
966 1202 2262
996 1234 2330
1025 1271 2377
1054 1307 2423
1085 1343 2461
1117 1379 2494
1149 1415 2527
1780 1268 828
1737 1330 1002
1693 1392 1175
1608 1428 1362
1440 1411 1575
1271 1394 1788
1178 1375 1949
1123 1356 2084
1068 1338 2219
1085 1353 2292
1102 1368 2366
1123 1389 2429
1151 1423 2472
1179 1457 2514
1211 1492 2548
1246 1528 2578
1280 1565 2609
2146 1542 989
2106 1596 1143
2066 1649 1298
1971 1677 1473
1763 1654 1688
1555 1631 1904
1422 1600 2065
1327 1566 2200
1232 1532 2335
1235 1533 2402
1238 1534 2470
1249 1544 2528
1277 1575 2566
1304 1606 2605
1338 1641 2636
1375 1678 2663
1412 1714 2690
2537 1856 1202
2495 1893 1329
2452 1930 1456
2352 1946 1609
2134 1922 1817
1916 1897 2024
1754 1860 2185
1620 1817 2322
1486 1774 2459
1463 1760 2522
1440 1745 2585
1430 1741 2638
1445 1759 2670
1461 1776 2701
1484 1798 2725
1511 1824 2745
1538 1849 2765
2940 2188 1443
2893 2205 1537
2845 2222 1631
2742 2225 1759
2529 2201 1953
2316 2178 2148
2130 2138 2306
1957 2089 2446
1785 2041 2586
1729 2010 2646
1674 1980 2707
1637 1959 2755
1636 1958 2777
1634 1956 2800
1641 1961 2814
1652 1969 2826
1663 1977 2837
3344 2521 1684
3291 2517 1745
3237 2514 1807
3132 2504 1908
2924 2481 2090
2716 2459 2271
2506 2415 2427
2295 2361 2570
2084 2307 2713
1996 2261 2770
1909 2214 2828
1844 2177 2871
1826 2157 2884
1807 2136 2898
1798 2123 2904
1792 2114 2906
1787 2105 2909
490 175 178
438 191 339
387 207 501
345 222 651
325 236 779
304 249 907
298 273 1027
300 301 1142
302 329 1257
318 359 1346
334 390 1436
351 419 1517
370 445 1581
389 472 1645
410 499 1704
432 527 1759
454 556 1815
560 236 184
507 266 363
455 296 542
414 319 708
394 328 847
374 336 987
366 354 1112
364 377 1230
363 400 1347
374 427 1432
386 454 1517
399 480 1593
417 505 1651
435 530 1710
454 555 1760
473 580 1808
