src-tauri/resources/luts/胶片质感.cube
# Converted from .3dl (size 17x17x17) using Python
LUT_3D_SIZE 9
DOMAIN_MIN 0.0 0.0 0.0
DOMAIN_MAX 1.0 1.0 1.0
0.031258 0.023443 0.015629
0.050061 0.031990 0.024420
0.084249 0.051282 0.041270
0.130159 0.079853 0.063980
0.183883 0.116239 0.090354
0.228571 0.148718 0.109890
0.252991 0.169719 0.122344
0.262515 0.181929 0.131380
0.262027 0.187790 0.140659
0.064469 0.060317 0.020513
0.073993 0.059341 0.025153
0.118926 0.080098 0.036630
0.187302 0.114286 0.054212
0.266911 0.153846 0.077411
0.321123 0.184127 0.099634
0.340171 0.202686 0.117460
0.331624 0.211722 0.131380
0.303297 0.212698 0.142369
0.167033 0.147985 0.028571
0.161172 0.136508 0.030769
0.195360 0.153846 0.040049
0.263248 0.190476 0.056899
0.358974 0.236874 0.081319
0.426129 0.269353 0.108913
0.450305 0.286691 0.133578
0.438339 0.291575 0.154090
0.396581 0.286203 0.168498
0.310623 0.271306 0.042002
0.294994 0.253724 0.043468
0.311355 0.265201 0.054457
0.363126 0.299878 0.076190
0.453724 0.352381 0.109158
0.530647 0.389744 0.145299
0.564835 0.408791 0.178510
0.560440 0.411966 0.205372
0.520147 0.402198 0.222955
0.466911 0.415873 0.063492
0.458364 0.401709 0.065201
0.464713 0.406593 0.082051
0.491819 0.433944 0.115751
0.545543 0.486691 0.167521
0.621734 0.530891 0.216117
0.665690 0.555800 0.259341
0.676190 0.562882 0.292308
0.652991 0.553602 0.309646
0.543834 0.514286 0.093773
0.543101 0.507448 0.096459
0.557021 0.516972 0.118926
0.586325 0.545055 0.164835
0.632234 0.594628 0.237851
0.682784 0.643223 0.308913
0.718926 0.672039 0.360440
0.736020 0.683028 0.393162
0.729426 0.677900 0.406838
0.582662 0.571917 0.117705
0.586081 0.570696 0.121123
0.603419 0.582662 0.146032
0.634188 0.610989 0.197314
0.679121 0.658852 0.281074
0.721368 0.711111 0.370208
0.752381 0.745299 0.433455
0.769963 0.761661 0.470330
0.771429 0.760195 0.480342
0.599267 0.598291 0.133822
0.604396 0.600977 0.138950
0.621490 0.613675 0.162882
0.651526 0.641026 0.213431
0.695727 0.686935 0.298413
0.738706 0.741148 0.399267
0.768254 0.780708 0.473993
0.785348 0.803663 0.518681
0.790476 0.808059 0.529670
0.610012 0.602198 0.140659
0.615629 0.607570 0.148962
0.628816 0.619292 0.169719
0.653480 0.643468 0.213919
0.693285 0.685714 0.292064
0.735775 0.740171 0.395116
0.767521 0.783150 0.477656
0.788278 0.813431 0.533333
0.797558 0.828816 0.555311
0.052015 0.089377 0.228083
0.066667 0.075946 0.211722
0.100855 0.084737 0.205617
0.148962 0.110379 0.213675
0.206349 0.147985 0.239316
0.244200 0.184127 0.259829
0.256166 0.210501 0.268620
0.252259 0.227595 0.268132
0.242735 0.236142 0.260806
0.069353 0.129426 0.225641
0.080830 0.104274 0.185836
0.128938 0.111600 0.168987
0.201221 0.138706 0.171673
0.285226 0.172161 0.190720
0.342369 0.200977 0.210012
0.359951 0.221490 0.222711
0.340659 0.234676 0.229060
0.287668 0.240781 0.228083
0.142369 0.222222 0.230769
0.139927 0.182418 0.176313
0.181197 0.183150 0.154579
0.256654 0.209035 0.156777
0.357021 0.244444 0.173626
0.432967 0.271551 0.194383
0.463492 0.288889 0.211966
0.447375 0.296703 0.224420
0.383394 0.295238 0.229792
0.267888 0.347009 0.236874
0.252259 0.297924 0.176801
0.273993 0.290598 0.155556
0.333333 0.312821 0.161172
0.429792 0.351648 0.182662
0.518193 0.381197 0.208303
0.564347 0.398046 0.231746
0.564103 0.402442 0.250061
0.513553 0.394139 0.259829
0.442979 0.482051 0.236630
0.425641 0.439072 0.181197
0.423687 0.426374 0.164103
0.448596 0.440781 0.177289
0.511355 0.480342 0.211966
0.600977 0.514774 0.246398
0.659585 0.535287 0.277411
0.682051 0.541148 0.300855
0.662515 0.532601 0.312821
0.543101 0.569475 0.245421
0.535531 0.541636 0.200000
0.537729 0.535287 0.189255
0.557265 0.550916 0.209768
0.601221 0.588278 0.258608
0.662027 0.630525 0.315018
0.712332 0.655189 0.353602
0.744078 0.664225 0.376068
0.749939 0.659096 0.383883
0.593162 0.618315 0.249328
0.592430 0.601221 0.212698
0.600488 0.600488 0.207814
0.621245 0.617582 0.234676
0.659096 0.654701 0.293040
0.705983 0.702808 0.367766
0.746520 0.735287 0.418559
0.777045 0.751160 0.445910
0.793651 0.749206 0.449817
0.613675 0.639072 0.248596
0.615873 0.627595 0.218559
0.627595 0.630525 0.218071
0.651038 0.649328 0.248352
0.688401 0.685470 0.310867
0.730647 0.736752 0.398535
0.764103 0.776801 0.463492
0.789011 0.800977 0.501587
0.806349 0.804884 0.508669
0.625641 0.642247 0.242979
0.625153 0.631013 0.216361
0.635653 0.635165 0.217582
0.658120 0.653968 0.247619
0.693040 0.686935 0.307204
0.733822 0.737729 0.400488
0.766300 0.781441 0.479121
0.789255 0.812943 0.534554
0.801221 0.827839 0.558730
0.082540 0.175580 0.397802
0.091331 0.150916 0.379731
0.125275 0.142857 0.370940
0.178022 0.154090 0.373626
0.242979 0.187790 0.390476
0.282540 0.225397 0.412698
0.290598 0.256410 0.424420
0.280098 0.279365 0.425153
0.263492 0.293285 0.414652
0.096947 0.217338 0.400733
0.103297 0.180952 0.357265
0.149451 0.167521 0.332601
0.222955 0.175580 0.325275
0.310623 0.202442 0.333578
0.371184 0.232234 0.352869
0.388767 0.258120 0.368254
0.365812 0.278877 0.377534
0.305006 0.293529 0.378510
0.148474 0.307937 0.416361
0.144322 0.258608 0.357509
0.184860 0.237851 0.320879
0.261050 0.242002 0.304518
0.363614 0.266422 0.307448
0.443956 0.290354 0.323565
0.479365 0.309646 0.339438
0.464713 0.323321 0.352381
0.395360 0.330403 0.358974
0.246154 0.427839 0.433455
0.230525 0.372650 0.369231
0.253724 0.345788 0.325763
0.315263 0.344811 0.304029
0.414896 0.367277 0.304762
0.509402 0.388278 0.319414
0.564835 0.402442 0.335287
0.572405 0.409035 0.348718
0.523077 0.407082 0.357265
0.398291 0.557998 0.440781
0.378022 0.511600 0.380708
0.377534 0.482784 0.338217
0.407326 0.475214 0.315995
0.478144 0.492552 0.317705
0.576068 0.514530 0.335531
0.647863 0.528205 0.352381
0.684005 0.532357 0.366300
0.675458 0.526740 0.374603
0.515751 0.638095 0.438339
0.507448 0.607814 0.388034
0.509646 0.589011 0.353114
0.529182 0.585836 0.337973
0.573138 0.602686 0.347497
0.640537 0.631990 0.376801
0.703053 0.648596 0.396581
0.750916 0.653968 0.407570
0.772894 0.649573 0.410745
0.579976 0.680342 0.429060
0.580464 0.660806 0.386325
0.588523 0.650305 0.358974
0.607814 0.652503 0.351893
0.642491 0.671306 0.370452
0.691819 0.708181 0.414408
0.740904 0.734066 0.443712
0.784860 0.747009 0.457387
0.819536 0.744811 0.455922
0.610501 0.695727 0.414408
0.614896 0.681807 0.376557
0.627350 0.676435 0.354823
0.649817 0.682784 0.354823
0.683517 0.704029 0.380952
0.724786 0.746032 0.439316
0.761905 0.781929 0.483028
0.796093 0.804884 0.507692
0.828327 0.808547 0.509158
0.627839 0.695971 0.395849
0.628083 0.681319 0.358730
0.639072 0.677167 0.339927
0.661294 0.684738 0.343101
0.694261 0.705495 0.373138
0.733578 0.747985 0.441514
0.767521 0.789499 0.504029
0.794383 0.821978 0.550183
0.812454 0.837607 0.569963
0.115263 0.261783 0.516239
0.118681 0.234921 0.506716
0.150672 0.214164 0.505006
0.205128 0.210501 0.510379
0.276190 0.234921 0.522100
0.323810 0.273016 0.546276
0.336508 0.305739 0.562882
0.327228 0.331380 0.569475
0.307937 0.348474 0.563370
0.132357 0.303541 0.527961
0.132112 0.266667 0.500611
0.171673 0.237851 0.482051
0.241026 0.226862 0.473748
0.330159 0.243956 0.476679
0.394872 0.275214 0.496459
0.416361 0.305250 0.516728
0.398535 0.331380 0.532601
0.344078 0.351893 0.539927
0.172161 0.387790 0.555800
0.165079 0.342613 0.517949
0.199267 0.307204 0.483028
0.269597 0.290598 0.458852
0.370452 0.301343 0.453480
0.453480 0.323077 0.466422
0.494261 0.344322 0.483272
0.487912 0.362637 0.499634
0.430037 0.376557 0.511355
0.244200 0.498901 0.589011
0.229304 0.452015 0.547497
0.250061 0.413675 0.500611
0.308669 0.392430 0.463004
0.407570 0.396581 0.449084
0.504762 0.409524 0.454701
0.568254 0.420757 0.465201
0.587057 0.429060 0.476923
0.551404 0.432967 0.487179
0.356532 0.622466 0.616850
0.337241 0.584860 0.577045
0.340904 0.548230 0.527961
0.376313 0.522589 0.483761
0.451282 0.518437 0.458852
0.554579 0.526984 0.460073
0.637118 0.532357 0.464225
0.687180 0.534066 0.470330
0.692796 0.531136 0.477167
0.477656 0.698657 0.616117
0.470330 0.674725 0.582173
0.475702 0.650794 0.540904
0.499878 0.634188 0.503541
0.547497 0.631990 0.481074
0.619536 0.644933 0.480098
0.692308 0.651038 0.480830
0.753846 0.651770 0.482295
0.792186 0.647863 0.482540
0.552137 0.737973 0.603907
0.554579 0.723565 0.573871
0.565812 0.709402 0.539683
0.588278 0.700855 0.510623
0.625153 0.703785 0.495726
0.677656 0.724786 0.503053
0.733578 0.740659 0.507937
0.789744 0.748474 0.508425
0.841270 0.745299 0.502808
0.594383 0.751648 0.583883
0.601221 0.741392 0.555067
0.616606 0.732845 0.525519
0.641270 0.730403 0.504029
0.676679 0.738462 0.498168
0.718681 0.766789 0.519658
0.759707 0.794383 0.536508
0.802442 0.813675 0.545055
0.849328 0.816361 0.541148
0.618803 0.750183 0.559707
0.621734 0.739194 0.528449
0.634188 0.731136 0.499878
0.657875 0.730159 0.482540
0.693529 0.740415 0.484493
0.733578 0.770696 0.519902
0.769475 0.806105 0.558242
0.800733 0.836874 0.588767
0.825397 0.853480 0.600244
0.142369 0.328205 0.575580
0.143834 0.305739 0.571184
0.169719 0.286447 0.576068
0.218559 0.278144 0.589988
0.288889 0.288401 0.612454
0.348718 0.326984 0.637363
0.373871 0.357021 0.656654
0.374359 0.378266 0.667888
0.360440 0.390720 0.667888
0.160195 0.368010 0.590476
0.158242 0.339927 0.577045
0.187057 0.312088 0.572161
0.245177 0.294261 0.576557
0.330647 0.295727 0.590476
0.401465 0.326496 0.609035
0.433211 0.356044 0.630525
0.429548 0.380952 0.649328
0.394139 0.397802 0.659341
0.199756 0.444933 0.620513
0.192674 0.411477 0.601465
0.217094 0.379731 0.586081
0.275214 0.356288 0.578510
0.370208 0.347985 0.582906
0.455433 0.367521 0.593407
0.504274 0.388278 0.610745
0.514530 0.406593 0.629060
0.484249 0.419048 0.642247
0.260562 0.545055 0.660562
0.248107 0.509646 0.638584
0.263248 0.477411 0.615385
0.313309 0.452015 0.596825
0.405861 0.436630 0.589255
0.504762 0.443712 0.589744
0.575580 0.452015 0.598046
0.610256 0.459341 0.610256
0.601221 0.463980 0.622222
0.342857 0.654212 0.705006
0.325031 0.624176 0.683028
0.328938 0.594383 0.657387
0.363126 0.569231 0.631502
0.436142 0.553114 0.609280
0.544567 0.548718 0.597070
0.635165 0.545543 0.592674
0.696459 0.543101 0.595116
0.716484 0.542125 0.604151
0.444444 0.729670 0.721368
0.434676 0.711844 0.704274
0.440049 0.694750 0.683761
0.467399 0.679853 0.660806
0.522833 0.669597 0.636142
0.600977 0.665690 0.610745
0.680830 0.661294 0.598291
0.751404 0.656654 0.594383
0.801709 0.652503 0.594872
0.519414 0.771917 0.721368
0.518681 0.762393 0.706716
0.529915 0.754579 0.690354
0.556777 0.748962 0.672283
0.603663 0.746520 0.651038
0.661538 0.749451 0.626618
0.723810 0.753358 0.611477
0.787546 0.755067 0.601954
0.850305 0.750183 0.594872
0.570208 0.789744 0.710379
0.575336 0.784615 0.695727
0.590965 0.781685 0.681807
0.619536 0.781929 0.667399
0.663492 0.786081 0.651526
0.710379 0.796825 0.637607
0.756288 0.812698 0.628816
0.805128 0.825153 0.622222
0.861783 0.825885 0.614164
0.600244 0.791697 0.694017
0.602686 0.786325 0.676679
0.615873 0.783639 0.661294
0.642735 0.784615 0.647619
0.687180 0.790232 0.635409
0.731380 0.804640 0.636630
0.770208 0.829548 0.647619
0.804640 0.854701 0.658852
0.834921 0.870085 0.661294
0.155067 0.355800 0.592186
0.156288 0.337485 0.589255
0.178022 0.320635 0.594872
0.220757 0.314042 0.609768
0.284982 0.326740 0.635409
0.347741 0.361905 0.667643
0.384127 0.391453 0.691819
0.398046 0.410745 0.706471
0.392918 0.414652 0.708669
0.169719 0.388034 0.603663
0.168742 0.369719 0.597558
0.189988 0.349206 0.598535
0.235653 0.336264 0.608791
0.309158 0.340171 0.630769
0.381685 0.370696 0.659829
0.423687 0.399023 0.684493
0.436874 0.420024 0.701832
0.422955 0.428083 0.709402
0.206593 0.458852 0.632723
0.201221 0.435165 0.621978
0.218071 0.412943 0.616850
0.263248 0.396825 0.621001
0.342125 0.391209 0.637607
0.426618 0.413919 0.663004
0.482540 0.433944 0.684005
0.508913 0.448107 0.699634
0.504762 0.452747 0.707937
0.263492 0.553358 0.672283
0.253480 0.526007 0.658852
0.264225 0.503785 0.648840
0.304029 0.487179 0.646398
0.381197 0.475946 0.655678
0.477900 0.487424 0.674969
0.551648 0.495238 0.689377
0.598779 0.498413 0.699145
0.615385 0.496215 0.705495
0.338217 0.656654 0.715995
0.325763 0.634432 0.704274
0.330159 0.613431 0.692796
0.359707 0.597802 0.685226
0.423932 0.590720 0.684493
0.530403 0.587057 0.694750
0.621245 0.581685 0.698657
0.690598 0.575092 0.700366
0.732112 0.567033 0.703297
0.433944 0.734066 0.745055
0.423443 0.719658 0.735043
0.426129 0.706471 0.725763
0.449573 0.696459 0.718193
0.501099 0.691575 0.713309
0.583394 0.689866 0.713065
0.668376 0.682540 0.707937
0.746032 0.673260 0.702564
0.806838 0.665446 0.701832
0.505250 0.779976 0.757998
0.501343 0.771917 0.749695
0.508669 0.765812 0.742613
0.532601 0.762637 0.736996
0.578999 0.763370 0.732112
0.644444 0.768010 0.727717
0.712576 0.768010 0.717705
0.780952 0.764591 0.707448
0.846642 0.758242 0.703541
0.555311 0.802198 0.758974
0.557021 0.798046 0.751404
0.569231 0.796581 0.745788
0.595360 0.798779 0.741636
0.639805 0.805128 0.738706
0.696215 0.816117 0.736508
0.747253 0.827106 0.728694
0.798046 0.833944 0.720391
0.853968 0.833455 0.716728
0.586081 0.808547 0.752869
0.587790 0.804884 0.743834
0.599267 0.804396 0.737241
0.623932 0.807570 0.733089
0.665446 0.814652 0.730891
0.721368 0.829304 0.736508
0.765568 0.848107 0.741880
0.801221 0.866178 0.746764
0.831013 0.879365 0.749695
0.161172 0.368498 0.599023
0.162149 0.353114 0.597558
0.180952 0.338217 0.603419
0.218803 0.332112 0.617827
0.277656 0.342857 0.642979
0.340171 0.377534 0.677167
0.384127 0.407326 0.705006
0.407814 0.425885 0.722833
0.408791 0.426618 0.726984
0.172161 0.393407 0.608059
0.172650 0.382173 0.605861
0.188523 0.366545 0.609280
0.225153 0.356044 0.621245
0.288156 0.360684 0.645421
0.358730 0.393162 0.679365
0.407814 0.422466 0.708181
0.433700 0.442247 0.727473
0.433455 0.446642 0.734066
0.206105 0.457387 0.634676
0.201954 0.440781 0.628571
0.213675 0.424908 0.628327
0.248352 0.413431 0.637118
0.313553 0.410256 0.658608
0.393162 0.436874 0.691575
0.453236 0.461050 0.719414
0.490110 0.476923 0.738217
0.500122 0.477656 0.744567
0.259829 0.547009 0.673016
0.250549 0.524542 0.663980
0.257387 0.508425 0.660317
0.288401 0.497680 0.665201
0.351648 0.490842 0.682296
0.440781 0.507692 0.712576
0.514774 0.523321 0.737729
0.568010 0.531380 0.754090
0.595849 0.525275 0.758486
0.330647 0.648596 0.716972
0.319170 0.629060 0.709402
0.321123 0.612698 0.704518
0.345299 0.602442 0.705495
0.400244 0.601709 0.716484
0.498657 0.604640 0.741636
0.586569 0.608791 0.761416
0.658364 0.607814 0.773626
0.707692 0.595849 0.775580
0.420269 0.727473 0.750672
0.409280 0.714530 0.744811
0.409524 0.703541 0.741392
0.429060 0.697192 0.741636
0.475458 0.697192 0.748230
0.556777 0.702808 0.765812
0.642491 0.703053 0.778999
0.721856 0.697680 0.786325
0.784371 0.686691 0.785836
0.493040 0.778510 0.770696
0.487424 0.771429 0.766789
0.491819 0.766300 0.764835
0.512332 0.764835 0.765568
0.555800 0.768498 0.770208
0.624420 0.777045 0.781441
0.695238 0.780708 0.789011
0.764591 0.778999 0.792674
0.828816 0.771184 0.792186
0.546520 0.806593 0.780220
0.546276 0.803419 0.777045
0.555311 0.802686 0.776068
0.578510 0.805372 0.777289
0.621001 0.812454 0.781197
0.681563 0.823932 0.789011
0.736508 0.834188 0.795116
0.788767 0.840537 0.799267
0.841514 0.839805 0.801465
0.578022 0.816850 0.781929
0.578755 0.813919 0.777534
0.588278 0.813919 0.775580
0.610501 0.817827 0.776313
0.649817 0.825885 0.779731
0.708181 0.840049 0.789011
0.757998 0.856166 0.800488
0.797070 0.871551 0.811966
0.822711 0.882295 0.820757
0.164591 0.372894 0.600977
0.164103 0.359219 0.600244
0.180464 0.346032 0.605861
0.214652 0.339927 0.619292
0.268620 0.347497 0.642491
0.330159 0.381441 0.675946
0.378510 0.411722 0.705739
0.408059 0.430525 0.726007
0.414164 0.430525 0.731380
0.171673 0.391453 0.607570
0.172405 0.383150 0.607082
0.184615 0.370452 0.610501
0.215140 0.361661 0.621978
0.270085 0.365324 0.644933
0.337485 0.398535 0.680098
0.390965 0.429548 0.712088
0.424908 0.451038 0.734554
0.433455 0.455189 0.741880
0.201465 0.448352 0.631502
0.198291 0.435409 0.627595
0.206349 0.422466 0.628327
0.233700 0.413187 0.637363
0.288401 0.411966 0.658852
0.361905 0.440049 0.694017
0.423199 0.469597 0.727473
0.465690 0.490354 0.751648
0.482295 0.493040 0.759463
0.251526 0.532601 0.667888
0.243223 0.513309 0.661050
0.246642 0.499389 0.659096
0.270330 0.490842 0.665446
0.322589 0.487424 0.683761
0.402930 0.507692 0.717949
0.473993 0.532357 0.751893
0.528205 0.549939 0.777045
0.557509 0.547985 0.784615
0.319414 0.632967 0.711844
0.307692 0.614164 0.705495
0.307204 0.599023 0.702076
0.325763 0.590476 0.705495
0.371917 0.592674 0.720147
0.459585 0.603175 0.752381
0.541392 0.619536 0.785348
0.609524 0.630525 0.810256
0.656166 0.624664 0.818315
0.404151 0.713797 0.745788
0.392918 0.701343 0.742369
0.391209 0.691087 0.740415
0.406593 0.685714 0.743346
0.446886 0.688401 0.754090
0.524298 0.701832 0.782418
0.606349 0.713553 0.812210
0.681807 0.718926 0.835165
0.738462 0.713309 0.842247
0.480830 0.770696 0.769231
0.473993 0.763858 0.768010
0.475702 0.758974 0.768010
0.492308 0.757753 0.770940
0.531136 0.762149 0.778999
0.598779 0.775092 0.800000
0.669109 0.786081 0.825397
0.736264 0.791941 0.846398
0.794139 0.789499 0.854457
0.540659 0.805372 0.783883
0.538706 0.802442 0.783639
0.544567 0.801221 0.784371
0.563614 0.803419 0.787302
0.602198 0.810256 0.793651
0.662515 0.822466 0.808059
0.719902 0.834921 0.829060
0.772894 0.844444 0.849328
0.820269 0.847619 0.861050
0.574847 0.820024 0.791941
0.574603 0.816850 0.789255
0.581685 0.816606 0.789011
0.601221 0.820269 0.791697
0.638828 0.828816 0.796825
0.695238 0.842247 0.809035
0.748718 0.857387 0.828083
0.790965 0.871551 0.849573
0.814164 0.881563 0.867888
0.168254 0.375336 0.602198
0.165079 0.362149 0.601954
0.178755 0.350672 0.607326
0.210012 0.345543 0.619536
0.260562 0.351160 0.640537
0.321856 0.381929 0.673260
0.371429 0.411477 0.703053
0.403907 0.430525 0.724298
0.414408 0.430037 0.731136
0.171673 0.389499 0.607082
0.169719 0.379487 0.605617
0.179731 0.367521 0.608547
0.207082 0.359951 0.619048
0.257387 0.362393 0.640049
0.323077 0.392430 0.674237
0.377778 0.424664 0.706716
0.415629 0.449084 0.731380
0.430281 0.455678 0.742369
0.196093 0.438828 0.628327
0.193162 0.426129 0.625153
0.198535 0.412698 0.624908
0.221245 0.403175 0.632234
0.270818 0.402686 0.652015
0.340171 0.427595 0.685714
0.400000 0.459341 0.718926
0.443223 0.486447 0.746032
0.462759 0.498168 0.759951
0.240537 0.515995 0.662027
0.234676 0.499389 0.657387
0.235653 0.484005 0.654457
0.253968 0.473504 0.658852
0.300122 0.471551 0.675946
0.373382 0.490354 0.707937
0.438828 0.518926 0.741392
0.488645 0.546276 0.769963
0.514774 0.561172 0.787790
0.303785 0.612943 0.704029
0.294261 0.595849 0.699145
0.292308 0.579976 0.695482
0.306227 0.569719 0.697924
0.345055 0.569475 0.711355
0.422955 0.583394 0.741880
0.495726 0.607326 0.774847
0.554335 0.632234 0.805617
0.590232 0.649328 0.829304
0.386569 0.697436 0.738462
0.375824 0.685714 0.736264
0.371917 0.673993 0.733822
0.382906 0.666422 0.735287
0.416361 0.666911 0.744811
0.488400 0.683761 0.776068
0.562393 0.704762 0.808547
0.627595 0.725763 0.839072
0.673504 0.742369 0.865446
0.467643 0.759707 0.763614
0.458852 0.752625 0.763858
0.457387 0.746032 0.763370
0.469109 0.742613 0.765324
0.501099 0.745055 0.772405
0.564835 0.760684 0.796581
0.631990 0.779487 0.826374
0.693285 0.797802 0.856899
0.739927 0.813187 0.883516
0.534554 0.800488 0.781441
0.529670 0.796581 0.782173
0.531380 0.794139 0.782906
0.546032 0.794872 0.785592
0.578999 0.800244 0.791209
0.636142 0.813431 0.806593
0.694261 0.829792 0.831990
0.746520 0.846154 0.861294
0.786081 0.859585 0.888400
0.574847 0.821001 0.793651
0.573626 0.817094 0.790965
0.578022 0.816361 0.790965
0.594628 0.819780 0.793162
0.630281 0.828327 0.798046
0.685714 0.841514 0.810256
0.738217 0.855189 0.829304
0.781441 0.868132 0.854212
0.809280 0.879853 0.883761
