src-tauri/resources/luts/胶片质感.cube
# Converted from .3dl (size 17x17x17) using Python
LUT_3D_SIZE 5
DOMAIN_MIN 0.0 0.0 0.0
DOMAIN_MAX 1.0 1.0 1.0
0.031258 0.023443 0.015629
0.084249 0.051282 0.041270
0.183883 0.116239 0.090354
0.252991 0.169719 0.122344
0.262027 0.187790 0.140659
0.167033 0.147985 0.028571
0.195360 0.153846 0.040049
0.358974 0.236874 0.081319
0.450305 0.286691 0.133578
0.396581 0.286203 0.168498
0.466911 0.415873 0.063492
0.464713 0.406593 0.082051
0.545543 0.486691 0.167521
0.665690 0.555800 0.259341
0.652991 0.553602 0.309646
0.582662 0.571917 0.117705
0.603419 0.582662 0.146032
0.679121 0.658852 0.281074
0.752381 0.745299 0.433455
0.771429 0.760195 0.480342
0.610012 0.602198 0.140659
0.628816 0.619292 0.169719
0.693285 0.685714 0.292064
0.767521 0.783150 0.477656
0.797558 0.828816 0.555311
0.082540 0.175580 0.397802
0.125275 0.142857 0.370940
0.242979 0.187790 0.390476
0.290598 0.256410 0.424420
0.263492 0.293285 0.414652
0.148474 0.307937 0.416361
0.184860 0.237851 0.320879
0.363614 0.266422 0.307448
0.479365 0.309646 0.339438
0.395360 0.330403 0.358974
0.398291 0.557998 0.440781
0.377534 0.482784 0.338217
0.478144 0.492552 0.317705
0.647863 0.528205 0.352381
0.675458 0.526740 0.374603
0.579976 0.680342 0.429060
0.588523 0.650305 0.358974
0.642491 0.671306 0.370452
0.740904 0.734066 0.443712
0.819536 0.744811 0.455922
0.627839 0.695971 0.395849
0.639072 0.677167 0.339927
0.694261 0.705495 0.373138
0.767521 0.789499 0.504029
0.812454 0.837607 0.569963
0.142369 0.328205 0.575580
0.169719 0.286447 0.576068
0.288889 0.288401 0.612454
0.373871 0.357021 0.656654
0.360440 0.390720 0.667888
0.199756 0.444933 0.620513
0.217094 0.379731 0.586081
0.370208 0.347985 0.582906
0.504274 0.388278 0.610745
0.484249 0.419048 0.642247
0.342857 0.654212 0.705006
0.328938 0.594383 0.657387
0.436142 0.553114 0.609280
0.635165 0.545543 0.592674
0.716484 0.542125 0.604151
0.519414 0.771917 0.721368
0.529915 0.754579 0.690354
0.603663 0.746520 0.651038
0.723810 0.753358 0.611477
0.850305 0.750183 0.594872
0.600244 0.791697 0.694017
0.615873 0.783639 0.661294
0.687180 0.790232 0.635409
0.770208 0.829548 0.647619
0.834921 0.870085 0.661294
0.161172 0.368498 0.599023
0.180952 0.338217 0.603419
0.277656 0.342857 0.642979
0.384127 0.407326 0.705006
0.408791 0.426618 0.726984
0.206105 0.457387 0.634676
0.213675 0.424908 0.628327
0.313553 0.410256 0.658608
0.453236 0.461050 0.719414
0.500122 0.477656 0.744567
0.330647 0.648596 0.716972
0.321123 0.612698 0.704518
0.400244 0.601709 0.716484
0.586569 0.608791 0.761416
0.707692 0.595849 0.775580
0.493040 0.778510 0.770696
0.491819 0.766300 0.764835
0.555800 0.768498 0.770208
0.695238 0.780708 0.789011
0.828816 0.771184 0.792186
0.578022 0.816850 0.781929
0.588278 0.813919 0.775580
0.649817 0.825885 0.779731
0.757998 0.856166 0.800488
0.822711 0.882295 0.820757
0.168254 0.375336 0.602198
0.178755 0.350672 0.607326
0.260562 0.351160 0.640537
0.371429 0.411477 0.703053
0.414408 0.430037 0.731136
0.196093 0.438828 0.628327
0.198535 0.412698 0.624908
0.270818 0.402686 0.652015
0.400000 0.459341 0.718926
0.462759 0.498168 0.759951
0.303785 0.612943 0.704029
0.292308 0.579976 0.695482
0.345055 0.569475 0.711355
0.495726 0.607326 0.774847
0.590232 0.649328 0.829304
0.467643 0.759707 0.763614
0.457387 0.746032 0.763370
0.501099 0.745055 0.772405
0.631990 0.779487 0.826374
0.739927 0.813187 0.883516
0.574847 0.821001 0.793651
0.578022 0.816361 0.790965
0.630281 0.828327 0.798046
0.738217 0.855189 0.829304
0.809280 0.879853 0.883761
