src-tauri/resources/luts/胶片质感.3dl
# LUT by SparkleStock. Enhanced with VOXCOLOR algorithms.
0 64 128 192 256 320 384 448 512 576 640 704 768 832 896 960 1023
128 96 64
170 231 499
213 366 934
265 522 1325
338 719 1629
411 915 1932
472 1072 2114
527 1208 2235
583 1344 2357
609 1401 2391
635 1457 2425
654 1498 2449
660 1509 2453
667 1520 2458
674 1527 2461
682 1532 2464
689 1537 2466
196 171 74
222 310 502
248 448 929
291 606 1319
367 804 1635
444 1002 1950
507 1158 2138
563 1291 2263
620 1425 2387
642 1474 2418
665 1523 2448
681 1557 2469
683 1560 2471
685 1563 2474
689 1565 2475
692 1565 2475
696 1566 2476
264 247 84
274 388 504
284 530 924
317 690 1313
397 890 1641
477 1089 1968
542 1243 2162
599 1375 2290
656 1507 2418
676 1548 2445
695 1589 2472
707 1615 2490
705 1611 2490
704 1607 2489
703 1603 2488
703 1599 2487
703 1595 2486
403 374 97
390 520 512
376 666 927
392 829 1317
464 1025 1660
537 1222 2002
600 1372 2203
658 1499 2333
715 1626 2464
731 1660 2489
748 1695 2514
757 1713 2529
751 1702 2526
746 1691 2522
741 1680 2519
736 1670 2516
731 1660 2513
684 606 117
633 758 531
583 910 945
564 1074 1342
608 1261 1705
653 1447 2067
705 1588 2276
761 1705 2409
818 1822 2541
832 1850 2566
846 1879 2591
853 1892 2605
844 1873 2599
835 1855 2592
825 1836 2586
814 1817 2579
803 1797 2573
965 837 136
877 996 550
789 1155 964
736 1320 1367
753 1496 1750
769 1672 2132
811 1803 2350
865 1910 2484
920 2018 2618
932 2041 2643
944 2063 2668
949 2070 2681
937 2044 2672
925 2019 2662
909 1991 2653
892 1963 2643
875 1935 2633
1272 1111 172
1185 1266 571
1097 1421 970
1031 1581 1371
1008 1752 1775
985 1923 2179
1000 2043 2412
1033 2137 2558
1067 2232 2705
1073 2249 2729
1079 2266 2753
1079 2268 2766
1064 2240 2756
1050 2212 2746
1030 2181 2735
1008 2147 2723
985 2113 2711
1592 1407 216
1524 1552 592
1456 1697 969
1388 1850 1363
1319 2018 1790
1251 2186 2217
1230 2296 2469
1233 2376 2632
1235 2455 2796
1234 2467 2819
1232 2478 2843
1226 2476 2855
1209 2448 2846
1192 2421 2837
1169 2387 2825
1142 2349 2811
1115 2312 2797
1912 1703 260
1863 1838 614
1814 1974 969
1744 2119 1355
1631 2285 1805
1517 2450 2255
1460 2549 2526
1432 2614 2706
1404 2679 2887
1395 2684 2910
1385 2689 2932
1373 2684 2944
1354 2656 2936
1335 2629 2928
1308 2592 2915
1276 2551 2899
1244 2510 2883
2069 1904 322
2044 2029 655
2019 2153 987
1970 2289 1356
1871 2449 1800
1773 2609 2244
1708 2705 2524
1660 2769 2722
1612 2833 2921
1597 2841 2956
1581 2848 2992
1562 2844 3013
1537 2818 3005
1512 2792 2997
1481 2758 2984
1447 2721 2969
1413 2683 2953
2227 2106 384
2225 2219 695
2224 2332 1005
2195 2459 1358
2112 2613 1795
2029 2767 2233
1956 2861 2523
1888 2924 2739
1820 2988 2954
1799 2997 3003
1777 3006 3051
1752 3004 3081
1721 2979 3074
1690 2954 3067
1655 2923 3054
1619 2890 3039
1583 2856 3024
2345 2266 440
2362 2369 729
2378 2472 1018
2366 2590 1354
2298 2738 1783
2231 2887 2213
2157 2979 2510
2079 3044 2740
2001 3108 2971
1974 3120 3033
1948 3132 3094
1919 3133 3134
1887 3112 3129
1855 3090 3124
1821 3064 3113
1786 3035 3099
1751 3007 3085
2386 2342 482
2407 2437 752
2429 2532 1021
2426 2643 1340
2375 2786 1757
2323 2928 2174
2261 3022 2473
2194 3092 2714
2127 3161 2954
2098 3177 3029
2069 3194 3104
2043 3201 3154
2019 3188 3156
1995 3175 3157
1969 3156 3150
1942 3133 3139
1915 3111 3127
2427 2419 525
2453 2506 775
2480 2592 1025
2486 2695 1326
2451 2833 1731
2415 2970 2135
2366 3065 2437
2309 3139 2687
2252 3213 2937
2222 3234 3025
2191 3256 3114
2166 3268 3175
2151 3264 3183
2135 3259 3191
2118 3247 3187
2098 3231 3178
2079 3215 3169
2454 2450 548
2484 2534 783
2513 2617 1018
2525 2716 1305
2500 2849 1697
2475 2982 2088
2434 3078 2391
2384 3156 2650
2335 3234 2909
2304 3259 3009
2274 3285 3108
2250 3302 3180
2238 3303 3195
2226 3304 3209
2214 3298 3210
2201 3288 3205
2189 3278 3200
2476 2458 562
2507 2541 784
2538 2623 1007
2553 2721 1281
2536 2850 1659
2519 2978 2037
2484 3075 2341
2440 3157 2608
2397 3238 2875
2367 3268 2985
2337 3298 3096
2314 3319 3176
2303 3324 3198
2292 3329 3220
2284 3328 3227
2278 3324 3226
2272 3320 3225
2498 2466 576
2530 2548 786
2562 2630 995
2581 2726 1257
2571 2850 1621
2562 2975 1986
2534 3072 2292
2496 3157 2567
2458 3242 2842
2429 3276 2962
2400 3311 3083
2378 3337 3173
2367 3345 3202
2357 3354 3231
2354 3358 3243
2354 3360 3247
2354 3362 3250
167 114 82
205 226 491
243 339 901
290 477 1278
356 668 1592
422 860 1905
479 1017 2094
533 1157 2221
586 1298 2348
612 1359 2383
637 1420 2419
656 1464 2444
662 1477 2450
668 1491 2456
673 1499 2460
678 1504 2463
683 1510 2466
225 179 88
250 294 480
275 409 872
315 549 1243
383 742 1572
451 934 1901
510 1092 2100
565 1233 2235
619 1374 2369
642 1430 2404
665 1486 2439
681 1525 2464
684 1533 2468
687 1540 2472
689 1542 2473
690 1542 2474
691 1542 2474
283 245 94
295 362 468
307 478 843
339 621 1207
410 815 1552
481 1009 1896
541 1168 2106
597 1309 2248
652 1449 2390
673 1501 2425
693 1552 2460
707 1586 2483
706 1588 2485
706 1590 2487
704 1586 2487
702 1580 2485
699 1574 2483
410 362 103
400 482 465
391 601 826
406 745 1188
471 938 1550
535 1131 1912
594 1287 2132
650 1425 2281
707 1563 2429
725 1609 2463
743 1654 2497
753 1683 2520
750 1678 2519
746 1673 2519
741 1664 2516
734 1652 2512
727 1640 2509
672 582 121
625 705 477
578 828 834
560 973 1199
600 1160 1584
640 1347 1969
690 1495 2199
747 1624 2350
803 1753 2502
819 1792 2535
835 1831 2569
843 1852 2590
836 1839 2587
828 1826 2583
819 1809 2578
808 1790 2572
797 1771 2567
934 802 139
850 929 490
765 1056 841
714 1201 1211
729 1382 1619
744 1562 2026
787 1703 2265
843 1823 2420
900 1943 2575
914 1975 2608
927 2007 2641
933 2021 2660
921 2000 2654
910 1979 2647
896 1955 2640
881 1929 2632
866 1903 2625
1240 1075 175
1153 1198 511
1065 1320 847
999 1461 1214
976 1639 1643
953 1817 2073
969 1947 2327
1005 2053 2493
1041 2160 2660
1050 2185 2693
1058 2210 2725
1060 2219 2745
1045 2194 2737
1031 2170 2730
1013 2141 2721
993 2110 2711
973 2079 2701
1567 1375 219
1495 1489 535
1422 1603 851
1351 1738 1212
1283 1915 1663
1214 2091 2113
1195 2209 2386
1200 2299 2568
1204 2389 2751
1207 2408 2784
1209 2427 2817
1205 2431 2836
1188 2405 2829
1171 2380 2822
1148 2348 2811
1124 2312 2799
1099 2277 2787
1894 1674 263
1836 1780 559
1779 1886 855
1702 2015 1210
1589 2190 1682
1476 2365 2154
1420 2472 2444
1394 2545 2643
1368 2618 2842
1364 2631 2875
1360 2644 2908
1351 2643 2928
1331 2616 2921
1311 2589 2914
1284 2554 2902
1254 2515 2887
1224 2475 2873
2060 1883 326
2027 1982 605
1994 2081 884
1939 2202 1224
1842 2370 1687
1745 2538 2150
1681 2642 2449
1632 2713 2665
1584 2785 2881
1571 2797 2925
1558 2810 2969
1540 2810 2997
1514 2784 2991
1488 2759 2986
1458 2726 2974
1425 2690 2960
1393 2654 2946
2226 2092 390
2217 2184 651
2208 2275 912
2176 2390 1238
2095 2551 1692
2015 2712 2147
1941 2812 2453
1871 2882 2686
1800 2952 2919
1778 2964 2975
1755 2977 3031
1730 2977 3067
1698 2952 3062
1666 2928 3058
1632 2898 3047
1597 2865 3033
1561 2832 3020
2350 2259 446
2360 2343 690
2371 2428 935
2356 2535 1246
2292 2690 1689
2228 2844 2132
2152 2942 2445
2071 3012 2692
1990 3083 2940
1960 3096 3008
1931 3110 3076
1900 3112 3120
1867 3092 3119
1834 3071 3118
1800 3045 3109
1765 3016 3096
1729 2987 3083
2393 2340 489
2410 2418 718
2427 2497 946
2423 2598 1241
2376 2746 1670
2329 2893 2098
2266 2992 2412
2196 3067 2668
2125 3142 2924
2093 3160 3005
2061 3178 3087
2032 3185 3143
2007 3173 3148
1983 3161 3153
1955 3142 3148
1926 3119 3138
1897 3096 3128
2436 2421 533
2460 2494 745
2484 2566 958
2490 2661 1237
2460 2802 1650
2429 2943 2064
2380 3042 2378
2320 3122 2643
2261 3201 2908
2226 3223 3003
2192 3245 3099
2163 3258 3166
2147 3255 3177
2131 3252 3188
2110 3239 3187
2088 3222 3180
2065 3205 3172
2465 2455 559
2491 2525 758
2518 2594 956
2529 2685 1222
2509 2820 1619
2489 2956 2017
2448 3057 2332
2397 3140 2605
2345 3223 2879
2311 3250 2986
2277 3276 3093
2251 3295 3170
2238 3296 3188
2225 3298 3206
2210 3292 3210
2194 3281 3205
2179 3270 3201
2487 2466 576
2513 2533 762
2539 2600 948
2553 2689 1200
2540 2820 1582
2528 2952 1965
2494 3053 2280
2449 3140 2561
2404 3227 2843
2372 3259 2961
2341 3290 3079
2315 3313 3166
2303 3318 3191
2291 3323 3216
2282 3322 3224
2273 3317 3223
2265 3312 3223
2509 2477 593
2535 2542 767
2561 2607 940
2577 2693 1179
2572 2820 1545
2567 2947 1912
2540 3050 2228
2502 3140 2517
2463 3231 2807
2434 3267 2936
2404 3304 3064
2380 3330 3161
2369 3339 3193
2358 3348 3225
2353 3351 3238
2352 3353 3241
2351 3354 3245
205 131 100
239 221 484
273 311 867
315 433 1231
374 618 1555
433 804 1879
486 962 2075
538 1107 2207
589 1252 2339
614 1317 2376
640 1382 2413
658 1430 2440
664 1446 2447
669 1462 2454
672 1471 2458
674 1477 2462
676 1483 2465
254 187 101
278 278 458
302 369 814
338 492 1166
398 679 1509
459 867 1852
514 1027 2062
566 1175 2207
619 1322 2351
642 1385 2391
666 1448 2430
682 1494 2458
685 1505 2464
689 1517 2470
689 1520 2472
687 1519 2472
686 1518 2473
303 243 103
317 335 432
331 427 761
361 552 1102
423 741 1463
485 929 1825
541 1092 2050
595 1242 2206
648 1392 2363
670 1453 2405
691 1514 2447
706 1558 2476
707 1565 2481
709 1572 2486
706 1569 2486
700 1562 2483
695 1554 2480
416 350 109
411 443 417
406 536 725
421 661 1058
477 851 1441
533 1040 1823
588 1202 2061
643 1351 2228
699 1500 2394
718 1557 2437
738 1614 2480
750 1653 2510
748 1655 2513
747 1656 2516
741 1647 2514
732 1633 2509
724 1619 2504
660 559 126
617 653 424
573 747 722
556 872 1057
591 1059 1464
626 1246 1872
676 1403 2121
732 1544 2292
789 1685 2463
807 1733 2505
824 1782 2547
833 1812 2575
827 1805 2574
821 1798 2574
812 1783 2570
801 1764 2565
791 1745 2560
904 768 142
822 862 431
741 957 719
691 1082 1055
705 1267 1488
719 1452 1921
763 1603 2181
821 1736 2356
880 1869 2531
895 1910 2572
910 1950 2613
917 1972 2640
906 1956 2636
896 1940 2632
884 1919 2627
871 1895 2622
857 1871 2616
1208 1039 178
1120 1130 451
1033 1220 724
967 1342 1057
944 1526 1512
921 1711 1966
939 1851 2242
977 1969 2428
1016 2087 2615
1027 2121 2656
1038 2154 2698
1040 2169 2724
1026 2148 2719
1012 2128 2713
996 2102 2707
978 2073 2699
961 2045 2692
1542 1342 222
1465 1426 478
1388 1509 733
1314 1626 1061
1246 1811 1536
1178 1995 2010
1160 2123 2302
1167 2222 2504
1173 2322 2706
1180 2349 2748
1186 2376 2791
1184 2386 2817
1167 2362 2812
1149 2339 2806
1128 2309 2798
1105 2276 2788
1083 2243 2778
1877 1645 267
1810 1722 504
1743 1798 742
1660 1911 1065
1548 2095 1559
1435 2280 2054
1381 2395 2363
1356 2476 2580
1331 2556 2797
1333 2577 2841
1334 2598 2884
1328 2603 2911
1307 2576 2905
1286 2549 2899
1260 2515 2889
1233 2478 2876
1205 2440 2863
2051 1862 331
2009 1935 556
1968 2008 781
1908 2116 1091
1813 2292 1574
1717 2468 2057
1653 2579 2373
1604 2657 2607
1556 2736 2840
1545 2754 2894
1534 2773 2947
1518 2776 2982
1491 2751 2978
1465 2726 2974
1435 2694 2964
1403 2659 2952
1372 2624 2939
2224 2078 395
2209 2148 607
2193 2218 819
2156 2320 1118
2078 2489 1589
2000 2657 2060
1926 2763 2384
1853 2839 2634
1780 2915 2884
1757 2931 2947
1734 2947 3010
1708 2950 3052
1676 2926 3050
1643 2902 3049
1609 2872 3040
1574 2840 3027
1539 2808 3015
2355 2251 452
2359 2318 652
2364 2384 851
2346 2481 1137
2286 2641 1595
2225 2801 2052
2148 2905 2381
2063 2981 2644
1978 3057 2908
1946 3072 2982
1914 3088 3057
1881 3092 3107
1848 3071 3109
1814 3051 3111
1779 3025 3104
1743 2997 3093
1708 2968 3081
2400 2337 496
2413 2399 684
2426 2462 871
2420 2554 1143
2377 2706 1582
2334 2858 2022
2271 2963 2350
2197 3042 2622
2124 3122 2894
2088 3142 2982
2053 3161 3070
2021 3170 3132
1996 3159 3140
1970 3148 3148
1941 3128 3145
1910 3105 3137
1879 3082 3128
2445 2423 541
2467 2481 716
2489 2540 891
2495 2627 1148
2469 2771 1570
2444 2915 1992
2394 3020 2319
2332 3104 2599
2269 3188 2879
2231 3211 2981
2192 3234 3083
2161 3249 3156
2144 3246 3171
2126 3244 3186
2103 3231 3187
2077 3213 3181
2051 3196 3175
2475 2461 569
2499 2516 732
2522 2570 895
2533 2653 1138
2518 2792 1542
2503 2931 1946
2462 3036 2273
2409 3124 2561
2356 3213 2849
2318 3240 2963
2281 3268 3077
2251 3287 3161
2237 3290 3182
2223 3293 3203
2206 3286 3209
2187 3274 3206
2169 3262 3203
2498 2474 589
2519 2526 740
2541 2577 890
2553 2657 1119
2545 2791 1506
2537 2925 1892
2504 3032 2218
2458 3124 2514
2412 3216 2810
2378 3249 2936
2344 3282 3062
2317 3306 3155
2304 3311 3183
2291 3317 3211
2279 3315 3220
2269 3310 3221
2259 3304 3221
2521 2488 610
2540 2536 748
2560 2584 886
2573 2660 1100
2572 2790 1469
2572 2920 1838
2546 3027 2164
2507 3124 2468
2468 3220 2771
2438 3258 2909
2407 3296 3046
2383 3324 3149
2370 3333 3184
2358 3341 3218
2353 3345 3232
2351 3345 3236
2349 3346 3239
259 160 126
291 233 485
323 306 844
363 413 1194
418 585 1527
473 757 1860
523 913 2063
570 1061 2201
617 1209 2339
640 1277 2378
663 1346 2416
680 1397 2444
684 1415 2451
687 1433 2459
688 1444 2463
687 1451 2467
687 1458 2470
309 212 123
333 285 448
357 358 774
392 464 1108
447 637 1460
502 810 1812
552 969 2033
599 1121 2187
646 1272 2342
667 1341 2385
688 1410 2429
702 1461 2460
704 1476 2467
706 1491 2474
703 1496 2476
699 1495 2476
