src-tauri/resources/luts/胶片质感.3dl
# LUT by SparkleStock. Enhanced with VOXCOLOR algorithms.
0 128 256 384 512 640 768 896 1023
128 96 64
213 366 934
338 719 1629
472 1072 2114
583 1344 2357
635 1457 2425
660 1509 2453
674 1527 2461
689 1537 2466
264 247 84
284 530 924
397 890 1641
542 1243 2162
656 1507 2418
695 1589 2472
705 1611 2490
703 1603 2488
703 1595 2486
684 606 117
583 910 945
608 1261 1705
705 1588 2276
818 1822 2541
846 1879 2591
844 1873 2599
825 1836 2586
803 1797 2573
1272 1111 172
1097 1421 970
1008 1752 1775
1000 2043 2412
1067 2232 2705
1079 2266 2753
1064 2240 2756
1030 2181 2735
985 2113 2711
1912 1703 260
1814 1974 969
1631 2285 1805
1460 2549 2526
1404 2679 2887
1385 2689 2932
1354 2656 2936
1308 2592 2915
1244 2510 2883
2227 2106 384
2224 2332 1005
2112 2613 1795
1956 2861 2523
1820 2988 2954
1777 3006 3051
1721 2979 3074
1655 2923 3054
1583 2856 3024
2386 2342 482
2429 2532 1021
2375 2786 1757
2261 3022 2473
2127 3161 2954
2069 3194 3104
2019 3188 3156
1969 3156 3150
1915 3111 3127
2454 2450 548
2513 2617 1018
2500 2849 1697
2434 3078 2391
2335 3234 2909
2274 3285 3108
2238 3303 3195
2214 3298 3210
2189 3278 3200
2498 2466 576
2562 2630 995
2571 2850 1621
2534 3072 2292
2458 3242 2842
2400 3311 3083
2367 3345 3202
2354 3358 3243
2354 3362 3250
205 131 100
273 311 867
374 618 1555
486 962 2075
589 1252 2339
640 1382 2413
664 1446 2447
672 1471 2458
676 1483 2465
303 243 103
331 427 761
423 741 1463
541 1092 2050
648 1392 2363
691 1514 2447
707 1565 2481
706 1569 2486
695 1554 2480
660 559 126
573 747 722
591 1059 1464
676 1403 2121
789 1685 2463
824 1782 2547
827 1805 2574
812 1783 2570
791 1745 2560
1208 1039 178
1033 1220 724
944 1526 1512
939 1851 2242
1016 2087 2615
1038 2154 2698
1026 2148 2719
996 2102 2707
961 2045 2692
1877 1645 267
1743 1798 742
1548 2095 1559
1381 2395 2363
1331 2556 2797
1334 2598 2884
1307 2576 2905
1260 2515 2889
1205 2440 2863
2224 2078 395
2193 2218 819
2078 2489 1589
1926 2763 2384
1780 2915 2884
1734 2947 3010
1676 2926 3050
1609 2872 3040
1539 2808 3015
2400 2337 496
2426 2462 871
2377 2706 1582
2271 2963 2350
2124 3122 2894
2053 3161 3070
1996 3159 3140
1941 3128 3145
1879 3082 3128
2475 2461 569
2522 2570 895
2518 2792 1542
2462 3036 2273
2356 3213 2849
2281 3268 3077
2237 3290 3182
2206 3286 3209
2169 3262 3203
2521 2488 610
2560 2584 886
2572 2790 1469
2546 3027 2164
2468 3220 2771
2407 3296 3046
2370 3333 3184
2353 3345 3232
2349 3346 3239
345 210 169
413 347 842
513 585 1519
617 877 2068
695 1173 2359
729 1313 2436
741 1385 2471
739 1417 2481
732 1436 2487
487 328 150
528 457 692
612 686 1362
703 974 1974
766 1278 2343
778 1430 2451
772 1501 2495
756 1517 2500
736 1505 2492
800 630 164
742 750 633
757 974 1314
816 1258 1978
889 1555 2400
893 1691 2526
875 1740 2573
845 1730 2573
813 1690 2559
1275 1086 223
1122 1190 637
1039 1416 1334
1024 1694 2050
1078 1955 2520
1082 2063 2657
1054 2082 2704
1010 2045 2699
965 1982 2680
1903 1665 336
1735 1746 672
1546 1977 1385
1396 2245 2162
1347 2434 2692
1352 2512 2837
1315 2509 2885
1258 2453 2875
1197 2375 2848
2281 2117 487
2202 2192 775
2087 2412 1446
1948 2665 2215
1802 2845 2800
1745 2893 2972
1677 2881 3036
1602 2830 3032
1523 2760 3005
2471 2386 598
2459 2459 851
2410 2663 1470
2317 2905 2210
2170 3090 2827
2083 3136 3041
2014 3138 3132
1948 3108 3145
1873 3055 3126
2545 2513 667
2570 2582 893
2569 2770 1453
2525 3001 2152
2420 3201 2792
2331 3262 3054
2274 3287 3178
2230 3281 3212
2176 3252 3206
2575 2536 695
2603 2601 891
2617 2773 1392
2597 2994 2047
2522 3209 2708
2454 3294 3019
2409 3333 3176
2382 3344 3231
2367 3343 3239
533 327 262
610 452 875
729 631 1530
840 862 2090
895 1139 2416
904 1286 2497
896 1360 2530
879 1392 2536
860 1415 2537
767 468 222
824 568 703
913 719 1332
987 929 1940
1004 1205 2361
965 1377 2493
922 1458 2544
881 1481 2547
848 1474 2535
1078 780 233
1051 856 642
1069 991 1247
1104 1190 1879
1127 1459 2369
1078 1625 2543
1017 1693 2609
957 1692 2610
906 1651 2589
1487 1228 312
1365 1281 660
1291 1412 1245
1264 1607 1896
1283 1851 2444
1245 1995 2647
1181 2038 2724
1107 2010 2725
1040 1939 2698
2014 1777 474
1837 1805 726
1668 1946 1294
1541 2140 1981
1487 2331 2586
1473 2448 2806
1414 2467 2889
1334 2418 2889
1254 2333 2858
2401 2232 675
2282 2256 859
2167 2399 1384
2047 2597 2062
1914 2784 2706
1841 2852 2941
1757 2855 3037
1665 2808 3044
1568 2729 3011
2597 2502 808
2544 2529 961
2489 2672 1441
2409 2870 2091
2280 3067 2753
2181 3123 3018
2098 3132 3135
2016 3103 3157
1921 3041 3134
2668 2625 874
2666 2659 1017
2661 2796 1453
2626 2991 2064
2537 3202 2733
2438 3271 3037
2369 3298 3183
2308 3290 3224
2236 3255 3217
2676 2635 876
2695 2678 1014
2708 2804 1405
2694 2990 1976
2632 3213 2652
2555 3307 3002
2500 3349 3179
2462 3359 3242
2435 3357 3248
753 476 370
845 606 980
995 769 1599
1131 962 2138
1183 1181 2508
1167 1338 2602
1137 1404 2633
1100 1423 2631
1067 1438 2623
1093 630 317
1168 705 781
1272 829 1366
1352 999 1952
1354 1211 2418
1266 1393 2583
1180 1477 2643
1106 1496 2641
1054 1484 2621
1470 970 333
1462 1001 711
1489 1091 1259
1517 1234 1857
1516 1425 2387
1401 1602 2611
1284 1680 2697
1181 1687 2698
1109 1649 2670
1858 1443 447
1760 1440 748
1699 1504 1248
1669 1624 1839
1662 1788 2413
1561 1949 2685
1440 2010 2794
1321 1996 2800
1229 1931 2768
2234 1993 686
2094 1967 868
1958 2017 1301
1848 2123 1879
1786 2265 2495
1736 2419 2803
1639 2464 2934
1523 2427 2949
1413 2332 2913
2589 2435 974
2462 2409 1059
2347 2468 1423
2242 2588 1970
2141 2742 2605
2052 2832 2921
1947 2855 3064
1830 2819 3088
1705 2731 3050
2781 2698 1151
2699 2681 1200
2631 2749 1517
2560 2882 2030
2472 3057 2666
2371 3126 2998
2276 3147 3154
2175 3121 3190
2052 3051 3163
2849 2813 1222
2819 2807 1273
2799 2883 1560
2771 3024 2040
2717 3219 2668
2620 3297 3025
2543 3327 3199
2466 3318 3250
2371 3277 3240
2839 2808 1196
2838 2813 1258
2843 2889 1528
2840 3032 1984
2814 3236 2602
2725 3336 2993
2661 3382 3193
2616 3394 3263
2581 3392 3268
936 609 450
1000 754 1064
1157 923 1690
1326 1118 2237
1428 1339 2610
1424 1482 2734
1393 1546 2773
1352 1562 2768
1318 1564 2757
1315 754 408
1402 823 860
1520 951 1445
1617 1127 2033
1644 1337 2494
1563 1518 2702
1469 1610 2782
1382 1632 2785
1323 1607 2761
1745 1103 446
1773 1112 796
1818 1189 1325
1857 1323 1910
1865 1505 2430
1747 1695 2715
1610 1789 2832
1482 1802 2842
1393 1751 2808
2173 1596 595
2122 1561 853
2086 1590 1308
2067 1677 1862
2067 1817 2415
1957 1996 2764
1805 2079 2918
1650 2079 2940
1529 2008 2899
2546 2174 885
2461 2108 1009
2359 2107 1374
2271 2158 1884
2230 2247 2445
2172 2404 2845
2042 2476 3037
1882 2470 3081
1732 2389 3038
2796 2634 1265
2711 2582 1290
2623 2588 1543
2537 2641 1966
2461 2726 2501
2389 2825 2920
2280 2878 3136
2147 2874 3204
2000 2800 3178
2954 2912 1516
2891 2878 1506
2833 2900 1697
2775 2968 2060
2709 3069 2566
2639 3145 2980
2557 3182 3200
2452 3174 3276
2313 3115 3262
3025 3035 1635
2992 3017 1632
2968 3055 1799
2943 3140 2128
2909 3263 2611
2851 3342 3016
2791 3374 3231
2713 3368 3309
2605 3331 3303
3013 3031 1618
3005 3021 1640
3004 3063 1808
3004 3156 2129
2995 3295 2607
2954 3396 3016
2900 3440 3231
2847 3449 3313
2808 3446 3318
1036 695 501
1049 862 1100
1190 1050 1738
1378 1252 2305
1531 1462 2689
1573 1603 2833
1573 1668 2887
1550 1686 2890
1521 1685 2879
1393 830 481
1474 907 912
1592 1057 1508
1705 1250 2116
1774 1458 2582
1735 1634 2803
1670 1730 2900
1601 1759 2916
1547 1739 2894
1844 1174 547
1898 1183 868
1963 1268 1390
2024 1410 1979
2065 1590 2501
1976 1777 2801
1856 1888 2946
1733 1923 2979
1638 1881 2944
2313 1674 731
2311 1630 949
2313 1648 1373
2327 1723 1905
2357 1851 2449
2259 2028 2823
2108 2143 3021
1941 2180 3079
1797 2125 3036
2726 2276 1062
2701 2192 1136
2653 2163 1443
2609 2180 1901
2601 2234 2427
2544 2382 2861
2402 2493 3118
2217 2537 3216
2030 2487 3173
2944 2752 1476
2917 2683 1448
2879 2656 1624
2835 2666 1969
2788 2708 2450
2737 2795 2899
2631 2879 3190
2483 2922 3326
2303 2886 3311
3081 3052 1775
3057 3011 1714
3034 3006 1817
3004 3033 2080
2964 3085 2504
2918 3145 2939
2847 3197 3231
2740 3219 3380
2588 3192 3384
3146 3197 1941
3129 3181 1898
3120 3202 1978
3111 3253 2197
3097 3328 2575
3060 3387 2984
3016 3416 3256
2948 3419 3395
2843 3398 3407
3143 3207 1956
3138 3200 1962
3143 3233 2064
3151 3301 2286
3154 3397 2652
3135 3473 3038
3104 3506 3278
3066 3511 3391
3023 3502 3396
1075 745 538
1033 932 1098
1147 1144 1741
1340 1357 2332
1533 1549 2735
1630 1682 2893
1670 1744 2960
1671 1763 2973
1654 1763 2966
1358 867 538
1395 961 938
1498 1142 1546
1632 1357 2181
1759 1560 2659
1789 1720 2874
1776 1811 2979
1740 1847 3008
1702 1839 2995
1795 1194 631
1832 1215 919
1903 1324 1443
1998 1485 2046
2107 1665 2576
2084 1835 2865
2007 1953 3023
1907 2008 3078
1815 1992 3055
2295 1687 841
2310 1648 1024
2344 1675 1428
2404 1757 1953
2499 1881 2499
2452 2041 2863
2326 2176 3088
2163 2252 3182
2001 2237 3153
2769 2305 1197
2793 2216 1232
2801 2180 1500
2814 2187 1926
2852 2224 2437
2828 2355 2868
2696 2489 3168
2496 2582 3318
2270 2589 3299
3014 2797 1610
3047 2720 1540
3075 2678 1669
3087 2669 1975
3077 2689 2434
3055 2757 2877
2956 2857 3220
2792 2944 3420
2570 2972 3436
3153 3119 1926
3182 3076 1826
3214 3059 1873
3234 3065 2082
3225 3092 2465
3198 3131 2897
3131 3190 3246
3015 3243 3466
2839 3267 3509
3216 3291 2124
3231 3280 2054
3260 3296 2079
3286 3332 2232
3297 3379 2548
3268 3415 2950
3230 3442 3273
3165 3458 3478
3057 3465 3527
3228 3331 2184
3232 3329 2189
3253 3366 2253
3279 3427 2411
3295 3500 2698
3281 3547 3058
3264 3569 3325
3239 3569 3479
3200 3555 3498
1073 769 576
994 967 1068
1079 1201 1698
1261 1427 2307
1476 1600 2735
1609 1698 2902
1674 1747 2977
1696 1763 2995
1697 1761 2994
1242 871 583
1178 986 934
1249 1202 1550
1409 1441 2211
1614 1629 2700
1732 1753 2905
1775 1829 3006
1775 1864 3038
1762 1866 3040
1624 1172 690
1570 1209 941
1619 1353 1470
1761 1542 2094
1983 1716 2630
2067 1854 2899
2048 1956 3049
1975 2019 3110
1895 2040 3112
2130 1647 913
2103 1614 1064
2142 1667 1463
2258 1773 1995
2462 1900 2548
2520 2032 2889
2440 2151 3106
2283 2244 3213
2108 2298 3226
2674 2267 1268
2713 2181 1281
2766 2157 1534
2837 2175 1954
2934 2220 2474
2998 2322 2880
2898 2440 3176
2687 2558 3351
2417 2659 3396
2987 2776 1666
3071 2699 1572
3165 2660 1682
3244 2653 1976
3283 2672 2436
3304 2725 2874
3212 2812 3218
3024 2921 3449
2758 3040 3544
3159 3113 1967
3250 3068 1842
3356 3050 1867
3445 3052 2059
3482 3072 2436
3467 3105 2881
3394 3158 3244
3252 3233 3499
3030 3330 3618
3237 3309 2169
3302 3296 2083
3392 3311 2085
3478 3343 2216
3529 3382 2515
3497 3413 2935
3446 3439 3282
3359 3471 3526
3219 3520 3638
3266 3394 2274
3281 3390 2288
3327 3430 2334
3380 3495 2458
3419 3563 2708
3403 3601 3070
3369 3613 3361
3334 3610 3554
3314 3603 3619
