src-tauri/resources/luts/胶片质感.3dl
# LUT by SparkleStock. Enhanced with VOXCOLOR algorithms.
0 256 512 768 1023
128 96 64
338 719 1629
583 1344 2357
660 1509 2453
689 1537 2466
684 606 117
608 1261 1705
818 1822 2541
844 1873 2599
803 1797 2573
1912 1703 260
1631 2285 1805
1404 2679 2887
1354 2656 2936
1244 2510 2883
2386 2342 482
2375 2786 1757
2127 3161 2954
2019 3188 3156
1915 3111 3127
2498 2466 576
2571 2850 1621
2458 3242 2842
2367 3345 3202
2354 3362 3250
345 210 169
513 585 1519
695 1173 2359
741 1385 2471
732 1436 2487
800 630 164
757 974 1314
889 1555 2400
875 1740 2573
813 1690 2559
1903 1665 336
1546 1977 1385
1347 2434 2692
1315 2509 2885
1197 2375 2848
2471 2386 598
2410 2663 1470
2170 3090 2827
2014 3138 3132
1873 3055 3126
2575 2536 695
2617 2773 1392
2522 3209 2708
2409 3333 3176
2367 3343 3239
753 476 370
995 769 1599
1183 1181 2508
1137 1404 2633
1067 1438 2623
1470 970 333
1489 1091 1259
1516 1425 2387
1284 1680 2697
1109 1649 2670
2234 1993 686
1958 2017 1301
1786 2265 2495
1639 2464 2934
1413 2332 2913
2781 2698 1151
2631 2749 1517
2472 3057 2666
2276 3147 3154
2052 3051 3163
2839 2808 1196
2843 2889 1528
2814 3236 2602
2661 3382 3193
2581 3392 3268
1036 695 501
1190 1050 1738
1531 1462 2689
1573 1668 2887
1521 1685 2879
1844 1174 547
1963 1268 1390
2065 1590 2501
1856 1888 2946
1638 1881 2944
2726 2276 1062
2653 2163 1443
2601 2234 2427
2402 2493 3118
2030 2487 3173
3081 3052 1775
3034 3006 1817
2964 3085 2504
2847 3197 3231
2588 3192 3384
3143 3207 1956
3143 3233 2064
3154 3397 2652
3104 3506 3278
3023 3502 3396
1073 769 576
1079 1201 1698
1476 1600 2735
1674 1747 2977
1697 1761 2994
1624 1172 690
1619 1353 1470
1983 1716 2630
2048 1956 3049
1895 2040 3112
2674 2267 1268
2766 2157 1534
2934 2220 2474
2898 2440 3176
2417 2659 3396
3159 3113 1967
3356 3050 1867
3482 3072 2436
3394 3158 3244
3030 3330 3618
3266 3394 2274
3327 3430 2334
3419 3563 2708
3369 3613 3361
3314 3603 3619
