src-tauri/resources/luts/胶片质感.cube
# Converted from .3dl (size 17x17x17) using Python
LUT_3D_SIZE 17
DOMAIN_MIN 0.0 0.0 0.0
DOMAIN_MAX 1.0 1.0 1.0
0.031258 0.023443 0.015629
0.040781 0.027839 0.020024
0.050061 0.031990 0.024420
0.063248 0.039072 0.030769
0.084249 0.051282 0.041270
0.105250 0.063736 0.051770
0.130159 0.079853 0.063980
0.157021 0.098168 0.077167
0.183883 0.116239 0.090354
0.206349 0.132357 0.100122
0.228571 0.148718 0.109890
0.245910 0.161905 0.117949
0.252991 0.169719 0.122344
0.260317 0.177534 0.126740
0.262515 0.181929 0.131380
0.262271 0.184860 0.136020
0.262027 0.187790 0.140659
0.047863 0.041758 0.018071
0.054945 0.043712 0.021490
0.062027 0.045665 0.024664
0.075458 0.051770 0.030037
0.101587 0.065690 0.038828
0.127717 0.079853 0.047863
0.158730 0.097192 0.059096
0.191941 0.115995 0.071551
0.225397 0.135043 0.083761
0.250061 0.150672 0.094261
0.274969 0.166300 0.104762
0.292796 0.179243 0.113797
0.296703 0.186325 0.119902
0.300611 0.193407 0.126007
0.297192 0.196825 0.131380
0.289866 0.198535 0.136508
0.282784 0.200244 0.141636
0.064469 0.060317 0.020513
0.069109 0.059829 0.022955
0.073993 0.059341 0.025153
0.087668 0.064469 0.029060
0.118926 0.080098 0.036630
0.150183 0.095971 0.044200
0.187302 0.114286 0.054212
0.227106 0.134066 0.065934
0.266911 0.153846 0.077411
0.294017 0.168987 0.088400
0.321123 0.184127 0.099634
0.339438 0.196337 0.109646
0.340171 0.202686 0.117460
0.340904 0.209280 0.125275
0.331624 0.211722 0.131380
0.317460 0.212210 0.136996
0.303297 0.212698 0.142369
0.098413 0.091331 0.023687
0.100122 0.088400 0.025153
0.101587 0.085470 0.026618
0.113797 0.089133 0.029792
0.146520 0.105739 0.036386
0.179487 0.122344 0.042735
0.220513 0.142125 0.052503
0.265446 0.162882 0.063736
0.310623 0.183883 0.075214
0.340659 0.199267 0.087179
0.370452 0.214408 0.099390
0.390232 0.226374 0.110623
0.389499 0.231990 0.120147
0.388767 0.237851 0.129915
0.375580 0.239072 0.137241
0.356288 0.238095 0.143346
0.336996 0.237363 0.149451
0.167033 0.147985 0.028571
0.164103 0.142125 0.029548
0.161172 0.136508 0.030769
0.168254 0.137973 0.033700
0.195360 0.153846 0.040049
0.222222 0.169719 0.046642
0.263248 0.190476 0.056899
0.311111 0.213675 0.069109
0.358974 0.236874 0.081319
0.392430 0.253236 0.095238
0.426129 0.269353 0.108913
0.448840 0.281807 0.122100
0.450305 0.286691 0.133578
0.451770 0.291819 0.145299
0.438339 0.291575 0.154090
0.417338 0.288889 0.161172
0.396581 0.286203 0.168498
0.235653 0.204396 0.033211
0.228083 0.195849 0.033944
0.220757 0.187546 0.034676
0.222711 0.186813 0.037607
0.243956 0.201954 0.043956
0.264957 0.217094 0.050549
0.305739 0.239072 0.061294
0.356532 0.264469 0.074481
0.407082 0.290110 0.087424
0.444444 0.307204 0.103053
0.481563 0.324542 0.118681
0.507692 0.337485 0.133578
0.511111 0.341636 0.147253
0.514530 0.345788 0.160684
0.500855 0.344078 0.170940
0.478388 0.339683 0.179243
0.456166 0.335287 0.187546
0.310623 0.271306 0.042002
0.302808 0.262515 0.042735
0.294994 0.253724 0.043468
0.294994 0.252259 0.046642
0.311355 0.265201 0.054457
0.327473 0.278144 0.062515
0.363126 0.299878 0.076190
0.408303 0.326252 0.092552
0.453724 0.352381 0.109158
0.492063 0.371184 0.127228
0.530647 0.389744 0.145299
0.558242 0.403907 0.162882
0.564835 0.408791 0.178510
0.571429 0.413675 0.194383
0.560440 0.411966 0.205372
0.540171 0.407082 0.214164
0.520147 0.402198 0.222955
0.388767 0.343590 0.052747
0.382662 0.335775 0.053480
0.376557 0.327717 0.054212
0.376313 0.326007 0.058120
0.388034 0.336020 0.068376
0.399512 0.346032 0.078388
0.427350 0.367033 0.095971
0.463492 0.393162 0.117216
0.499634 0.419536 0.138217
0.537973 0.440049 0.159463
0.576068 0.460317 0.180708
0.605128 0.475946 0.200977
0.615140 0.482295 0.219048
0.625397 0.488645 0.237118
0.618315 0.487424 0.248840
0.602442 0.482784 0.257631
0.586569 0.477900 0.266178
0.466911 0.415873 0.063492
0.462515 0.408791 0.064225
0.458364 0.401709 0.065201
0.457631 0.399512 0.069841
0.464713 0.406593 0.082051
0.471551 0.413919 0.094505
0.491819 0.433944 0.115751
0.518681 0.460317 0.141636
0.545543 0.486691 0.167521
0.583639 0.508669 0.191697
0.621734 0.530891 0.216117
0.651770 0.547985 0.239072
0.665690 0.555800 0.259341
0.679365 0.563370 0.279853
0.676190 0.562882 0.292308
0.664713 0.558242 0.301099
0.652991 0.553602 0.309646
0.505250 0.464957 0.078632
0.503053 0.459829 0.079609
0.500855 0.454701 0.080830
0.502076 0.453724 0.086203
0.510867 0.461783 0.100611
0.519414 0.469841 0.114774
0.538950 0.489377 0.140415
0.564103 0.515018 0.171429
0.589011 0.540659 0.202686
0.620513 0.563858 0.232479
0.652259 0.587057 0.262515
0.678144 0.605372 0.289377
0.692308 0.613919 0.310134
0.706471 0.622466 0.330647
0.706227 0.622955 0.342857
0.698657 0.619292 0.350427
0.691087 0.615873 0.358242
0.543834 0.514286 0.093773
0.543590 0.510867 0.095238
0.543101 0.507448 0.096459
0.546520 0.508181 0.102564
0.557021 0.516972 0.118926
0.567277 0.525519 0.135287
0.586325 0.545055 0.164835
0.609280 0.569963 0.201465
0.632234 0.594628 0.237851
0.657631 0.619048 0.273504
0.682784 0.643223 0.308913
0.704274 0.662515 0.339683
0.718926 0.672039 0.360440
0.733333 0.681563 0.381441
0.736020 0.683028 0.393162
0.732601 0.680586 0.400000
0.729426 0.677900 0.406838
0.572650 0.553358 0.107448
0.573871 0.551648 0.108913
0.575092 0.549695 0.110379
0.579976 0.551648 0.117216
0.591697 0.560928 0.134799
0.603419 0.569963 0.152381
0.621978 0.589255 0.185348
0.643712 0.613675 0.225641
0.665690 0.637851 0.266178
0.686691 0.663004 0.306716
0.707692 0.688156 0.347497
0.726252 0.708669 0.381929
0.740659 0.719414 0.404151
0.754823 0.730159 0.426129
0.759463 0.732845 0.437607
0.759219 0.731136 0.443468
0.758974 0.729670 0.449573
0.582662 0.571917 0.117705
0.584371 0.571429 0.119414
0.586081 0.570696 0.121123
0.591209 0.573382 0.128205
0.603419 0.582662 0.146032
0.615385 0.591941 0.163614
0.634188 0.610989 0.197314
0.656654 0.634921 0.239072
0.679121 0.658852 0.281074
0.700122 0.684982 0.325519
0.721368 0.711111 0.370208
0.739683 0.732601 0.408303
0.752381 0.745299 0.433455
0.765324 0.757998 0.458608
0.769963 0.761661 0.470330
0.770696 0.760928 0.475214
0.771429 0.760195 0.480342
0.592674 0.590720 0.128205
0.594872 0.591209 0.130159
0.597070 0.591697 0.132112
0.602686 0.595116 0.139194
0.615140 0.604640 0.157021
0.627595 0.613919 0.174847
0.646642 0.632967 0.209524
0.669597 0.656410 0.252503
0.692308 0.680098 0.295727
0.713553 0.706960 0.344322
0.735043 0.734066 0.392918
0.753114 0.756777 0.434921
0.764347 0.771429 0.462759
0.775824 0.785836 0.490842
0.780708 0.790720 0.502808
0.782418 0.790720 0.506960
0.784127 0.790720 0.510867
0.599267 0.598291 0.133822
0.601954 0.599512 0.136508
0.604396 0.600977 0.138950
0.610012 0.604640 0.146276
0.621490 0.613675 0.162882
0.632967 0.622711 0.179731
0.651526 0.641026 0.213431
0.673748 0.663980 0.255922
0.695727 0.686935 0.298413
0.717216 0.714042 0.348962
0.738706 0.741148 0.399267
0.756777 0.764591 0.443223
0.768254 0.780708 0.473993
0.779731 0.796825 0.504762
0.785348 0.803663 0.518681
0.788034 0.805861 0.524298
0.790476 0.808059 0.529670
0.604640 0.600244 0.137241
0.607326 0.602198 0.140659
0.610012 0.604151 0.143834
0.615140 0.608303 0.151160
0.625153 0.616606 0.166300
0.635165 0.624664 0.181441
0.652503 0.642247 0.213675
0.673504 0.664225 0.254457
0.694506 0.686203 0.295238
0.715995 0.713553 0.346276
0.737241 0.740659 0.397314
0.755556 0.764591 0.442247
0.767766 0.781929 0.475946
0.780220 0.799512 0.509402
0.786813 0.808547 0.526007
0.790476 0.813431 0.534310
0.794139 0.818315 0.542613
0.610012 0.602198 0.140659
0.612698 0.604884 0.144811
0.615629 0.607570 0.148962
0.620269 0.611722 0.156288
0.628816 0.619292 0.169719
0.637363 0.626862 0.183150
0.653480 0.643468 0.213919
0.673504 0.664469 0.252991
0.693285 0.685714 0.292064
0.714530 0.712821 0.343590
0.735775 0.740171 0.395116
0.754335 0.764591 0.441514
0.767521 0.783150 0.477656
0.780708 0.801954 0.514042
0.788278 0.813431 0.533333
0.792918 0.821245 0.544322
0.797558 0.828816 0.555311
0.041514 0.056410 0.121856
0.050061 0.055189 0.119902
0.058364 0.053968 0.118193
0.071062 0.056899 0.118437
0.092552 0.068132 0.123565
0.113797 0.079121 0.128449
0.139438 0.095238 0.138950
0.167277 0.113553 0.151893
0.195116 0.132112 0.164835
0.215873 0.149206 0.174847
0.236386 0.166300 0.184860
0.251282 0.180952 0.192430
0.254701 0.189988 0.195360
0.257875 0.199267 0.198291
0.257387 0.204640 0.199756
0.254945 0.208303 0.200244
0.252503 0.211966 0.200733
0.054212 0.075702 0.122589
0.061050 0.071795 0.117216
0.067888 0.067888 0.111844
0.081319 0.069597 0.109402
0.108181 0.082051 0.113065
0.135043 0.094505 0.116972
0.166789 0.110867 0.126007
0.201221 0.129182 0.137729
0.235653 0.147497 0.149451
0.259829 0.163370 0.159707
0.284005 0.179487 0.169719
0.300855 0.192918 0.178266
0.302320 0.201221 0.182662
0.303785 0.209524 0.187302
0.296703 0.213919 0.189988
0.285470 0.216606 0.191453
0.273993 0.219292 0.192918
0.066911 0.094750 0.123077
0.072039 0.088400 0.114286
0.077411 0.081807 0.105495
0.091575 0.082051 0.100366
0.123810 0.095971 0.102808
0.156288 0.109646 0.105250
0.194139 0.126496 0.113065
0.235165 0.144811 0.123565
0.275946 0.162882 0.134066
0.304029 0.177778 0.144322
0.331868 0.192430 0.154823
0.350427 0.204884 0.163858
0.349939 0.212210 0.170208
0.349695 0.219536 0.176313
0.336020 0.223199 0.180220
0.315751 0.224908 0.182662
0.295482 0.226862 0.185348
0.095238 0.126984 0.125031
0.097680 0.117705 0.113553
0.100366 0.108181 0.101832
0.113553 0.106716 0.094750
0.147741 0.121123 0.096215
0.182173 0.135287 0.097924
0.224420 0.152625 0.105006
0.270574 0.171429 0.114774
0.316728 0.190232 0.124786
0.348474 0.204396 0.135531
0.379976 0.218559 0.146520
0.400977 0.230037 0.156288
0.400488 0.236630 0.164347
0.400244 0.243223 0.172405
0.382418 0.245665 0.177534
0.356288 0.245910 0.181197
0.329915 0.246398 0.184860
0.154579 0.185104 0.129670
0.152625 0.172161 0.116484
0.150672 0.159463 0.103541
0.158974 0.155311 0.095482
0.188278 0.168498 0.097436
0.217582 0.181685 0.099390
0.259829 0.199756 0.106960
0.308913 0.220269 0.117216
0.357998 0.240781 0.127473
0.393651 0.255678 0.139683
0.429548 0.270574 0.151648
0.454212 0.282295 0.163126
0.456899 0.287912 0.172894
0.459585 0.293529 0.182662
0.442735 0.294261 0.189255
0.416361 0.292552 0.194139
0.389988 0.290843 0.199023
0.214164 0.243223 0.134310
0.207570 0.226862 0.119658
0.200733 0.210501 0.105250
0.204396 0.203907 0.096215
0.228571 0.215873 0.098657
0.252991 0.228083 0.100855
0.295482 0.246886 0.108669
0.347497 0.269109 0.119414
0.399267 0.291331 0.130159
0.439072 0.306960 0.143590
0.478877 0.322344 0.157021
0.507448 0.334310 0.169719
0.513065 0.338950 0.181441
0.518926 0.343834 0.192918
0.503053 0.342613 0.200977
0.476435 0.338950 0.207082
0.449817 0.335043 0.213431
0.289377 0.309158 0.139438
0.281563 0.292552 0.124786
0.273504 0.275946 0.110134
0.274481 0.268132 0.101587
0.292552 0.277900 0.105006
0.310867 0.287912 0.108425
0.348230 0.306227 0.118681
0.394872 0.329182 0.132357
0.441758 0.352137 0.145788
0.483028 0.368742 0.161416
0.524298 0.385592 0.176801
0.555067 0.398291 0.191697
0.564591 0.403419 0.205128
0.574115 0.408547 0.218803
0.562149 0.407082 0.227839
0.539438 0.402686 0.234676
0.516972 0.398046 0.241270
0.372161 0.378999 0.144567
0.365079 0.363614 0.130647
0.357753 0.348230 0.116728
0.356777 0.340171 0.108913
0.368498 0.347253 0.114042
0.379976 0.354335 0.119170
0.409280 0.371917 0.132601
0.447131 0.394872 0.150183
0.485226 0.417827 0.167766
0.526496 0.435897 0.185836
0.567766 0.454212 0.204151
0.600000 0.468376 0.221245
0.613675 0.474481 0.236874
0.627350 0.480586 0.252259
0.620757 0.479609 0.262271
0.603907 0.475214 0.269353
0.587302 0.470574 0.276435
0.454945 0.448840 0.149939
0.448352 0.434676 0.136508
0.442002 0.420513 0.123077
0.439316 0.412454 0.116484
0.444200 0.416606 0.123321
0.449328 0.420757 0.129915
0.470330 0.437363 0.146520
0.499389 0.460562 0.168254
0.528449 0.483516 0.189744
0.569963 0.503053 0.210501
0.611233 0.522833 0.231258
0.644933 0.538217 0.250794
0.662759 0.545543 0.268376
0.680342 0.552625 0.285958
0.679121 0.552137 0.296703
0.668376 0.547741 0.304029
0.657631 0.543101 0.311355
0.499145 0.495482 0.159951
0.494994 0.484005 0.147741
0.490598 0.472527 0.135775
0.489866 0.466422 0.130403
0.495726 0.471306 0.138706
0.501832 0.476190 0.147009
0.521123 0.492796 0.167033
0.546764 0.515018 0.192918
0.572650 0.537485 0.219048
0.607326 0.558730 0.245177
0.641758 0.579731 0.271551
0.671062 0.596581 0.294994
0.689133 0.604640 0.312821
0.707204 0.612454 0.330403
0.709646 0.612943 0.340659
0.704274 0.609280 0.347009
0.698657 0.605861 0.353358
0.543346 0.541880 0.169719
0.541392 0.533333 0.158974
0.539438 0.524542 0.148230
0.540415 0.520635 0.144322
0.547497 0.526007 0.154090
0.554335 0.531624 0.163858
0.571673 0.547985 0.187302
0.594383 0.569719 0.217827
0.616850 0.591453 0.248107
0.644444 0.614164 0.280098
0.672283 0.636874 0.311844
0.696948 0.654945 0.339194
0.715507 0.663492 0.357021
0.734066 0.672283 0.375092
0.740171 0.673504 0.384615
0.739927 0.671062 0.389988
0.739683 0.668620 0.395360
0.576801 0.578510 0.178022
0.576313 0.572161 0.168498
0.576068 0.566056 0.159219
0.578755 0.563858 0.156532
0.586813 0.569963 0.167521
0.594872 0.576068 0.178510
0.611233 0.592186 0.204640
0.631502 0.613431 0.238584
0.652015 0.634921 0.272527
0.674969 0.658852 0.309402
0.697924 0.682784 0.346520
0.719170 0.702320 0.377289
0.737241 0.712332 0.396581
0.755311 0.722344 0.415629
0.763614 0.724542 0.424908
0.767277 0.723077 0.429304
0.770940 0.721368 0.433944
0.587790 0.595116 0.183639
0.588523 0.590476 0.175336
0.589255 0.585836 0.167033
0.592918 0.585104 0.165324
0.601954 0.591453 0.176801
0.610989 0.598046 0.188523
0.627839 0.614408 0.216117
0.648352 0.635653 0.251526
0.669109 0.656899 0.286935
0.691331 0.681807 0.327961
0.713553 0.706960 0.368987
0.733822 0.727717 0.403907
0.749451 0.740415 0.426129
0.765324 0.752869 0.448352
0.773626 0.756288 0.458120
0.778022 0.755556 0.461538
0.782662 0.754823 0.464957
0.599023 0.611966 0.189255
0.600733 0.609035 0.181929
0.602442 0.605861 0.174847
0.606838 0.606349 0.174115
0.616850 0.613187 0.186325
0.627106 0.620269 0.198535
0.644200 0.636630 0.227350
0.665201 0.657631 0.264469
0.686203 0.678877 0.301587
0.707692 0.705006 0.346520
0.729426 0.731136 0.391697
0.748230 0.753358 0.430281
0.761661 0.768254 0.455678
0.775336 0.783150 0.481074
0.783394 0.788034 0.491087
0.788767 0.788034 0.493773
0.794383 0.788034 0.496215
0.606593 0.618803 0.191209
0.608303 0.616606 0.185104
0.610256 0.614408 0.178755
0.614652 0.615140 0.178510
0.624664 0.622222 0.190476
0.634432 0.629060 0.202442
0.651282 0.645177 0.231013
0.671795 0.665690 0.267888
0.692064 0.686203 0.304762
0.713553 0.712576 0.351893
0.734799 0.738950 0.398779
0.753114 0.762149 0.439805
0.766056 0.778755 0.468620
0.778999 0.795360 0.497680
0.787057 0.802442 0.510134
0.792918 0.804396 0.514774
0.798535 0.806349 0.519170
0.612210 0.620513 0.191453
0.613675 0.618559 0.186081
0.615140 0.616850 0.180708
0.619292 0.617827 0.180708
0.628327 0.624664 0.191941
0.637607 0.631502 0.203419
0.653480 0.646886 0.230769
0.673260 0.666667 0.266422
0.692796 0.686203 0.302076
0.713797 0.712576 0.350183
0.734799 0.738950 0.398291
0.753114 0.762637 0.441270
0.766545 0.780464 0.473504
0.779976 0.798535 0.505983
0.788034 0.807814 0.522100
0.793407 0.812698 0.530159
0.799023 0.817338 0.538217
0.617827 0.622222 0.191941
0.619048 0.620757 0.187302
0.620269 0.619292 0.182662
0.623932 0.620513 0.182906
0.632234 0.627106 0.193651
0.640537 0.633944 0.204151
0.655922 0.648596 0.230769
0.674481 0.667399 0.265201
0.693285 0.686203 0.299634
0.714042 0.712576 0.348718
0.734799 0.738950 0.397802
0.753114 0.762882 0.442491
0.767033 0.782418 0.478388
0.780708 0.801709 0.514286
0.788767 0.813187 0.534066
0.794139 0.820757 0.545543
0.799512 0.828327 0.557021
0.052015 0.089377 0.228083
0.059341 0.082784 0.220024
0.066667 0.075946 0.211722
0.078877 0.074725 0.206105
0.100855 0.084737 0.205617
0.122589 0.094505 0.205372
0.148962 0.110379 0.213675
0.177778 0.129182 0.226374
0.206349 0.147985 0.239316
0.225397 0.166056 0.249573
0.244200 0.184127 0.259829
0.256654 0.199756 0.267155
0.256166 0.210501 0.268620
0.255678 0.221001 0.270085
0.252259 0.227595 0.268132
0.247619 0.231746 0.264469
0.242735 0.236142 0.260806
0.060562 0.109402 0.226862
0.067155 0.099878 0.212943
0.073748 0.090110 0.198779
0.087179 0.087424 0.189011
0.114774 0.098168 0.187302
0.142369 0.109158 0.185836
0.175092 0.124542 0.192674
0.210501 0.142369 0.203907
0.245910 0.159951 0.214896
0.269597 0.176313 0.224908
0.293285 0.192430 0.234921
0.308913 0.206349 0.242491
0.307937 0.215873 0.245665
0.307204 0.225641 0.248840
0.296459 0.231258 0.248596
0.280830 0.234921 0.246398
0.265201 0.238584 0.244444
0.069353 0.129426 0.225641
0.074969 0.116728 0.205861
0.080830 0.104274 0.185836
0.095726 0.099878 0.171917
0.128938 0.111600 0.168987
0.162149 0.123565 0.166300
0.201221 0.138706 0.171673
0.243223 0.155311 0.181197
0.285226 0.172161 0.190720
0.313797 0.186569 0.200244
0.342369 0.200977 0.210012
0.361172 0.213187 0.218071
0.359951 0.221490 0.222711
0.358486 0.230037 0.227595
0.340659 0.234676 0.229060
0.314042 0.237851 0.228571
0.287668 0.240781 0.228083
0.091819 0.162637 0.226374
0.095482 0.146764 0.201709
0.099145 0.130891 0.177045
0.113309 0.124298 0.159707
0.149206 0.136264 0.156288
0.184860 0.148230 0.153114
0.228327 0.163126 0.157509
0.275702 0.179731 0.165812
0.322833 0.196337 0.174359
0.356288 0.209524 0.183883
0.389744 0.222711 0.193651
0.411722 0.233944 0.202198
0.411722 0.241270 0.208547
0.411477 0.248596 0.215140
0.389255 0.252015 0.218071
0.356044 0.253724 0.219292
0.322833 0.255678 0.220513
0.142369 0.222222 0.230769
0.141148 0.202198 0.203663
0.139927 0.182418 0.176313
0.149695 0.172405 0.157265
0.181197 0.183150 0.154579
0.212698 0.193651 0.152137
0.256654 0.209035 0.156777
0.306960 0.226862 0.165324
0.357021 0.244444 0.173626
0.395116 0.258120 0.184127
0.432967 0.271551 0.194383
0.459585 0.282540 0.204151
0.463492 0.288889 0.211966
0.467399 0.294994 0.220024
0.447375 0.296703 0.224420
0.415385 0.295971 0.227106
0.383394 0.295238 0.229792
0.192674 0.282051 0.235409
0.186813 0.257875 0.205372
0.180952 0.233700 0.175580
0.186081 0.220757 0.155067
0.213431 0.229792 0.153114
0.240781 0.239072 0.151160
0.285226 0.254701 0.156044
0.338217 0.273748 0.164591
0.391209 0.292796 0.172894
0.433700 0.306471 0.184127
0.476190 0.320391 0.195360
0.507204 0.331380 0.206105
0.515263 0.336508 0.215629
0.523321 0.341636 0.225153
0.505495 0.341148 0.231013
0.474481 0.337973 0.234921
0.443712 0.334554 0.239072
0.267888 0.347009 0.236874
0.260073 0.322344 0.206838
0.252259 0.297924 0.176801
0.253724 0.283761 0.156532
0.273993 0.290598 0.155556
0.294261 0.297436 0.154579
0.333333 0.312821 0.161172
0.381441 0.332112 0.171917
0.429792 0.351648 0.182662
0.473993 0.366545 0.195360
0.518193 0.381197 0.208303
0.551893 0.392918 0.220757
0.564347 0.398046 0.231746
0.576801 0.403419 0.242979
0.564103 0.402442 0.250061
0.538706 0.398291 0.254945
0.513553 0.394139 0.259829
0.355556 0.414408 0.236630
0.347253 0.391453 0.207814
0.338950 0.368498 0.178999
0.337241 0.354579 0.159707
0.348962 0.358486 0.159951
0.360684 0.362393 0.159951
0.390965 0.376801 0.169231
0.430769 0.396337 0.183394
0.470574 0.415873 0.197314
0.515018 0.431990 0.212454
0.559463 0.448107 0.227350
0.594872 0.460562 0.241758
0.611966 0.466667 0.254701
0.629060 0.472527 0.267643
0.622955 0.471795 0.275458
0.605617 0.467643 0.281074
0.588034 0.463492 0.286447
0.442979 0.482051 0.236630
0.434432 0.460562 0.208791
0.425641 0.439072 0.181197
0.420757 0.425153 0.163126
0.423687 0.426374 0.164103
0.426862 0.427350 0.165324
0.448596 0.440781 0.177289
0.480098 0.460562 0.194628
0.511355 0.480342 0.211966
0.556044 0.497436 0.229304
0.600977 0.514774 0.246398
0.638095 0.528449 0.262759
0.659585 0.535287 0.277411
0.681319 0.541880 0.292064
0.682051 0.541148 0.300855
0.672283 0.536996 0.306960
0.662515 0.532601 0.312821
0.493040 0.525763 0.241026
0.486935 0.508181 0.215873
0.480586 0.490354 0.190720
0.477411 0.479121 0.174603
0.480830 0.480830 0.176801
0.484249 0.482540 0.178999
0.503053 0.495971 0.193651
0.529670 0.515018 0.214408
0.556288 0.534310 0.235409
0.593895 0.553358 0.258120
0.631502 0.572650 0.280586
0.663980 0.587790 0.300855
0.685959 0.595116 0.315507
0.707937 0.602442 0.330159
0.713065 0.602686 0.338462
0.709646 0.599267 0.343346
0.706227 0.595849 0.348474
0.543101 0.569475 0.245421
0.539194 0.555556 0.222711
0.535531 0.541636 0.200000
0.534066 0.533089 0.186081
0.537729 0.535287 0.189255
0.541392 0.537729 0.192430
0.557265 0.550916 0.209768
0.579243 0.569475 0.234188
0.601221 0.588278 0.258608
0.631502 0.609280 0.286691
0.662027 0.630525 0.315018
0.689866 0.647131 0.338706
0.712332 0.655189 0.353602
0.734799 0.663248 0.368498
0.744078 0.664225 0.376068
0.747009 0.661538 0.379976
0.749939 0.659096 0.383883
0.580708 0.603663 0.248596
0.578999 0.592918 0.228327
0.577289 0.582173 0.207814
0.577534 0.575824 0.195849
0.581929 0.578999 0.200244
0.586325 0.581929 0.204640
0.600488 0.595116 0.224176
0.619292 0.613431 0.251526
0.638095 0.631746 0.278877
0.663248 0.654701 0.312088
0.688156 0.677411 0.345299
0.712088 0.695727 0.372894
0.734066 0.705250 0.389011
0.755800 0.714530 0.404884
0.768010 0.716484 0.412210
0.775336 0.715018 0.415140
0.782906 0.713309 0.418071
0.593162 0.618315 0.249328
0.592674 0.609768 0.231013
0.592430 0.601221 0.212698
0.594383 0.596581 0.202442
0.600488 0.600488 0.207814
0.606593 0.604151 0.213431
0.621245 0.617582 0.234676
0.640049 0.636142 0.263980
0.659096 0.654701 0.293040
0.682540 0.678632 0.330403
0.705983 0.702808 0.367766
0.727961 0.722833 0.399267
0.746520 0.735287 0.418559
0.765324 0.747497 0.438095
0.777045 0.751160 0.445910
0.785348 0.750183 0.447863
0.793651 0.749206 0.449817
0.605617 0.632967 0.250305
0.606593 0.626618 0.233944
0.607814 0.620269 0.217582
0.610989 0.617338 0.209035
0.618803 0.621978 0.215629
0.626618 0.626374 0.222222
0.641758 0.640293 0.245177
0.661050 0.658852 0.276190
0.680098 0.677656 0.307448
0.701832 0.702808 0.348962
0.723810 0.728205 0.390476
0.743590 0.749939 0.425641
0.759219 0.765324 0.448352
0.774603 0.780464 0.471306
0.786081 0.785592 0.479609
0.795360 0.785348 0.480586
0.804396 0.785348 0.481563
0.613675 0.639072 0.248596
0.614896 0.633455 0.233455
0.615873 0.627595 0.218559
0.619292 0.625641 0.210745
0.627595 0.630525 0.218071
0.635897 0.635653 0.225153
0.651038 0.649328 0.248352
0.669841 0.667399 0.279609
0.688401 0.685470 0.310867
0.709646 0.711111 0.354579
0.730647 0.736752 0.398535
0.749695 0.759707 0.436630
0.764103 0.776801 0.463492
0.778510 0.793895 0.490354
0.789011 0.800977 0.501587
0.797802 0.802930 0.505250
0.806349 0.804884 0.508669
0.619780 0.640537 0.245910
0.620024 0.634921 0.231502
0.620513 0.629304 0.217338
0.623443 0.627350 0.210256
0.631746 0.632967 0.217827
0.639805 0.638339 0.225153
0.654701 0.651526 0.247863
0.672772 0.668864 0.278388
0.690843 0.686203 0.308913
0.711600 0.711600 0.354335
0.732357 0.737241 0.399512
0.750916 0.760440 0.440049
0.765324 0.778999 0.471306
0.779487 0.797802 0.502564
0.789255 0.807082 0.518193
0.796581 0.811722 0.526007
0.803907 0.816361 0.533822
0.625641 0.642247 0.242979
0.625397 0.636630 0.229548
0.625153 0.631013 0.216361
0.627595 0.629304 0.209768
0.635653 0.635165 0.217582
0.643712 0.641026 0.225153
0.658120 0.653968 0.247619
0.675702 0.670330 0.277411
0.693040 0.686935 0.307204
0.713553 0.712332 0.353846
0.733822 0.737729 0.400488
0.752137 0.761172 0.443468
0.766300 0.781441 0.479121
0.780464 0.801465 0.514774
0.789255 0.812943 0.534554
0.795360 0.820513 0.546764
0.801221 0.827839 0.558730
0.064713 0.127473 0.323565
0.070818 0.116484 0.312088
0.076923 0.105739 0.300611
0.088645 0.100855 0.291575
0.111111 0.107692 0.288156
0.133333 0.114530 0.284493
0.160928 0.128938 0.291087
0.191209 0.147497 0.302808
0.221245 0.165812 0.314286
0.239560 0.184615 0.325031
0.257631 0.203175 0.335531
0.268864 0.219780 0.343101
0.265446 0.231990 0.344078
0.262271 0.244200 0.345299
0.256654 0.251770 0.341636
0.249817 0.257143 0.335531
0.243223 0.262515 0.329426
