src-tauri/resources/luts/自然奶油质感.cube
# Converted from .3dl using Python
LUT_3D_SIZE 9
DOMAIN_MIN 0.0 0.0 0.0
DOMAIN_MAX 1.0 1.0 1.0
0.003907 0.000000 0.000000
0.000000 0.019536 0.082295
0.000000 0.054945 0.168742
0.000000 0.094017 0.254945
0.000000 0.141148 0.368742
0.000000 0.188278 0.470574
0.000000 0.247131 0.588278
0.003907 0.290110 0.690110
0.000000 0.329426 0.784371
0.000000 0.180464 0.411722
0.000000 0.239316 0.517705
0.003907 0.282295 0.643223
0.000000 0.321612 0.721612
0.000000 0.368742 0.823443
0.000000 0.415629 0.894017
0.000000 0.451038 0.948962
0.003907 0.490110 1.000000
0.051038 0.058852 0.047131
0.000000 0.407814 0.858852
0.003907 0.447131 0.925519
0.000000 0.486203 0.980464
0.000000 0.529426 1.000000
0.054945 0.097924 0.066667
0.000000 0.125519 0.105983
0.000000 0.176557 0.200000
0.000000 0.203907 0.286203
0.007814 0.239316 0.411722
0.090110 0.141148 0.102076
0.011722 0.164591 0.160684
0.000000 0.219536 0.247131
0.003907 0.262759 0.348962
0.000000 0.297924 0.462759
0.000000 0.337241 0.576557
0.007814 0.384371 0.674481
0.003907 0.415629 0.772650
0.003907 0.466667 0.858852
0.000000 0.376557 0.513797
0.000000 0.411722 0.639316
0.000000 0.447131 0.733333
0.007814 0.482295 0.831258
0.003907 0.513797 0.897924
0.000000 0.545055 0.956777
0.000000 0.576557 0.992186
0.188278 0.219536 0.160684
0.168742 0.223443 0.164591
0.000000 0.564591 0.921612
0.000000 0.600000 0.984371
0.007814 0.631258 0.992186
0.203907 0.270574 0.196093
0.188278 0.270574 0.196093
0.121612 0.274481 0.203907
0.003907 0.290110 0.262759
0.000000 0.376557 0.400000
0.000000 0.466667 0.533333
0.231258 0.313797 0.239316
0.133333 0.305983 0.254945
0.000000 0.345055 0.329426
0.000000 0.427350 0.439316
0.000000 0.529426 0.592186
0.000000 0.560684 0.694017
0.000000 0.596093 0.768742
0.000000 0.627350 0.862759
0.000000 0.654945 0.929426
0.000000 0.572650 0.643223
0.000000 0.635409 0.745055
0.000000 0.654945 0.819536
0.078388 0.694017 0.894017
0.152869 0.713797 0.948962
0.258852 0.741148 1.000000
0.392186 0.490110 0.364591
0.376557 0.474481 0.356777
0.360684 0.474481 0.356777
0.313797 0.760684 0.972650
0.356777 0.772650 1.000000
0.423443 0.529426 0.407814
0.411722 0.517705 0.396093
0.380464 0.509890 0.403907
0.274481 0.470574 0.364591
0.137241 0.447131 0.372650
0.003907 0.502076 0.474481
0.000000 0.600000 0.615629
0.913797 0.964591 0.894017
0.902076 0.956777 0.890110
0.897924 0.964591 0.894017
0.890110 0.960684 0.897924
0.886203 0.972650 0.890110
0.862759 0.972650 0.882295
0.811722 0.968742 0.862759
0.717705 0.972650 0.854945
0.533333 0.960684 0.835409
0.909890 0.976557 0.913797
0.894017 0.984371 0.913797
0.831258 0.980464 0.890110
0.745055 1.000000 0.882295
0.552869 0.996093 0.878388
0.505983 1.000000 0.921612
0.627350 1.000000 0.996093
0.035409 0.003907 0.047131
0.007814 0.015629 0.113797
0.003907 0.439316 0.960684
0.000000 0.478388 1.000000
0.039316 0.027350 0.007814
0.039316 0.039316 0.070574
0.000000 0.070574 0.168742
0.007814 0.105983 0.262759
0.000000 0.145055 0.360684
0.000000 0.192186 0.462759
0.000000 0.247131 0.588278
0.007814 0.129426 0.211722
0.000000 0.152869 0.313797
0.000000 0.192186 0.411722
0.000000 0.243223 0.505983
0.000000 0.290110 0.639316
0.000000 0.337241 0.725519
0.000000 0.376557 0.815629
0.000000 0.423443 0.890110
0.000000 0.462759 0.948962
0.003907 0.341148 0.682296
0.000000 0.388278 0.764591
0.003907 0.427350 0.851038
0.000000 0.466667 0.929426
0.003907 0.505983 0.996093
0.000000 0.545055 0.996093
0.105983 0.133333 0.105983
0.070574 0.148962 0.113797
0.000000 0.192186 0.196093
0.000000 0.552869 0.992186
0.145055 0.184371 0.141148
0.148962 0.188278 0.145055
0.070574 0.200000 0.156777
0.000000 0.239316 0.243223
0.003907 0.313797 0.372650
0.000000 0.337241 0.466667
0.011722 0.388278 0.576557
0.000000 0.427350 0.690110
0.000000 0.274481 0.282295
0.000000 0.364591 0.411722
0.007814 0.403907 0.513797
0.003907 0.443223 0.623443
0.011722 0.478388 0.737241
0.000000 0.517705 0.811722
0.000000 0.548962 0.894017
0.000000 0.580464 0.956777
0.000000 0.611722 0.992186
0.000000 0.548962 0.776557
0.000000 0.572650 0.858852
0.003907 0.600000 0.925519
0.000000 0.639316 0.988278
0.000000 0.666667 1.000000
0.270574 0.313797 0.247131
0.251038 0.317705 0.243223
0.196093 0.309890 0.239316
0.070574 0.317705 0.282295
0.317705 0.388278 0.294017
0.309890 0.376557 0.302076
0.290110 0.376557 0.286203
0.215629 0.364591 0.274481
0.086203 0.360684 0.329426
0.003907 0.435409 0.439316
0.000000 0.537241 0.580464
0.000000 0.611722 0.709890
0.000000 0.631258 0.780464
0.858852 0.933333 0.854945
0.858852 0.952869 0.851038
0.843223 0.937241 0.851038
0.815629 0.933333 0.839316
0.721612 0.921612 0.800000
0.615629 0.905983 0.776557
0.297924 0.874481 0.764591
0.423443 0.897924 0.831258
0.537241 0.968742 0.964591
0.748962 0.941148 0.827350
0.623443 0.933333 0.807814
0.290110 0.917705 0.807814
0.478388 0.941148 0.878388
0.592186 0.996093 0.984371
0.905983 0.964591 0.890110
0.909890 0.960684 0.894017
0.909890 0.956777 0.902076
0.917705 0.960684 0.905983
0.639316 0.996093 1.000000
0.917705 0.968742 0.902076
0.921612 0.972650 0.905983
0.921612 0.972650 0.905983
0.917705 0.972650 0.913797
0.909890 0.976557 0.905983
0.909890 0.980464 0.917705
0.902076 0.984371 0.909890
0.854945 0.984371 0.902076
0.000000 0.097924 0.368742
0.000000 0.152869 0.462759
0.000000 0.219536 0.600000
0.000000 0.274481 0.697924
0.003907 0.321612 0.780464
0.000000 0.368742 0.870574
0.000000 0.415629 0.933333
0.000000 0.454945 0.984371
0.007814 0.497924 1.000000
0.000000 0.360684 0.815629
0.000000 0.403907 0.894017
0.003907 0.439316 0.960684
0.000000 0.486203 0.992186
0.074481 0.066667 0.019536
0.070574 0.070574 0.070574
0.031258 0.094017 0.152869
0.003907 0.121612 0.254945
0.003907 0.156777 0.372650
0.102076 0.097924 0.090110
0.078388 0.117705 0.113797
0.031258 0.156777 0.200000
0.003907 0.188278 0.297924
0.007814 0.219536 0.403907
0.011722 0.262759 0.513797
0.003907 0.313797 0.623443
0.000000 0.352869 0.733333
0.003907 0.400000 0.815629
0.000000 0.274481 0.439316
0.003907 0.321612 0.576557
0.003907 0.368742 0.682296
0.000000 0.411722 0.772650
0.000000 0.454945 0.866667
0.000000 0.490110 0.925519
0.000000 0.525519 0.984371
0.000000 0.564591 1.000000
0.168742 0.188278 0.160684
0.000000 0.502076 0.890110
0.000000 0.537241 0.952869
0.003907 0.572650 1.000000
0.203907 0.227350 0.188278
0.184371 0.231258 0.184371
0.164591 0.235409 0.180464
0.062759 0.254945 0.243223
0.000000 0.321612 0.345055
0.011722 0.372650 0.454945
0.219536 0.266667 0.219536
0.172650 0.274481 0.231258
0.054945 0.294017 0.266667
0.000000 0.372650 0.396093
0.003907 0.439316 0.513797
0.000000 0.494017 0.623443
0.015629 0.513797 0.721612
0.000000 0.556777 0.815629
0.000000 0.588278 0.897924
0.776557 0.874481 0.788278
0.733333 0.866667 0.760684
0.627350 0.851038 0.725519
0.458852 0.827350 0.694017
0.247131 0.811722 0.721612
0.372650 0.882295 0.843223
0.502076 0.945055 0.937241
0.619536 0.968742 0.984371
0.866667 0.925519 0.851038
0.290110 0.847131 0.760684
0.415629 0.913797 0.878388
0.552869 0.960684 0.964591
0.647131 0.980464 1.000000
0.866667 0.941148 0.862759
0.878388 0.933333 0.866667
0.866667 0.933333 0.862759
0.866667 0.941148 0.854945
0.858852 0.941148 0.866667
0.890110 0.948962 0.866667
0.894017 0.960684 0.886203
0.890110 0.956777 0.882295
0.902076 0.956777 0.905983
0.882295 0.948962 0.874481
0.854945 0.952869 0.870574
0.796093 0.952869 0.851038
0.694017 0.941148 0.827350
0.521612 0.933333 0.803907
0.890110 0.972650 0.897924
0.870574 0.968742 0.894017
0.815629 0.972650 0.878388
0.721612 0.968742 0.854945
0.545055 0.956777 0.835409
0.451038 0.968742 0.886203
0.580464 1.000000 0.976557
0.917705 0.964591 0.909890
0.921612 0.968742 0.913797
0.552869 0.996093 0.878388
0.521612 0.996093 0.921612
0.635409 0.992186 0.996093
0.117705 0.000000 0.031258
0.113797 0.011722 0.125519
0.082295 0.019536 0.211722
0.007814 0.035409 0.302076
0.007814 0.086203 0.423443
0.000000 0.156777 0.525519
0.105983 0.051038 0.152869
0.007814 0.062759 0.247131
0.003907 0.094017 0.360684
0.003907 0.148962 0.466667
0.003907 0.211722 0.572650
0.000000 0.262759 0.682296
0.003907 0.321612 0.784371
0.000000 0.360684 0.858852
0.000000 0.411722 0.921612
0.000000 0.266667 0.631258
0.003907 0.309890 0.733333
0.000000 0.352869 0.823443
0.007814 0.407814 0.902076
0.000000 0.454945 0.948962
0.007814 0.490110 0.996093
0.117705 0.105983 0.039316
0.121612 0.105983 0.094017
0.097924 0.125519 0.164591
0.000000 0.490110 0.984371
0.000000 0.537241 1.000000
0.133333 0.137241 0.105983
0.137241 0.145055 0.141148
0.090110 0.180464 0.203907
0.027350 0.203907 0.278388
0.000000 0.243223 0.396093
0.000000 0.286203 0.502076
0.000000 0.337241 0.615629
0.078388 0.231258 0.251038
0.000000 0.286203 0.345055
0.007814 0.321612 0.458852
0.000000 0.368742 0.568742
0.000000 0.400000 0.682296
0.011722 0.443223 0.784371
0.007814 0.478388 0.858852
0.000000 0.509890 0.917705
0.003907 0.545055 0.972650
0.525519 0.776557 0.639316
0.313797 0.717705 0.603907
0.239316 0.733333 0.678388
0.309890 0.839316 0.823443
0.447131 0.897924 0.909890
0.564591 0.933333 0.972650
0.651038 0.948962 1.000000
0.788278 0.858852 0.772650
0.772650 0.858852 0.776557
0.529426 0.929426 0.945055
0.623443 0.956777 0.984371
0.831258 0.886203 0.796093
0.807814 0.886203 0.788278
0.831258 0.890110 0.807814
0.803907 0.870574 0.796093
0.796093 0.882295 0.792186
0.768742 0.866667 0.780464
0.694017 0.862759 0.756777
0.866667 0.917705 0.851038
0.854945 0.921612 0.851038
0.835409 0.921612 0.839316
0.815629 0.913797 0.839316
0.729426 0.897924 0.788278
0.615629 0.878388 0.748962
0.345055 0.843223 0.737241
0.384371 0.862759 0.811722
0.490110 0.941148 0.929426
0.752869 0.921612 0.815629
0.623443 0.913797 0.784371
0.317705 0.878388 0.768742
0.423443 0.905983 0.835409
0.556777 0.972650 0.972650
0.654945 0.992186 0.996093
0.890110 0.945055 0.886203
0.897924 0.956777 0.882295
0.886203 0.952869 0.878388
0.596093 1.000000 0.976557
0.913797 0.968742 0.909890
0.894017 0.960684 0.890110
0.905983 0.964591 0.890110
0.909890 0.964591 0.913797
0.913797 0.968742 0.909890
0.897924 0.964591 0.894017
0.890110 0.972650 0.897924
0.847131 0.972650 0.878388
0.917705 0.972650 0.913797
0.913797 0.980464 0.909890
0.921612 0.976557 0.925519
0.905983 0.976557 0.913797
0.870574 0.984371 0.897924
0.807814 0.988278 0.886203
0.690110 0.988278 0.878388
0.423443 1.000000 0.897924
0.592186 1.000000 0.956777
0.003907 0.282295 0.768742
0.000000 0.341148 0.854945
0.000000 0.396093 0.929426
0.000000 0.435409 0.988278
0.000000 0.490110 0.996093
0.156777 0.047131 0.031258
0.152869 0.039316 0.117705
0.141148 0.047131 0.180464
0.074481 0.070574 0.294017
0.141148 0.090110 0.023443
0.145055 0.086203 0.074481
0.145055 0.090110 0.156777
0.113797 0.097924 0.243223
0.000000 0.113797 0.341148
0.000000 0.152869 0.451038
0.007814 0.203907 0.576557
0.000000 0.266667 0.674481
0.000000 0.321612 0.784371
0.000000 0.176557 0.392186
0.000000 0.219536 0.505983
0.000000 0.278388 0.631258
0.003907 0.321612 0.733333
0.000000 0.376557 0.815629
0.007814 0.415629 0.890110
0.000000 0.466667 0.945055
0.003907 0.509890 1.000000
0.160684 0.133333 0.058852
0.184371 0.709890 0.674481
0.278388 0.796093 0.803907
0.392186 0.851038 0.886203
0.505983 0.897924 0.956777
0.584371 0.917705 0.996093
0.741148 0.800000 0.709890
0.709890 0.796093 0.705983
0.725519 0.803907 0.697924
0.697924 0.784371 0.694017
0.639316 0.937241 0.992186
0.756777 0.835409 0.737241
0.756777 0.827350 0.733333
0.745055 0.835409 0.733333
0.725519 0.819536 0.725519
0.694017 0.803907 0.705983
0.607814 0.776557 0.666667
0.470574 0.745055 0.635409
0.192186 0.709890 0.619536
0.772650 0.854945 0.780464
0.725519 0.823443 0.737241
0.627350 0.827350 0.705983
0.474481 0.784371 0.662759
0.231258 0.752869 0.678388
0.337241 0.835409 0.807814
0.458852 0.897924 0.905983
0.584371 0.948962 0.980464
0.658852 0.960684 0.992186
0.266667 0.800000 0.713797
0.396093 0.882295 0.843223
0.525519 0.933333 0.929426
0.639316 0.964591 0.988278
0.870574 0.929426 0.854945
0.866667 0.925519 0.851038
0.870574 0.929426 0.854945
0.866667 0.917705 0.847131
0.854945 0.921612 0.851038
0.878388 0.937241 0.862759
0.882295 0.941148 0.866667
0.882295 0.941148 0.858852
0.870574 0.937241 0.874481
0.870574 0.937241 0.874481
0.854945 0.937241 0.862759
0.792186 0.925519 0.831258
0.702076 0.917705 0.803907
0.525519 0.894017 0.788278
0.890110 0.945055 0.878388
0.862759 0.952869 0.882295
0.803907 0.952869 0.854945
0.717705 0.937241 0.831258
0.556777 0.929426 0.811722
0.407814 0.925519 0.843223
0.541148 0.976557 0.948962
0.651038 1.000000 0.992186
0.909890 0.960684 0.890110
0.564591 0.960684 0.835409
0.462759 0.964591 0.874481
0.592186 1.000000 0.972650
0.917705 0.964591 0.909890
0.921612 0.968742 0.913797
0.929426 0.972650 0.909890
0.921612 0.972650 0.905983
0.921612 0.976557 0.917705
0.929426 0.976557 0.929426
0.192186 0.011722 0.113797
0.203907 0.011722 0.196093
0.168742 0.023443 0.297924
0.090110 0.058852 0.396093
0.000000 0.094017 0.517705
0.003907 0.137241 0.631258
0.000000 0.211722 0.729426
0.000000 0.290110 0.819536
0.003907 0.345055 0.890110
0.000000 0.141148 0.572650
0.000000 0.203907 0.674481
0.000000 0.270574 0.776557
0.000000 0.329426 0.858852
0.000000 0.384371 0.925519
0.000000 0.435409 0.988278
0.003907 0.482295 1.000000
0.188278 0.094017 0.054945
0.192186 0.074481 0.113797
0.341148 0.803907 0.858852
0.451038 0.835409 0.933333
0.525519 0.862759 0.968742
0.576557 0.870574 0.996093
0.635409 0.697924 0.596093
0.611722 0.682296 0.588278
0.600000 0.690110 0.580464
0.568742 0.662759 0.568742
0.502076 0.635409 0.537241
0.690110 0.768742 0.662759
0.702076 0.772650 0.678388
0.662759 0.752869 0.651038
0.639316 0.737241 0.651038
0.533333 0.702076 0.584371
0.396093 0.670574 0.568742
0.258852 0.639316 0.603907
0.266667 0.752869 0.745055
0.356777 0.823443 0.847131
0.545055 0.737241 0.623443
0.368742 0.697924 0.596093
0.266667 0.682296 0.627350
0.305983 0.792186 0.784371
0.423443 0.862759 0.878388
0.529426 0.913797 0.956777
0.627350 0.937241 0.988278
0.768742 0.839316 0.752869
0.772650 0.831258 0.741148
0.478388 0.897924 0.921612
0.592186 0.933333 0.968742
0.666667 0.956777 1.000000
0.803907 0.862759 0.772650
0.800000 0.858852 0.784371
0.796093 0.866667 0.780464
0.772650 0.858852 0.776557
0.760684 0.847131 0.764591
0.697924 0.823443 0.729426
0.823443 0.890110 0.815629
0.815629 0.882295 0.807814
0.811722 0.878388 0.803907
0.784371 0.870574 0.788278
0.721612 0.874481 0.768742
0.607814 0.847131 0.725519
0.376557 0.796093 0.686203
0.380464 0.819536 0.756777
0.470574 0.913797 0.897924
0.756777 0.894017 0.800000
0.651038 0.878388 0.780464
0.400000 0.851038 0.737241
0.411722 0.862759 0.803907
0.513797 0.941148 0.929426
0.623443 0.976557 0.980464
0.882295 0.937241 0.870574
0.878388 0.933333 0.866667
0.882295 0.941148 0.866667
0.564591 0.976557 0.948962
0.670574 0.988278 1.000000
0.894017 0.952869 0.878388
0.902076 0.960684 0.878388
0.897924 0.952869 0.886203
0.897924 0.956777 0.874481
0.897924 0.956777 0.882295
0.882295 0.956777 0.882295
0.862759 0.952869 0.890110
0.913797 0.968742 0.909890
0.902076 0.968742 0.905983
0.917705 0.964591 0.917705
0.897924 0.960684 0.909890
0.874481 0.964591 0.894017
0.803907 0.972650 0.866667
0.678388 0.964591 0.858852
0.380464 0.956777 0.843223
0.560684 0.976557 0.929426
0.882295 0.988278 0.913797
0.811722 0.992186 0.890110
0.697924 0.992186 0.874481
0.439316 1.000000 0.890110
0.607814 1.000000 0.960684
0.239316 0.019536 0.015629
0.223443 0.011722 0.074481
0.239316 0.015629 0.152869
0.227350 0.019536 0.239316
0.423443 0.772650 0.945055
0.462759 0.788278 1.000000
0.564591 0.615629 0.545055
0.548962 0.596093 0.517705
0.560684 0.603907 0.541148
0.509890 0.576557 0.502076
0.451038 0.560684 0.470574
0.317705 0.502076 0.423443
0.239316 0.548962 0.525519
0.588278 0.647131 0.564591
0.541148 0.607814 0.533333
0.458852 0.592186 0.494017
0.297924 0.537241 0.466667
0.243223 0.580464 0.568742
0.227350 0.686203 0.713797
0.309890 0.764591 0.815629
0.435409 0.835409 0.894017
0.509890 0.843223 0.956777
0.239316 0.635409 0.603907
0.258852 0.737241 0.748962
0.392186 0.815629 0.854945
0.494017 0.878388 0.929426
0.584371 0.890110 0.980464
0.619536 0.894017 0.996093
0.717705 0.768742 0.697924
0.705983 0.760684 0.670574
0.694017 0.768742 0.682296
0.611722 0.913797 0.992186
0.756777 0.807814 0.729426
0.737241 0.796093 0.713797
0.752869 0.803907 0.725519
0.721612 0.788278 0.717705
0.709890 0.788278 0.690110
0.639316 0.756777 0.654945
0.509890 0.725519 0.611722
0.278388 0.658852 0.580464
0.748962 0.819536 0.756777
0.729426 0.815629 0.733333
0.651038 0.784371 0.686203
0.517705 0.752869 0.643223
0.266667 0.705983 0.611722
0.317705 0.788278 0.752869
0.451038 0.862759 0.874481
0.552869 0.917705 0.945055
0.658852 0.948962 0.984371
0.290110 0.756777 0.670574
0.372650 0.831258 0.800000
0.497924 0.905983 0.909890
0.607814 0.941148 0.968742
0.690110 0.964591 1.000000
0.831258 0.890110 0.807814
0.831258 0.890110 0.815629
0.835409 0.890110 0.823443
0.811722 0.882295 0.796093
0.878388 0.921612 0.858852
0.870574 0.921612 0.854945
0.878388 0.921612 0.858852
0.866667 0.921612 0.854945
0.862759 0.929426 0.866667
0.843223 0.917705 0.843223
0.819536 0.909890 0.831258
0.709890 0.890110 0.788278
0.564591 0.874481 0.760684
0.882295 0.937241 0.886203
0.870574 0.945055 0.870574
0.823443 0.929426 0.854945
0.737241 0.917705 0.815629
0.572650 0.897924 0.780464
0.396093 0.890110 0.807814
0.521612 0.952869 0.909890
0.635409 0.984371 0.976557
0.909890 0.952869 0.897924
0.596093 0.929426 0.815629
0.443223 0.925519 0.847131
0.572650 0.980464 0.945055
0.670574 1.000000 1.000000
0.917705 0.964591 0.909890
0.917705 0.960684 0.905983
0.921612 0.964591 0.902076
0.917705 0.968742 0.902076
0.925519 0.968742 0.913797
0.325519 0.709890 0.996093
0.451038 0.486203 0.372650
0.439316 0.470574 0.376557
0.458852 0.470574 0.427350
0.427350 0.447131 0.419536
0.317705 0.419536 0.384371
0.270574 0.486203 0.497924
0.239316 0.584371 0.639316
0.278388 0.619536 0.729426
0.447131 0.502076 0.451038
0.290110 0.447131 0.403907
0.254945 0.545055 0.556777
0.235409 0.631258 0.670574
0.305983 0.682296 0.776557
0.364591 0.709890 0.851038
0.411722 0.741148 0.921612
0.447131 0.768742 0.964591
0.478388 0.788278 1.000000
0.345055 0.741148 0.819536
0.435409 0.776557 0.886203
0.505983 0.800000 0.952869
0.529426 0.823443 0.988278
0.619536 0.670574 0.560684
0.596093 0.643223 0.556777
0.623443 0.658852 0.592186
0.588278 0.631258 0.568742
0.548962 0.623443 0.548962
0.658852 0.705983 0.627350
0.643223 0.690110 0.611722
0.643223 0.694017 0.623443
0.607814 0.666667 0.592186
0.552869 0.643223 0.564591
0.423443 0.611722 0.525519
0.297924 0.580464 0.525519
0.302076 0.694017 0.694017
0.376557 0.780464 0.815629
0.596093 0.709890 0.623443
0.462759 0.674481 0.580464
0.321612 0.643223 0.596093
0.352869 0.745055 0.737241
0.419536 0.815629 0.847131
0.529426 0.878388 0.933333
0.603907 0.905983 0.968742
0.647131 0.913797 1.000000
0.756777 0.807814 0.729426
0.470574 0.858852 0.882295
0.584371 0.913797 0.952869
0.651038 0.933333 0.980464
0.792186 0.843223 0.764591
0.788278 0.831258 0.764591
0.788278 0.839316 0.768742
0.784371 0.827350 0.764591
0.764591 0.819536 0.752869
0.709890 0.807814 0.721612
0.815629 0.862759 0.784371
0.811722 0.862759 0.796093
0.800000 0.854945 0.788278
0.780464 0.847131 0.772650
0.741148 0.835409 0.748962
0.635409 0.815629 0.713797
0.447131 0.772650 0.670574
0.372650 0.772650 0.721612
0.466667 0.870574 0.858852
0.764591 0.862759 0.780464
0.654945 0.843223 0.741148
0.443223 0.807814 0.702076
0.427350 0.827350 0.776557
0.521612 0.905983 0.902076
0.635409 0.952869 0.964591
0.705983 0.976557 1.000000
0.878388 0.921612 0.854945
0.874481 0.917705 0.854945
0.552869 0.941148 0.929426
0.654945 0.972650 0.988278
0.897924 0.941148 0.878388
0.890110 0.941148 0.870574
0.890110 0.937241 0.882295
0.894017 0.945055 0.878388
0.894017 0.948962 0.890110
0.874481 0.941148 0.878388
0.847131 0.945055 0.862759
