src-tauri/resources/luts/自然奶油质感.cube
# Converted from .3dl using Python
LUT_3D_SIZE 5
DOMAIN_MIN 0.0 0.0 0.0
DOMAIN_MAX 1.0 1.0 1.0
0.003907 0.000000 0.000000
0.000000 0.054945 0.168742
0.000000 0.141148 0.368742
0.000000 0.247131 0.588278
0.000000 0.329426 0.784371
0.000000 0.407814 0.858852
0.000000 0.486203 0.980464
0.054945 0.097924 0.066667
0.000000 0.176557 0.200000
0.007814 0.239316 0.411722
0.000000 0.376557 0.513797
0.000000 0.447131 0.733333
0.003907 0.513797 0.897924
0.000000 0.576557 0.992186
0.168742 0.223443 0.164591
0.231258 0.313797 0.239316
0.000000 0.345055 0.329426
0.000000 0.529426 0.592186
0.000000 0.596093 0.768742
0.000000 0.654945 0.929426
0.313797 0.760684 0.972650
0.423443 0.529426 0.407814
0.380464 0.509890 0.403907
0.137241 0.447131 0.372650
0.000000 0.600000 0.615629
0.858852 0.933333 0.854945
0.843223 0.937241 0.851038
0.721612 0.921612 0.800000
0.297924 0.874481 0.764591
0.537241 0.968742 0.964591
0.639316 0.996093 1.000000
0.921612 0.972650 0.905983
0.917705 0.972650 0.913797
0.909890 0.980464 0.917705
0.854945 0.984371 0.902076
0.000000 0.360684 0.815629
0.003907 0.439316 0.960684
0.074481 0.066667 0.019536
0.031258 0.094017 0.152869
0.003907 0.156777 0.372650
0.000000 0.274481 0.439316
0.003907 0.368742 0.682296
0.000000 0.454945 0.866667
0.000000 0.525519 0.984371
0.168742 0.188278 0.160684
0.219536 0.266667 0.219536
0.054945 0.294017 0.266667
0.003907 0.439316 0.513797
0.015629 0.513797 0.721612
0.000000 0.588278 0.897924
0.525519 0.776557 0.639316
0.239316 0.733333 0.678388
0.447131 0.897924 0.909890
0.651038 0.948962 1.000000
0.772650 0.858852 0.776557
0.866667 0.917705 0.851038
0.835409 0.921612 0.839316
0.729426 0.897924 0.788278
0.345055 0.843223 0.737241
0.490110 0.941148 0.929426
0.596093 1.000000 0.976557
0.894017 0.960684 0.890110
0.909890 0.964591 0.913797
0.897924 0.964591 0.894017
0.847131 0.972650 0.878388
0.003907 0.282295 0.768742
0.000000 0.396093 0.929426
0.000000 0.490110 0.996093
0.152869 0.039316 0.117705
0.074481 0.070574 0.294017
0.000000 0.176557 0.392186
0.000000 0.278388 0.631258
0.000000 0.376557 0.815629
0.000000 0.466667 0.945055
0.160684 0.133333 0.058852
0.341148 0.803907 0.858852
0.525519 0.862759 0.968742
0.635409 0.697924 0.596093
0.600000 0.690110 0.580464
0.502076 0.635409 0.537241
0.545055 0.737241 0.623443
0.266667 0.682296 0.627350
0.423443 0.862759 0.878388
0.627350 0.937241 0.988278
0.772650 0.831258 0.741148
0.823443 0.890110 0.815629
0.811722 0.878388 0.803907
0.721612 0.874481 0.768742
0.376557 0.796093 0.686203
0.470574 0.913797 0.897924
0.564591 0.976557 0.948962
0.894017 0.952869 0.878388
0.897924 0.952869 0.886203
0.897924 0.956777 0.882295
0.862759 0.952869 0.890110
0.882295 0.988278 0.913797
0.697924 0.992186 0.874481
0.607814 1.000000 0.960684
0.223443 0.011722 0.074481
0.227350 0.019536 0.239316
0.325519 0.709890 0.996093
0.439316 0.470574 0.376557
0.427350 0.447131 0.419536
0.270574 0.486203 0.497924
0.278388 0.619536 0.729426
0.345055 0.741148 0.819536
0.505983 0.800000 0.952869
0.619536 0.670574 0.560684
0.623443 0.658852 0.592186
0.548962 0.623443 0.548962
0.596093 0.709890 0.623443
0.321612 0.643223 0.596093
0.419536 0.815629 0.847131
0.603907 0.905983 0.968742
0.756777 0.807814 0.729426
0.815629 0.862759 0.784371
0.800000 0.854945 0.788278
0.741148 0.835409 0.748962
0.447131 0.772650 0.670574
0.466667 0.870574 0.858852
0.552869 0.941148 0.929426
0.897924 0.941148 0.878388
0.890110 0.937241 0.882295
0.894017 0.948962 0.890110
0.847131 0.945055 0.862759
