src-tauri/resources/luts/自然清新质感.3dl
# LUT by SparkleStock. Enhanced with VOXCOLOR algorithms.
0 128 256 384 512 640 768 896 1023
160 48 80
417 630 2038
687 1257 3065
886 1711 3451
928 1775 3491
928 1776 3491
928 1775 3491
929 1775 3491
929 1777 3491
160 309 137
361 674 1802
628 1248 2873
852 1728 3414
927 1809 3484
927 1797 3485
926 1789 3484
925 1783 3483
928 1782 3484
199 1042 347
329 1137 1538
591 1534 2640
842 1921 3377
939 1986 3476
936 1941 3480
934 1900 3481
929 1867 3482
924 1842 3486
287 1976 600
354 1894 1322
603 2086 2431
873 2312 3347
1000 2331 3489
983 2243 3487
972 2162 3487
961 2089 3491
940 2026 3495
435 2837 786
469 2817 1226
692 2875 2315
963 2922 3330
1146 2867 3548
1090 2741 3514
1062 2623 3508
1040 2512 3513
1002 2405 3511
533 3007 775
573 3032 1096
756 3151 2125
1001 3252 3177
1229 3221 3569
1230 3168 3582
1214 3099 3581
1189 3018 3576
1161 2929 3577
584 3096 766
614 3127 1003
763 3255 1924
987 3376 2958
1240 3385 3538
1273 3364 3591
1273 3331 3608
1258 3291 3607
1250 3245 3612
608 3134 762
629 3158 941
752 3269 1719
958 3390 2703
1225 3445 3496
1276 3427 3583
1288 3415 3616
1287 3408 3622
1297 3404 3627
624 3154 769
653 3180 901
759 3275 1518
950 3391 2439
1233 3483 3488
1293 3457 3594
1314 3446 3632
1318 3448 3635
1329 3459 3635
375 52 77
515 474 1777
731 1099 2855
917 1624 3396
969 1745 3483
962 1758 3487
957 1761 3489
954 1761 3490
955 1768 3490
351 204 103
438 463 1393
649 1043 2519
862 1595 3273
955 1770 3449
949 1778 3473
947 1779 3482
945 1778 3484
942 1777 3484
317 811 280
372 856 1087
588 1270 2227
827 1728 3178
952 1903 3421
950 1885 3462
947 1863 3478
945 1841 3482
942 1824 3488
328 1709 532
361 1600 936
572 1803 2044
826 2081 3118
991 2199 3419
985 2141 3463
977 2080 3480
968 2023 3485
961 1976 3495
437 2735 783
451 2644 1013
627 2665 2036
875 2716 3102
1101 2715 3462
1078 2609 3484
1056 2501 3493
1032 2397 3496
1007 2300 3499
544 2977 782
568 2969 957
711 3061 1892
938 3155 2958
1215 3156 3523
1231 3101 3562
1217 3019 3569
1189 2924 3562
1162 2831 3561
595 3089 773
617 3106 905
736 3212 1702
947 3325 2717
1243 3366 3504
1286 3336 3581
1290 3295 3605
1276 3246 3603
1262 3189 3603
616 3128 767
633 3142 866
735 3234 1507
930 3351 2450
1227 3443 3452
1293 3418 3573
1317 3410 3619
1319 3404 3625
1318 3388 3627
634 3152 775
651 3162 849
738 3240 1353
916 3355 2227
1207 3478 3411
1302 3453 3572
1336 3443 3630
1340 3442 3633
1341 3443 3632
1068 119 73
1010 360 1303
1067 908 2445
1152 1448 3236
1175 1664 3411
1127 1699 3443
1083 1716 3460
1050 1726 3468
1030 1741 3473
907 232 77
850 381 943
932 854 2045
1055 1367 2969
1120 1636 3299
1074 1708 3411
1040 1743 3459
1015 1755 3470
995 1760 3474
824 665 173
760 701 716
848 1052 1773
989 1481 2793
1083 1752 3225
1045 1806 3389
1015 1821 3459
992 1814 3477
977 1800 3483
752 1428 373
695 1362 670
790 1550 1652
949 1828 2703
1085 2037 3206
1052 2041 3384
1021 2013 3463
996 1970 3484
982 1926 3493
622 2536 688
615 2403 851
734 2390 1705
928 2445 2693
1145 2517 3261
1111 2460 3406
1074 2379 3469
1040 2288 3485
1017 2201 3493
637 2893 752
650 2860 875
759 2917 1641
957 3000 2625
1240 3045 3404
1255 3002 3514
1233 2921 3551
1194 2822 3549
1162 2727 3546
641 3054 771
657 3065 867
753 3146 1505
947 3249 2440
1258 3325 3430
1310 3290 3554
1314 3245 3597
1294 3190 3597
1271 3126 3595
641 3106 769
655 3125 848
737 3204 1351
918 3317 2216
1230 3441 3382
1315 3411 3554
1347 3400 3618
1347 3393 3626
1339 3370 3628
642 3135 770
664 3152 842
733 3220 1235
893 3332 2030
1184 3478 3303
1311 3450 3541
1357 3437 3626
1361 3433 3632
1361 3432 3632
2043 244 82
1829 330 825
1731 745 1975
1693 1230 2975
1659 1522 3268
1544 1592 3346
1438 1632 3389
1347 1655 3410
1278 1676 3422
1750 350 69
1566 406 580
1507 721 1588
1512 1123 2588
1520 1442 3073
1426 1587 3293
1336 1665 3394
1256 1698 3426
1187 1710 3436
1621 655 90
1437 685 473
1381 922 1378
1396 1252 2354
1426 1558 2953
1339 1687 3260
1254 1748 3403
1179 1764 3447
1119 1756 3457
1507 1267 210
1340 1241 503
1289 1377 1312
1315 1605 2249
1376 1857 2926
1291 1926 3260
1206 1937 3417
1133 1913 3467
1083 1874 3478
1258 2296 493
1173 2150 669
1168 2113 1361
1236 2175 2248
1369 2327 3009
1291 2336 3304
1208 2287 3440
1135 2207 3481
1088 2125 3491
1116 2795 639
1046 2739 768
1049 2758 1384
1154 2824 2272
1396 2907 3220
1392 2888 3434
1337 2818 3521
1265 2721 3535
1209 2625 3531
1012 3021 702
937 3018 811
939 3071 1327
1066 3158 2180
1364 3257 3300
1417 3226 3504
1403 3182 3581
1357 3124 3589
1314 3056 3585
930 3092 717
852 3112 824
852 3177 1238
983 3284 2029
1296 3428 3270
1398 3396 3521
1422 3382 3615
1405 3372 3626
1384 3346 3628
852 3126 721
796 3145 832
801 3202 1159
921 3308 1875
1213 3473 3152
1364 3441 3496
1410 3425 3621
1404 3420 3632
1400 3422 3634
3103 424 116
2901 422 551
2758 670 1585
2644 1016 2617
2530 1312 3045
2336 1431 3183
2151 1499 3260
1978 1533 3299
1822 1555 3321
2803 513 89
2556 517 432
2402 686 1284
2312 945 2217
2256 1223 2807
2128 1412 3113
1966 1532 3270
1790 1592 3331
1619 1606 3350
2608 833 97
2350 816 406
2194 919 1139
2113 1108 1994
2076 1347 2672
1951 1510 3075
1785 1614 3285
1611 1668 3368
1460 1675 3391
2539 1361 134
2279 1298 414
2102 1335 1083
1997 1464 1907
1957 1678 2656
1813 1779 3095
1637 1828 3325
1468 1838 3416
1346 1817 3440
2612 2072 192
2340 1945 401
2089 1898 1048
1913 1971 1912
1864 2206 2773
1722 2277 3200
1549 2254 3410
1387 2178 3482
1277 2089 3492
2287 2722 395
1984 2641 552
1732 2622 1135
1629 2664 1995
1776 2763 2979
1728 2774 3318
1606 2722 3476
1463 2632 3520
1354 2533 3513
1998 3021 506
1663 2986 657
1424 3003 1164
1384 3064 1990
1645 3161 3098
1678 3142 3421
1615 3105 3554
1514 3051 3578
1430 2978 3572
1730 3113 560
1383 3108 728
1176 3149 1153
1186 3243 1916
1491 3393 3099
1595 3363 3472
1587 3351 3612
1528 3338 3627
1478 3308 3627
1466 3143 592
1151 3136 772
996 3173 1119
1044 3274 1791
1340 3455 2947
1502 3422 3433
1529 3405 3615
1494 3401 3636
1469 3408 3635
3298 474 129
3190 468 463
3162 669 1432
3165 966 2445
3150 1246 2910
3105 1344 3026
3009 1395 3092
2879 1419 3128
2736 1437 3152
3126 553 110
2978 563 399
2916 695 1172
2910 909 2057
2934 1166 2684
2940 1325 2960
2863 1429 3110
2724 1485 3178
2547 1501 3206
3018 826 125
2856 839 400
2772 919 1035
2752 1067 1823
2780 1288 2554
2791 1425 2935
2707 1514 3141
2557 1560 3231
2371 1568 3263
2993 1339 169
2822 1310 428
2715 1323 978
2667 1407 1710
2674 1594 2513
2662 1678 2958
2557 1717 3199
2395 1721 3302
2212 1700 3332
3071 2135 239
2878 1993 444
2728 1892 954
2633 1896 1686
2601 2065 2556
2559 2116 3036
2432 2103 3301
2260 2045 3409
2076 1961 3419
3123 2739 362
2921 2637 495
2742 2558 912
2604 2538 1635
2528 2609 2682
2477 2666 3145
2345 2650 3406
2173 2588 3514
2003 2504 3520
3090 3046 430
2864 2995 533
2630 2966 883
2443 2979 1593
2355 3055 2773
2356 3078 3247
2260 3060 3494
2114 3012 3583
1967 2944 3585
2967 3159 465
2710 3146 564
2433 3161 857
2213 3219 1534
2129 3336 2784
2207 3329 3322
2158 3312 3561
2044 3284 3621
1923 3246 3622
2751 3180 492
2463 3167 596
2189 3189 824
1983 3258 1431
1897 3390 2673
2038 3397 3349
2021 3382 3605
1925 3368 3635
1830 3377 3636
3409 500 131
3368 507 393
3393 685 1292
3443 952 2293
3481 1227 2862
3487 1303 2952
3455 1337 2995
3395 1349 3013
3318 1358 3028
3337 558 124
3277 580 354
3270 698 1059
3303 900 1937
3361 1177 2686
3396 1301 2903
3378 1374 3012
3314 1410 3055
3210 1419 3076
3296 773 145
3226 808 370
3199 887 927
3213 1034 1692
3266 1275 2545
3305 1386 2871
3288 1451 3039
3218 1479 3106
3098 1482 3129
3304 1242 199
3222 1237 416
3176 1259 874
3166 1345 1556
3193 1533 2447
3218 1608 2867
3190 1637 3094
3112 1633 3187
2983 1608 3203
3377 2060 292
3271 1912 466
3198 1819 880
3155 1823 1527
3139 1963 2400
3136 2018 2899
3090 2005 3193
3000 1947 3319
2864 1863 3315
3504 2738 380
3393 2615 496
3288 2511 822
3191 2461 1439
3100 2497 2428
3076 2561 2975
3009 2556 3313
2905 2500 3472
2771 2411 3483
3557 3065 432
3438 3005 517
3291 2954 774
3141 2934 1356
3010 2966 2417
2991 3000 3045
2923 2991 3408
2816 2947 3569
2679 2873 3590
3536 3173 461
3404 3167 531
3226 3176 727
3039 3211 1267
2883 3280 2363
2877 3287 3116
2814 3273 3492
2706 3242 3625
2566 3199 3644
3440 3189 476
3290 3186 537
3112 3208 676
2920 3261 1162
2731 3351 2266
2729 3374 3196
2662 3363 3581
2550 3343 3656
2411 3340 3654
3472 509 129
3468 534 334
3504 698 1140
3564 949 2123
3632 1233 2857
3639 1286 2920
3639 1304 2938
3634 1305 2936
3625 1309 2940
3459 547 132
3460 578 298
3481 693 927
3527 903 1812
3601 1218 2748
3614 1306 2899
3622 1349 2959
3619 1362 2972
3598 1365 2980
3458 700 158
3461 743 321
3477 831 800
3514 998 1567
3577 1279 2590
3592 1369 2854
3604 1412 2978
3600 1424 3015
3566 1420 3021
3484 1103 220
3480 1105 383
3493 1150 761
3519 1264 1420
3558 1477 2423
3569 1554 2812
3579 1578 3018
3569 1565 3093
3521 1537 3088
3552 1892 333
3529 1743 466
3527 1689 810
3535 1731 1404
3542 1871 2286
3540 1944 2794
3540 1930 3102
3520 1863 3231
3457 1776 3207
3626 2694 417
3596 2552 520
3573 2447 799
3554 2393 1339
3539 2408 2227
3536 2472 2834
3521 2468 3224
3483 2409 3417
3408 2308 3429
3673 3065 466
3646 2997 548
3614 2940 760
3578 2904 1240
3539 2898 2122
3509 2932 2867
3472 2925 3321
3415 2879 3542
3321 2797 3585
3698 3173 488
3677 3177 553
3644 3192 703
3594 3213 1122
3521 3241 1997
3448 3250 2916
3385 3237 3414
3309 3204 3622
3195 3156 3670
3704 3186 494
3689 3195 541
3660 3225 634
3593 3274 1003
3464 3334 1880
3344 3354 3002
3252 3341 3525
3159 3315 3674
3036 3298 3675
3523 512 128
3522 545 280
3551 693 955
3612 933 1898
3711 1244 2850
3714 1272 2888
3710 1276 2892
3708 1274 2884
3715 1281 2882
3515 538 136
3534 568 234
3563 681 756
3618 901 1634
3714 1250 2804
3715 1310 2902
3708 1333 2936
3701 1337 2936
3703 1340 2936
3518 633 164
3557 663 256
3607 755 644
3672 947 1410
3757 1275 2634
3752 1354 2854
3732 1387 2954
3708 1392 2977
3697 1389 2969
3547 957 229
3597 944 332
3671 1002 633
3751 1151 1276
3817 1414 2408
3806 1504 2784
3767 1527 2980
3721 1512 3043
3687 1483 3019
3618 1674 343
3662 1526 443
3745 1510 730
3828 1598 1286
3874 1761 2192
3854 1857 2730
3800 1845 3045
3731 1770 3166
3667 1678 3122
3687 2584 444
3730 2428 530
3799 2332 774
3863 2297 1265
3888 2322 2090
3865 2409 2746
3804 2414 3164
3730 2355 3368
3666 2250 3382
3712 3032 481
3750 2955 560
3806 2899 767
3854 2865 1205
3868 2854 1979
3833 2895 2766
3774 2888 3256
3706 2837 3506
3647 2749 3572
3715 3179 488
3740 3185 559
3779 3202 722
3810 3221 1108
3812 3233 1844
3762 3232 2784
3704 3206 3335
3649 3161 3598
3602 3104 3676
3715 3186 496
3718 3194 552
3730 3235 655
3736 3288 972
3718 3332 1669
3654 3339 2798
3593 3309 3417
3546 3270 3665
3523 3250 3683
