src-tauri/resources/luts/自然清新质感.cube
# Converted from .3dl using Python
LUT_3D_SIZE 5
DOMAIN_MIN 0.0 0.0 0.0
DOMAIN_MAX 1.0 1.0 1.0
0.041152 0.012346 0.020576
0.176698 0.323302 0.788323
0.238683 0.456533 0.897891
0.238683 0.456533 0.897891
0.238940 0.457047 0.897891
0.051183 0.268004 0.089249
0.152006 0.394547 0.679012
0.241512 0.510802 0.894033
0.240226 0.488683 0.895319
0.237654 0.473765 0.896605
0.111883 0.729681 0.202160
0.177984 0.739455 0.595422
0.294753 0.737397 0.912551
0.273148 0.674640 0.902263
0.257716 0.618570 0.903035
0.150206 0.796296 0.197016
0.196245 0.837191 0.494856
0.318930 0.870628 0.909979
0.327418 0.856739 0.927984
0.321502 0.834619 0.929012
0.160494 0.811214 0.197788
0.195216 0.842335 0.390432
0.317130 0.895833 0.897119
0.337963 0.886317 0.934156
0.341821 0.889660 0.934928
0.274691 0.030607 0.018776
0.274434 0.233539 0.628858
0.302212 0.427984 0.877315
0.278549 0.441358 0.889918
0.264918 0.447788 0.893261
0.211934 0.171039 0.044496
0.218107 0.270576 0.456019
0.278549 0.450617 0.829475
0.261060 0.468364 0.889660
0.251286 0.462963 0.895833
0.159979 0.652263 0.176955
0.188786 0.614712 0.438529
0.294496 0.647377 0.838735
0.276235 0.611883 0.892233
0.261574 0.566101 0.898405
0.164866 0.785494 0.198302
0.193673 0.809156 0.387088
0.323560 0.855195 0.882202
0.337963 0.834619 0.925154
0.326903 0.804012 0.924640
0.165123 0.806327 0.198045
0.188529 0.828189 0.317644
0.304527 0.894547 0.849537
0.349023 0.884002 0.932613
0.350051 0.882716 0.934156
0.798097 0.109053 0.029835
0.709362 0.172325 0.407665
0.650720 0.337449 0.783179
0.553241 0.385545 0.838477
0.468621 0.399949 0.854167
0.670782 0.214249 0.024949
0.564300 0.236368 0.292953
0.533951 0.346451 0.687243
0.459105 0.415123 0.844907
0.375514 0.430813 0.872171
0.671811 0.532922 0.049383
0.537294 0.488169 0.269547
0.479424 0.567387 0.713220
0.398405 0.579733 0.877058
0.328447 0.537294 0.898148
0.513889 0.777006 0.130144
0.366255 0.772377 0.299383
0.423097 0.813014 0.796811
0.415381 0.798611 0.914095
0.367798 0.765947 0.918724
0.377058 0.808385 0.152263
0.256173 0.816101 0.287809
0.344650 0.888632 0.757973
0.393261 0.875772 0.929784
0.377829 0.876543 0.934928
0.876800 0.128601 0.033693
0.872685 0.176183 0.332305
0.895319 0.315586 0.736111
0.888632 0.343879 0.770319
0.853395 0.349280 0.778807
0.847737 0.198817 0.037294
0.822788 0.228138 0.238426
0.840021 0.327932 0.654578
0.845679 0.373200 0.781636
0.796811 0.381173 0.804784
0.868570 0.529835 0.075103
0.822531 0.467850 0.226337
0.807356 0.504887 0.617284
0.794753 0.515689 0.821245
0.736625 0.479167 0.852623
0.914866 0.788323 0.111111
0.846451 0.759774 0.199074
0.774177 0.762860 0.621656
0.751800 0.769290 0.876543
0.689043 0.738940 0.923354
0.884774 0.820216 0.122428
0.800412 0.825103 0.173868
0.702418 0.861883 0.582819
0.684671 0.864969 0.921039
0.620113 0.859053 0.939815
0.906121 0.131687 0.032922
0.913323 0.178241 0.245628
0.954475 0.319959 0.733025
0.954218 0.328189 0.743827
0.955504 0.329475 0.741255
0.904835 0.162809 0.042181
0.927726 0.194187 0.165638
0.966307 0.327932 0.677469
0.959877 0.356739 0.759774
0.950875 0.357253 0.763632
0.930556 0.430556 0.088220
0.963220 0.388374 0.187757
0.996399 0.452932 0.563786
0.977366 0.474537 0.783179
0.943158 0.431584 0.802984
0.954733 0.779835 0.123714
0.978909 0.745628 0.197274
0.994856 0.734053 0.509002
0.970679 0.742798 0.837449
0.938014 0.707047 0.918724
0.955504 0.819444 0.127572
0.959362 0.832047 0.168467
0.956276 0.856996 0.429270
0.924125 0.851080 0.878858
0.906121 0.835905 0.947274
