src-tauri/resources/luts/自然奶油质感.3dl
# 25x25x25 3DL 3D LUT
0 43 85 128 171 213 256 298 341 384 426 469 512 554 597 639 682 725 767 810 853 895 938 980 1023
16 0 0
0 32 177
0 80 337
0 161 514
0 225 691
0 305 867
0 385 1044
16 466 1237
0 578 1510
0 674 1718
0 771 1927
0 883 2120
0 1012 2409
32 1076 2682
16 1188 2826
0 1301 3035
0 1349 3212
0 1477 3388
0 1558 3533
0 1638 3661
0 1702 3790
16 1799 3934
0 1879 3999
0 1959 4095
16 2072 4095
32 112 48
0 145 128
0 241 321
0 289 482
0 401 674
0 450 835
0 498 996
16 562 1301
16 658 1445
0 739 1686
0 835 1895
0 980 2120
16 1060 2377
16 1156 2634
16 1237 2778
0 1317 2955
0 1413 3180
0 1510 3372
0 1590 3485
0 1702 3661
0 1799 3758
0 1847 3886
0 1975 4063
16 2007 4095
0 2120 4095
209 241 193
96 273 145
0 369 305
0 434 498
0 514 658
0 562 787
0 658 980
0 723 1220
0 771 1413
16 867 1670
16 915 1863
0 1012 2120
0 1124 2377
0 1220 2602
0 1301 2730
0 1413 3019
0 1493 3148
0 1606 3404
0 1670 3517
0 1766 3710
16 1831 3790
48 1895 3902
0 1991 4015
16 2088 4095
0 2168 4095
289 369 257
225 401 273
96 418 273
0 514 434
32 594 658
0 723 819
0 771 964
0 835 1172
16 931 1413
32 980 1686
32 1060 1831
16 1156 2056
32 1220 2361
48 1317 2585
0 1445 2778
0 1510 3019
0 1574 3196
0 1670 3356
32 1766 3517
0 1863 3677
0 1959 3822
0 1975 3886
0 2120 4015
0 2152 4095
32 2232 4063
385 562 337
450 546 385
369 578 418
225 594 434
48 674 658
16 787 819
0 899 1012
0 996 1269
16 1076 1429
0 1156 1670
0 1220 1895
0 1333 2136
0 1381 2361
0 1493 2602
32 1574 2762
0 1670 3003
16 1702 3164
0 1831 3388
16 1911 3517
16 1991 3694
16 2039 3822
0 2120 3934
0 2200 4063
0 2280 4079
0 2361 4095
578 771 546
546 739 514
546 771 562
401 771 514
161 803 674
0 867 787
32 996 1012
0 1140 1237
0 1301 1493
0 1365 1686
0 1429 1911
0 1542 2104
0 1622 2409
0 1686 2618
0 1750 2826
0 1831 3003
0 1911 3196
32 1975 3404
0 2039 3501
16 2104 3677
0 2168 3774
0 2232 3918
0 2280 4015
0 2361 4063
0 2441 4095
771 899 658
707 899 674
691 915 674
626 915 723
514 931 755
161 964 819
16 1012 931
16 1156 1220
32 1317 1429
0 1510 1702
0 1590 1879
0 1686 2152
0 1799 2393
16 1863 2618
0 1911 2794
0 1991 2987
0 2104 3228
16 2104 3356
16 2184 3501
0 2264 3677
0 2312 3774
0 2361 3902
0 2457 4031
16 2521 4095
32 2585 4063
851 1140 787
835 1108 803
835 1108 851
771 1108 803
707 1140 835
498 1124 835
145 1108 915
16 1188 1076
16 1365 1397
0 1542 1638
32 1702 1879
0 1911 2184
16 1975 2361
0 2056 2569
0 2088 2794
0 2184 2987
0 2264 3164
32 2264 3340
32 2345 3485
0 2457 3661
0 2505 3806
0 2521 3838
32 2618 4063
32 2682 4095
0 2730 4095
1092 1333 1028
1028 1317 1060
1012 1317 996
996 1301 996
947 1285 980
707 1317 947
546 1253 1044
193 1237 1108
0 1413 1349
0 1590 1542
0 1750 1799
0 1943 2120
0 2168 2425
0 2264 2618
0 2296 2842
16 2393 3035
0 2441 3148
0 2489 3372
0 2569 3533
0 2634 3661
0 2682 3806
0 2746 3902
16 2794 4015
16 2858 4079
0 2891 4079
1285 1574 1188
1253 1574 1172
1204 1558 1188
1156 1542 1156
1140 1542 1188
996 1493 1204
835 1461 1156
530 1445 1172
225 1445 1253
32 1574 1542
0 1799 1734
0 2007 2104
16 2200 2393
0 2345 2634
16 2521 2875
0 2602 3051
16 2634 3196
0 2682 3356
16 2778 3549
321 2842 3661
369 2875 3822
626 2923 3886
867 2987 3983
1060 3035 4095
1156 3067 4095
1606 2007 1493
1590 1959 1493
1542 1943 1461
1526 1911 1493
1477 1943 1461
1349 1895 1510
1124 1815 1381
915 1750 1381
546 1750 1413
321 1718 1574
16 1895 1766
0 2104 2088
16 2345 2425
16 2457 2634
0 2634 2939
0 2810 3148
0 2858 3260
16 2891 3404
0 2939 3549
530 2987 3645
1012 3051 3774
1140 3067 3902
1285 3115 3983
1365 3131 4079
1461 3164 4095
1799 2184 1670
1734 2168 1670
1702 2104 1622
1686 2120 1622
1638 2136 1638
1558 2088 1654
1413 1991 1542
1124 1927 1493
915 1911 1510
562 1831 1526
225 1863 1638
16 2056 1943
16 2264 2248
0 2457 2521
32 2602 2794
16 2794 3051
0 2939 3228
0 3019 3421
48 3083 3549
867 3164 3677
1188 3180 3790
1461 3244 3934
1718 3276 3967
1847 3324 4095
1879 3324 4095
2056 2441 1895
1911 2409 1895
1927 2329 1815
1895 2329 1799
1847 2393 1863
1766 2296 1863
1622 2264 1718
1445 2200 1654
1269 2184 1670
947 2072 1654
498 1959 1670
321 2007 1783
0 2264 2168
0 2473 2441
0 2666 2666
0 2826 2955
0 2987 3196
0 3131 3388
610 3276 3533
1156 3308 3710
1397 3340 3806
1638 3372 3950
1847 3404 3967
1975 3453 4095
2184 3469 4063
2216 2634 2072
2136 2618 2007
2136 2569 2039
2072 2553 2007
2120 2585 2088
2039 2521 2072
1895 2505 1911
1783 2425 1879
1542 2409 1863
1269 2345 1847
947 2232 1799
514 2152 1799
337 2216 1959
0 2457 2329
16 2682 2618
0 2858 2939
0 3035 3115
0 3180 3356
899 3308 3581
1333 3437 3726
1606 3469 3838
1799 3501 3886
2023 3517 4015
2152 3581 4095
2280 3565 4095
2393 2826 2296
2361 2794 2264
2312 2794 2216
2345 2778 2280
2329 2762 2264
2264 2762 2264
2168 2730 2248
2104 2682 2232
1959 2618 2072
1606 2602 2007
1333 2553 1975
1012 2441 1959
369 2329 1991
369 2393 2168
16 2666 2553
0 2923 2842
16 3067 3067
562 3196 3340
1092 3404 3581
1461 3517 3726
1734 3549 3838
1991 3645 3950
2168 3694 4015
2280 3694 4079
2377 3677 4095
2858 3180 2730
2762 3164 2698
2698 3099 2634
2714 3083 2634
2746 3148 2666
2698 3099 2634
2569 3035 2585
2473 3035 2553
2441 3003 2521
2136 2939 2377
1879 2842 2296
1574 2794 2312
1140 2730 2264
418 2602 2248
578 2682 2425
145 2891 2746
450 3115 3083
803 3276 3308
1092 3356 3517
1381 3485 3613
1702 3597 3758
1911 3677 3886
2152 3758 3999
2312 3774 4079
2409 3774 4095
2891 3260 2810
2842 3212 2762
2810 3212 2746
2810 3244 2746
2858 3260 2794
2746 3212 2714
2698 3196 2698
2650 3180 2682
2537 3164 2666
2441 3067 2634
2232 2987 2473
1927 2971 2425
1622 2891 2377
1060 2810 2345
337 2682 2377
610 2794 2569
418 3099 2939
610 3228 3180
1108 3421 3421
1477 3517 3613
1734 3629 3790
2023 3742 3870
2248 3822 3999
2409 3838 4095
2602 3886 4063
3003 3404 2923
3035 3356 2955
2971 3340 2875
3003 3324 2923
3003 3372 2955
2987 3372 2955
2907 3324 2923
2907 3324 2923
2875 3292 2858
2730 3276 2875
2489 3212 2682
2296 3164 2618
2056 3131 2569
1670 3035 2537
1060 2939 2505
482 2875 2553
819 3019 2762
787 3260 3131
1108 3453 3404
1461 3597 3581
1750 3661 3726
2007 3742 3790
2264 3854 3950
2457 3886 4015
2650 3934 4079
3180 3501 3067
3164 3485 3083
3131 3485 3115
3148 3469 3067
3164 3517 3148
3131 3517 3099
3051 3469 3035
3067 3453 3099
3019 3469 3067
2955 3404 3003
2858 3372 2987
2618 3340 2842
2441 3356 2794
2136 3276 2794
1734 3196 2666
1124 3131 2650
642 3083 2714
1060 3180 2971
1188 3453 3324
1558 3613 3597
1766 3726 3742
2072 3806 3838
2329 3902 3950
2505 3918 4079
2666 3967 4031
3340 3613 3308
3308 3629 3228
3308 3613 3260
3292 3597 3244
3340 3629 3276
3212 3597 3212
3292 3597 3244
3244 3645 3180
3228 3581 3244
3164 3581 3148
3115 3565 3164
3003 3549 3164
2778 3501 3003
2521 3469 2987
2329 3437 2971
1879 3372 2875
1108 3308 2858
947 3324 2939
1397 3404 3180
1477 3629 3453
1766 3742 3661
2056 3870 3806
2361 3934 3918
2537 3999 4047
2714 3967 4095
3517 3838 3437
3501 3806 3485
3533 3774 3469
3533 3774 3437
3549 3790 3485
3485 3758 3453
3469 3774 3453
3469 3774 3453
3469 3758 3501
3404 3774 3453
3356 3726 3437
3260 3726 3372
3164 3742 3324
2939 3677 3228
2682 3629 3115
2425 3597 3115
1991 3549 3051
1204 3437 2971
1124 3469 3099
1493 3549 3340
1686 3774 3613
1927 3870 3758
2200 3934 3934
2441 3967 3999
2618 4031 4095
3533 3838 3533
3597 3838 3533
3517 3822 3501
3581 3806 3565
3533 3838 3517
3581 3806 3533
3581 3822 3517
3533 3822 3597
3565 3838 3581
3517 3822 3517
3437 3806 3485
3421 3822 3517
3324 3790 3437
3164 3790 3356
2923 3774 3324
2762 3742 3244
2457 3677 3196
1991 3661 3131
1172 3549 3131
1365 3629 3324
1702 3726 3501
1927 3870 3758
2216 3999 3902
2441 4047 4015
2682 4063 4047
3661 3886 3645
3677 3886 3597
3613 3886 3581
3645 3886 3549
3661 3886 3613
3645 3886 3581
3613 3886 3581
3613 3886 3597
3549 3918 3629
3613 3886 3597
3565 3902 3629
3533 3870 3565
3517 3886 3597
3372 3918 3533
3244 3870 3404
3051 3854 3421
2810 3822 3356
2553 3854 3340
2136 3790 3324
1124 3742 3308
1574 3806 3469
1991 3854 3645
2168 4031 3886
2425 4095 4031
2650 4095 4095
3742 3950 3677
3694 3934 3629
3694 3934 3629
3742 3950 3661
3726 3950 3677
3694 3918 3645
3726 3950 3677
3677 3950 3661
3710 3934 3694
3645 3934 3677
3677 3967 3710
3629 3983 3645
3597 3999 3694
3533 3983 3613
3453 3967 3597
3324 3967 3533
3164 3967 3565
2939 3983 3501
2650 3950 3437
2184 3934 3421
1397 3950 3469
1895 3967 3613
2216 4015 3790
2393 4079 3967
2634 4095 4095
3726 3999 3694
3758 3967 3694
3726 3999 3710
3774 3983 3661
3742 3967 3726
3726 3999 3710
3758 3983 3710
3774 3999 3758
3726 3999 3710
3758 4031 3774
3742 4015 3758
3677 4047 3758
3726 3999 3742
3677 4047 3790
3661 4031 3742
3533 4047 3710
3404 4015 3645
3260 4031 3645
3051 4095 3613
2794 4079 3613
2264 4079 3597
1734 4095 3645
2072 4095 3774
2393 4063 3918
2569 4095 4079
145 16 0
145 16 193
112 48 321
32 64 466
32 128 707
32 161 899
0 289 1092
0 401 1301
16 466 1510
16 610 1734
0 739 1943
0 835 2184
0 947 2425
32 1060 2666
0 1140 2842
16 1237 3035
0 1349 3212
0 1445 3372
0 1542 3549
0 1622 3677
0 1702 3790
16 1799 3934
0 1895 4015
0 1959 4095
0 2056 4095
161 112 32
177 145 193
161 161 289
32 241 498
0 289 691
0 385 835
32 434 1076
0 530 1253
0 594 1477
32 691 1750
0 787 1895
0 899 2136
0 1012 2409
32 1092 2602
0 1204 2826
0 1301 3035
0 1381 3196
0 1493 3324
32 1574 3517
0 1718 3629
16 1734 3790
0 1863 3934
32 1911 4031
0 2039 4095
0 2120 4063
241 225 161
241 273 193
161 305 289
80 385 450
32 450 658
32 530 867
0 594 1060
0 626 1285
16 723 1445
0 787 1686
16 915 1895
0 996 2072
0 1108 2345
0 1188 2618
32 1301 2794
0 1381 2971
16 1477 3164
0 1542 3340
16 1638 3501
0 1734 3645
32 1799 3806
0 1895 3886
32 1991 4031
0 2088 4095
0 2136 4079
289 369 273
353 401 289
273 434 305
112 514 466
0 594 674
0 723 819
0 755 980
0 803 1204
0 899 1461
0 980 1638
0 1044 1847
0 1108 2152
0 1220 2377
0 1333 2569
16 1397 2794
0 1526 3003
0 1590 3131
0 1622 3292
16 1750 3485
16 1847 3677
0 1911 3806
32 1959 3934
16 2072 4079
0 2152 4095
0 2232 4079
434 546 434
434 546 434
401 594 434
289 610 466
112 658 642
0 787 803
0 899 996
32 964 1188
0 1060 1413
0 1140 1622
32 1204 1895
0 1301 2104
32 1381 2345
32 1461 2553
0 1542 2762
0 1638 2987
0 1718 3164
0 1799 3340
0 1895 3501
0 1943 3694
0 2039 3806
0 2088 3918
0 2184 4015
0 2264 4063
0 2329 4095
594 755 578
594 755 578
610 771 594
482 803 610
289 819 642
96 883 835
0 980 996
0 1140 1237
16 1285 1526
16 1333 1670
0 1381 1911
16 1493 2152
48 1590 2361
0 1670 2569
0 1750 2826
16 1815 3003
0 1911 3180
16 1959 3388
0 2039 3517
16 2072 3661
0 2136 3758
0 2232 3918
0 2280 4015
0 2361 4063
0 2409 4095
739 947 674
739 947 674
739 931 707
658 947 755
578 964 739
289 931 787
64 1012 915
0 1124 1156
32 1317 1461
0 1493 1686
0 1574 1943
32 1654 2104
0 1766 2329
16 1815 2553
32 1895 2810
48 1959 3019
0 2039 3180
0 2120 3324
0 2184 3565
0 2248 3661
16 2264 3790
0 2377 3918
0 2457 3999
0 2505 4063
0 2537 4095
931 1156 883
931 1108 851
867 1124 915
835 1092 883
771 1124 915
562 1108 835
289 1092 899
0 1220 1124
0 1381 1397
0 1558 1670
48 1686 1927
0 1847 2184
0 1959 2457
0 2007 2618
0 2104 2794
0 2168 2939
0 2248 3180
0 2296 3340
0 2345 3517
0 2441 3661
16 2457 3790
0 2553 3902
0 2618 4047
0 2666 4095
0 2730 4095
1108 1333 964
1108 1285 1012
1076 1301 1028
1028 1301 996
980 1349 1092
803 1269 980
578 1269 996
289 1301 1156
48 1349 1365
0 1606 1590
48 1734 1831
0 1943 2088
16 2152 2457
32 2216 2602
0 2280 2794
0 2329 3051
32 2409 3148
0 2505 3324
16 2569 3501
16 2602 3694
0 2666 3790
0 2682 3934
0 2778 4047
0 2842 4095
0 2891 4095
1301 1590 1204
1317 1606 1253
1269 1542 1237
1220 1526 1204
1188 1542 1172
1076 1510 1204
883 1493 1124
610 1429 1156
353 1477 1349
48 1590 1526
16 1783 1799
16 1991 2072
0 2200 2377
0 2377 2602
0 2505 2907
32 2553 3115
0 2585 3196
16 2682 3356
0 2746 3517
337 2842 3661
385 2875 3774
594 2907 3918
851 2971 3999
1092 3003 4095
1140 3019 4095
1638 2007 1542
1606 1975 1526
1542 1943 1477
1510 1895 1510
1542 1959 1558
1429 1879 1510
1204 1815 1413
980 1750 1365
642 1750 1445
385 1734 1526
32 1879 1766
0 2104 2056
0 2329 2409
32 2505 2666
0 2650 2907
0 2762 3115
0 2858 3276
0 2891 3404
80 2907 3533
610 2971 3661
1076 3035 3790
1172 3051 3902
1269 3099 3967
1381 3148 4095
1461 3164 4095
