src-tauri/resources/luts/自然莱卡质感.cube
# Converted from .3dl using Python
LUT_3D_SIZE 9
DOMAIN_MIN 0.0 0.0 0.0
DOMAIN_MAX 1.0 1.0 1.0
0.071305 0.067343 0.059421
0.078485 0.088636 0.090616
0.095321 0.119336 0.132706
0.118099 0.156474 0.180490
0.142610 0.196336 0.229760
0.164645 0.232978 0.272097
0.183461 0.264669 0.308245
0.197821 0.291161 0.336717
0.206239 0.313196 0.356771
0.097054 0.102005 0.059421
0.097796 0.115375 0.113394
0.113890 0.146571 0.164892
0.138648 0.189156 0.217133
0.166130 0.236197 0.273335
0.191879 0.279772 0.321367
0.214905 0.317900 0.362466
0.233969 0.350087 0.396138
0.248329 0.376578 0.422629
0.131716 0.155732 0.059916
0.128745 0.161426 0.122803
0.143352 0.191632 0.196583
0.170339 0.238673 0.270859
0.203763 0.295618 0.334241
0.234712 0.345383 0.386729
0.262689 0.387967 0.430552
0.286952 0.423620 0.466700
0.306264 0.451845 0.496410
0.176776 0.226294 0.061897
0.171330 0.225798 0.121812
0.182719 0.251795 0.217876
0.210201 0.300074 0.321614
0.253528 0.366922 0.405051
0.291656 0.423125 0.461253
0.326566 0.469176 0.506809
0.356771 0.506313 0.543451
0.381530 0.535033 0.573904
0.233721 0.312701 0.065858
0.225798 0.306264 0.114137
0.230503 0.323595 0.218618
0.256499 0.368160 0.349591
0.312949 0.443427 0.477346
0.360980 0.506809 0.538747
0.405051 0.556078 0.585789
0.443427 0.593711 0.621936
0.475118 0.622184 0.650161
0.302550 0.409755 0.071552
0.291656 0.398366 0.108938
0.288438 0.403318 0.203021
0.305521 0.433523 0.337707
0.354791 0.497648 0.496905
0.428571 0.572419 0.589998
0.487249 0.627631 0.649666
0.534291 0.666502 0.687051
0.572419 0.693241 0.713791
0.375340 0.509037 0.077990
0.362961 0.493439 0.106710
0.353800 0.487002 0.188413
0.360980 0.501362 0.318148
0.397871 0.548155 0.491211
0.479079 0.621689 0.615499
0.550631 0.679871 0.692993
0.609804 0.722456 0.738054
0.653875 0.747957 0.764793
0.451845 0.600644 0.085665
0.438722 0.583313 0.108195
0.424858 0.568705 0.177272
0.422877 0.568705 0.296856
0.445655 0.595692 0.471651
0.522407 0.658579 0.621689
0.601139 0.716266 0.718495
0.670463 0.761822 0.775687
0.719485 0.788562 0.806140
0.531320 0.673929 0.095073
0.517950 0.659817 0.113642
0.500124 0.641991 0.172320
0.490716 0.632087 0.280515
0.502104 0.641000 0.448626
0.567467 0.688289 0.614756
0.644219 0.739540 0.728893
0.716514 0.785590 0.800693
0.769002 0.816539 0.840307
0.154494 0.069324 0.071305
0.174301 0.078237 0.085170
0.183214 0.114385 0.133696
0.191136 0.166873 0.200297
0.207725 0.225056 0.267641
0.225303 0.275811 0.322109
0.241644 0.319138 0.366427
0.256004 0.355038 0.401337
0.267641 0.382768 0.427086
0.137905 0.129487 0.063630
0.147066 0.131221 0.118594
0.157960 0.159941 0.178014
0.174053 0.207477 0.241149
0.199554 0.264669 0.307254
0.227532 0.319386 0.362714
0.253776 0.365685 0.408765
0.276306 0.402822 0.445655
0.293142 0.429809 0.472642
0.162912 0.196831 0.061401
0.164645 0.191632 0.126021
0.173310 0.215647 0.208963
0.192374 0.261203 0.293389
0.225798 0.321119 0.362961
0.261203 0.378311 0.419411
0.293885 0.426591 0.465957
0.322357 0.465214 0.503838
0.345383 0.493439 0.534043
0.214410 0.274821 0.063382
0.211438 0.264422 0.119336
0.214905 0.282496 0.223570
0.233474 0.325576 0.338945
0.275316 0.389948 0.428324
0.318148 0.449864 0.487497
0.357019 0.499133 0.534291
0.390938 0.538747 0.571924
0.419411 0.568458 0.603615
0.277544 0.367418 0.068581
0.272345 0.353553 0.109928
0.268878 0.361476 0.219361
0.284724 0.397376 0.360733
0.336965 0.466700 0.497896
0.390443 0.530824 0.562268
0.437732 0.581580 0.610300
0.478089 0.620451 0.646200
0.511018 0.648675 0.674672
0.350582 0.466452 0.075761
0.346125 0.451845 0.104729
0.336965 0.448873 0.199307
0.343649 0.469176 0.341421
0.385987 0.524635 0.513493
0.459520 0.595444 0.610547
0.518940 0.649171 0.671206
0.566477 0.688042 0.708096
0.602872 0.714286 0.734093
0.429067 0.564249 0.082446
0.423867 0.549393 0.102748
0.410250 0.537757 0.180738
0.408022 0.542956 0.313939
0.436247 0.578856 0.500371
0.512008 0.644466 0.631344
0.580342 0.698688 0.710819
0.637286 0.739044 0.755385
0.678386 0.764050 0.781629
0.510027 0.651399 0.090121
0.502600 0.637534 0.104234
0.486011 0.620451 0.166378
0.476356 0.613518 0.285714
0.489973 0.628869 0.471651
0.557316 0.682347 0.631840
0.628621 0.733102 0.732359
0.692746 0.774944 0.789057
0.738054 0.800446 0.818767
0.590245 0.719733 0.099530
0.580094 0.707601 0.109433
0.561525 0.689775 0.158950
0.547165 0.676157 0.264174
0.549889 0.675662 0.440951
0.603615 0.712553 0.619955
0.670215 0.755880 0.739292
0.734588 0.796484 0.810844
0.782124 0.824957 0.846497
0.306264 0.081456 0.082941
0.328547 0.084922 0.097301
0.347363 0.109928 0.137658
0.361971 0.158207 0.203516
0.372122 0.231245 0.294380
0.377074 0.301807 0.367418
0.381035 0.361971 0.425353
0.385987 0.411488 0.470166
0.393167 0.449616 0.504085
0.252538 0.143105 0.066601
0.261698 0.140876 0.125279
0.274078 0.161426 0.187670
0.290171 0.206982 0.259470
0.311216 0.280267 0.345383
0.334736 0.353800 0.412478
0.356524 0.413964 0.466204
0.375340 0.460758 0.507551
0.390443 0.493439 0.538500
0.242387 0.234464 0.060906
0.245110 0.224065 0.130725
0.252785 0.236692 0.219856
0.268383 0.275811 0.313939
0.294627 0.344145 0.399109
0.328794 0.414211 0.463233
0.361228 0.471404 0.513493
0.390196 0.514979 0.552860
0.413469 0.544937 0.583808
0.274325 0.340678 0.063630
0.272592 0.322852 0.124536
0.275316 0.326071 0.231988
0.288438 0.355534 0.353305
0.317653 0.416935 0.456301
0.359990 0.482298 0.520673
0.400099 0.536024 0.569943
0.436247 0.577123 0.607824
0.466204 0.605595 0.638524
0.346868 0.446150 0.071552
0.338203 0.426096 0.116118
0.333746 0.419163 0.221837
0.342907 0.437237 0.363704
0.375340 0.492449 0.516960
0.429562 0.557564 0.587274
0.477841 0.609804 0.637534
0.519188 0.649418 0.673682
0.552860 0.677148 0.702154
0.422629 0.541966 0.081703
0.416687 0.526120 0.111414
0.409260 0.512503 0.198564
0.410993 0.517455 0.338698
0.432285 0.557316 0.527358
0.499381 0.622184 0.632087
0.557069 0.673682 0.695469
0.604110 0.712057 0.732359
0.639020 0.737311 0.757613
0.500619 0.630849 0.090369
0.496658 0.618470 0.109928
0.486754 0.600891 0.177767
0.480812 0.594207 0.305769
0.488487 0.615004 0.505571
0.553850 0.671701 0.647685
0.616737 0.720971 0.731864
0.670711 0.759346 0.776925
0.708839 0.782867 0.801931
0.577371 0.707106 0.099034
0.574400 0.697697 0.112156
0.562763 0.678881 0.162416
0.550631 0.664273 0.273087
0.545927 0.666749 0.466452
0.599901 0.709582 0.641495
0.662788 0.753899 0.749195
0.721218 0.792028 0.807873
0.762317 0.815796 0.835355
0.650656 0.766031 0.109433
0.646695 0.758604 0.118346
0.634068 0.741768 0.155732
0.618470 0.723694 0.248824
0.605348 0.712800 0.425600
0.644714 0.739292 0.620946
0.700421 0.775192 0.750186
0.757366 0.811092 0.825204
0.800198 0.837336 0.858876
0.489230 0.099777 0.096063
0.507799 0.101015 0.119832
0.537509 0.113890 0.155484
0.566229 0.149790 0.215152
0.582075 0.221094 0.310968
0.581580 0.307749 0.404060
0.574400 0.384749 0.477593
0.566724 0.450111 0.534538
0.564496 0.501609 0.577123
0.415697 0.150285 0.072543
0.419906 0.149047 0.135182
0.434761 0.161674 0.201040
0.456053 0.200050 0.278287
0.479822 0.276554 0.375836
0.502352 0.370389 0.459520
0.518198 0.447883 0.523397
0.529339 0.508294 0.571676
0.537509 0.551374 0.607824
0.370636 0.260460 0.062144
0.371131 0.248329 0.136915
0.379054 0.251300 0.229760
0.394157 0.281505 0.331023
0.417430 0.350582 0.430800
0.450854 0.438227 0.508542
0.481307 0.509532 0.566724
0.506809 0.563258 0.609309
0.526120 0.597673 0.641495
0.370389 0.397871 0.063382
0.368656 0.374598 0.131716
0.372122 0.364694 0.239663
0.382273 0.380292 0.363951
0.400347 0.433771 0.480812
0.440208 0.510275 0.557564
0.479327 0.572914 0.613023
0.514731 0.619460 0.652637
0.542956 0.647685 0.682100
0.432038 0.529587 0.075514
0.420153 0.503590 0.127507
0.416440 0.482793 0.228274
0.421391 0.482545 0.366675
0.434761 0.517455 0.531567
0.482545 0.585541 0.613023
0.528349 0.641000 0.668730
0.568953 0.682347 0.706363
0.601882 0.709086 0.734093
0.512008 0.626393 0.091359
0.501362 0.608566 0.126021
0.496410 0.586531 0.206239
0.496162 0.576628 0.339440
0.499629 0.594207 0.534043
0.551127 0.651399 0.652389
0.602624 0.701164 0.722208
0.647933 0.739540 0.760584
0.680862 0.763308 0.784848
0.585789 0.705373 0.103986
0.580589 0.694726 0.127259
0.575390 0.674424 0.186680
0.569448 0.657836 0.304778
0.561773 0.658084 0.503838
0.607329 0.703144 0.662788
0.660560 0.746967 0.755385
0.710077 0.783115 0.802674
0.744491 0.805150 0.825699
0.653627 0.767764 0.115375
0.653875 0.763060 0.131468
0.649171 0.745729 0.173063
0.638524 0.725427 0.270859
0.620946 0.711315 0.456053
0.654370 0.742015 0.649913
0.704382 0.779153 0.768259
0.755880 0.813320 0.830899
0.792275 0.835355 0.856648
0.714781 0.815548 0.127507
0.717504 0.813320 0.140134
0.713295 0.799950 0.168606
0.700421 0.779401 0.246348
0.676900 0.755633 0.406289
0.695222 0.770240 0.618965
0.737311 0.798465 0.761327
0.785838 0.829908 0.843773
0.823966 0.854667 0.876950
0.665264 0.119336 0.113642
0.677891 0.119336 0.145581
0.703887 0.133696 0.198069
0.740530 0.161426 0.259470
0.784353 0.201287 0.318148
0.800693 0.291161 0.427829
0.794256 0.379302 0.515474
0.777668 0.459520 0.584303
0.762813 0.526120 0.636296
0.602624 0.158455 0.086408
0.600149 0.159445 0.150780
0.612528 0.171330 0.224313
0.640753 0.199307 0.304283
0.684575 0.248329 0.388215
0.719733 0.356276 0.491706
0.734835 0.452092 0.569943
0.736568 0.530824 0.627631
0.731617 0.587026 0.669225
0.548155 0.266650 0.067591
0.542956 0.254518 0.143847
0.548403 0.255756 0.238921
0.566724 0.277544 0.342907
0.600891 0.327061 0.445655
0.641495 0.435504 0.546422
0.670711 0.528101 0.618470
0.689279 0.599158 0.668482
0.697945 0.643724 0.703144
0.516960 0.420896 0.064125
0.512503 0.393662 0.136172
0.512998 0.380787 0.244120
0.521911 0.389453 0.369646
0.542956 0.426838 0.494429
0.581084 0.523149 0.594702
0.617727 0.603615 0.662788
0.648923 0.663283 0.707601
0.670958 0.696707 0.737559
0.523644 0.598415 0.081703
0.513989 0.565239 0.139391
0.508047 0.539738 0.241892
0.509532 0.528596 0.378559
0.521416 0.537262 0.538500
0.554593 0.613766 0.639020
0.592226 0.675910 0.704877
0.629116 0.720971 0.745729
0.660064 0.746719 0.772221
0.612033 0.709829 0.106710
0.598663 0.686061 0.146076
0.589998 0.663531 0.228027
0.588017 0.644962 0.354791
0.594949 0.633573 0.529091
0.617727 0.682100 0.669968
0.657093 0.730626 0.751176
0.698688 0.770735 0.793018
0.728151 0.793513 0.816044
0.682100 0.784600 0.125774
0.674920 0.772716 0.153503
0.668977 0.756375 0.214657
0.664769 0.735331 0.323100
0.663283 0.708591 0.491953
0.675167 0.738549 0.674920
0.712057 0.776182 0.780391
0.754890 0.810597 0.831889
0.784848 0.831394 0.853677
0.738054 0.834365 0.141124
0.740035 0.831889 0.162416
0.739044 0.822728 0.205744
0.733845 0.801931 0.291409
0.723446 0.765536 0.439960
0.723694 0.780886 0.656103
0.754642 0.809111 0.788809
0.795989 0.839069 0.857638
0.827433 0.859619 0.882644
0.784353 0.870760 0.156227
0.791533 0.871255 0.174301
0.794008 0.866056 0.204258
0.789057 0.847239 0.267641
0.772964 0.807130 0.385987
0.759346 0.807130 0.614756
0.782124 0.826690 0.772716
0.820748 0.854172 0.866056
0.854419 0.876702 0.899975
0.763555 0.134687 0.139143
0.774202 0.136667 0.173310
0.796484 0.152513 0.230998
0.828423 0.182966 0.303540
0.867046 0.229265 0.381530
0.893290 0.291656 0.456796
0.903689 0.367665 0.536271
0.901708 0.446893 0.609062
0.890567 0.519683 0.664769
0.726913 0.166130 0.117603
0.725427 0.169596 0.176529
0.737064 0.183214 0.249814
0.762070 0.212181 0.335231
0.800693 0.262689 0.430057
0.841050 0.344887 0.515227
0.867541 0.434513 0.591978
0.878930 0.518198 0.655360
0.873236 0.582818 0.701164
0.690270 0.261451 0.096559
0.687299 0.253776 0.167368
0.692993 0.256747 0.258480
0.710572 0.278039 0.361476
0.742510 0.324338 0.468680
0.787324 0.413964 0.565239
0.823966 0.507799 0.642486
0.846744 0.590245 0.699926
0.849963 0.644466 0.737806
0.663035 0.412231 0.085912
0.661797 0.388215 0.155484
0.664026 0.375340 0.257737
0.673929 0.381035 0.378064
0.695717 0.412231 0.501362
0.737559 0.496658 0.608319
0.778410 0.585789 0.688042
0.810102 0.661302 0.742758
0.824462 0.705868 0.774697
0.655608 0.611042 0.094578
0.651646 0.572419 0.150780
0.649913 0.540233 0.249072
0.653132 0.521911 0.379549
0.664026 0.525130 0.532805
0.696707 0.590988 0.645952
0.736568 0.665759 0.729141
0.773706 0.730874 0.783610
0.799455 0.767517 0.812082
0.703887 0.751919 0.127754
0.694231 0.723942 0.167616
0.686061 0.696460 0.247834
0.682100 0.674177 0.368903
0.684575 0.662293 0.530329
0.703640 0.690022 0.673682
0.737311 0.741520 0.769002
0.774449 0.794256 0.825699
0.803169 0.824709 0.853181
0.758851 0.839317 0.155732
0.752909 0.824709 0.185194
0.745977 0.806883 0.247834
0.740530 0.787571 0.352067
0.738549 0.768507 0.506313
0.747957 0.770983 0.678138
0.772964 0.800941 0.794008
0.804407 0.838326 0.860857
0.832384 0.863580 0.887101
0.809606 0.889329 0.178757
0.811092 0.886358 0.202525
0.809854 0.878930 0.249319
0.806883 0.865808 0.333251
0.804159 0.845011 0.468433
0.804407 0.829661 0.659817
0.819015 0.842535 0.799208
0.842040 0.867294 0.884377
0.868037 0.888586 0.912602
0.845506 0.917554 0.196583
0.852934 0.919782 0.218123
0.858133 0.919535 0.253281
0.860361 0.912107 0.316910
0.858628 0.893043 0.424610
0.847735 0.862095 0.618965
0.850953 0.864818 0.780639
0.865808 0.884625 0.890567
0.890815 0.904679 0.928943
0.823719 0.146323 0.162169
0.837584 0.154246 0.200545
0.859619 0.173558 0.260956
0.887596 0.206487 0.337460
0.919287 0.254766 0.424115
0.944293 0.310225 0.494429
0.957910 0.371874 0.561525
0.962367 0.438475 0.623422
0.958901 0.509780 0.678138
0.811835 0.172815 0.153999
0.816044 0.179747 0.205744
0.829908 0.196583 0.276554
0.852439 0.228769 0.362466
0.883635 0.281505 0.461005
0.916316 0.354048 0.542709
0.940084 0.431295 0.612280
0.952959 0.506561 0.669968
0.952216 0.572419 0.716762
0.794504 0.254766 0.138401
0.797970 0.252043 0.200545
0.806883 0.258480 0.283981
0.823224 0.282000 0.382273
0.849715 0.328794 0.488982
0.885368 0.409012 0.584303
0.915821 0.495667 0.659817
0.935875 0.575638 0.716514
0.940827 0.635306 0.755385
0.776925 0.396385 0.125031
0.782867 0.377569 0.189156
0.789304 0.366922 0.282248
0.800198 0.372369 0.393414
0.818767 0.402080 0.511760
0.852191 0.477841 0.619460
0.885615 0.564991 0.702649
0.912355 0.644962 0.761079
0.925229 0.698935 0.794008
0.765288 0.601634 0.124041
0.770488 0.563506 0.176776
0.775935 0.529339 0.269621
0.782867 0.507551 0.391929
0.792523 0.506313 0.533795
0.818272 0.563506 0.648923
0.850953 0.639515 0.739787
0.882644 0.713543 0.802674
0.905917 0.764298 0.833127
0.787076 0.771231 0.153999
0.786581 0.738797 0.191384
0.785838 0.705373 0.267393
0.786333 0.677148 0.380787
0.790047 0.660560 0.529834
0.805397 0.676653 0.670463
0.831641 0.725922 0.774202
0.861847 0.785095 0.842040
0.889824 0.830404 0.875464
0.822233 0.872988 0.184452
0.820748 0.854172 0.211934
0.818024 0.831641 0.272840
0.815796 0.809359 0.371874
0.816291 0.790542 0.514484
0.824462 0.784848 0.675167
0.842288 0.807873 0.796979
0.866304 0.845011 0.876950
0.893043 0.882149 0.912602
0.859866 0.926219 0.211934
0.861104 0.921515 0.235207
0.860609 0.913345 0.282991
0.859866 0.902451 0.365189
0.860609 0.889081 0.491953
0.864075 0.871998 0.663035
0.872988 0.873484 0.803912
0.887596 0.889824 0.900966
0.908146 0.917306 0.941322
0.889081 0.950730 0.233969
0.895519 0.953701 0.256747
0.901708 0.956177 0.295370
0.907403 0.955187 0.361228
0.912602 0.948502 0.465709
0.912355 0.922753 0.634068
0.913345 0.912602 0.791285
0.917801 0.916564 0.908641
0.927210 0.933399 0.957415
0.856153 0.154246 0.182223
0.875712 0.169596 0.225798
0.898737 0.193860 0.288438
0.923991 0.229017 0.366180
0.949740 0.278039 0.454816
0.968061 0.335479 0.530577
0.978708 0.386482 0.587522
0.984155 0.438475 0.634811
0.986383 0.498391 0.681852
0.863580 0.178014 0.190641
0.875464 0.188908 0.236940
0.892548 0.210696 0.304036
0.914088 0.247338 0.388215
0.938103 0.302550 0.485764
0.958901 0.373855 0.568953
0.973756 0.439960 0.631097
0.983164 0.501857 0.679624
0.987126 0.560535 0.721961
0.863333 0.248329 0.185937
0.875217 0.249814 0.240158
0.889081 0.261203 0.314682
0.905670 0.288685 0.405546
0.925972 0.338945 0.508294
0.947264 0.415202 0.602129
0.965338 0.492944 0.673186
0.978460 0.564496 0.724932
0.985145 0.623174 0.761079
0.857638 0.377816 0.175291
0.872246 0.364447 0.233721
0.885368 0.357514 0.315672
0.898737 0.365685 0.414954
0.913840 0.397128 0.525873
0.933399 0.467690 0.629859
0.952959 0.548651 0.711315
0.969795 0.626393 0.768755
0.980936 0.686556 0.800446
0.848972 0.579104 0.165635
0.864323 0.544689 0.215647
0.879178 0.512751 0.302055
0.892052 0.490963 0.413964
0.902204 0.487002 0.541223
0.917554 0.538995 0.651399
0.936618 0.610795 0.743253
0.956672 0.686556 0.808864
0.974746 0.750681 0.840555
0.855410 0.771478 0.184699
0.867046 0.736321 0.219114
0.877940 0.698935 0.290418
0.887596 0.666006 0.395890
0.895766 0.644714 0.532310
0.907155 0.654865 0.667244
0.923248 0.699183 0.773211
0.942560 0.760337 0.846744
0.963605 0.820005 0.884872
0.872246 0.888091 0.211438
0.879426 0.865066 0.236445
0.885863 0.837831 0.294132
0.891805 0.811092 0.387472
0.897004 0.789552 0.520178
0.905175 0.783115 0.670463
0.917306 0.799703 0.793761
0.933152 0.834860 0.881901
0.952711 0.884377 0.926962
0.894281 0.948502 0.240158
0.898490 0.941322 0.261451
0.902946 0.930676 0.307997
0.907155 0.918049 0.387472
0.911364 0.905670 0.507799
0.918297 0.896757 0.663778
0.926715 0.891805 0.802922
0.937113 0.900718 0.907650
0.949245 0.933895 0.960881
0.916068 0.971032 0.264669
0.921763 0.974499 0.287695
0.928943 0.977470 0.327061
0.936618 0.978708 0.393909
0.944541 0.977470 0.498143
0.953701 0.969052 0.649418
0.960139 0.955187 0.797970
0.962615 0.947759 0.917059
0.960386 0.958406 0.979946
0.872246 0.158455 0.198316
0.896014 0.180985 0.247834
0.920525 0.210201 0.314187
0.944293 0.248824 0.393414
0.966576 0.299084 0.481802
0.979698 0.356771 0.555088
0.987126 0.407527 0.610547
0.990592 0.451102 0.651646
0.991087 0.487497 0.681852
0.888834 0.181481 0.222827
0.906660 0.196831 0.267145
0.927705 0.224313 0.332508
0.949245 0.266403 0.414459
0.969299 0.324585 0.509037
0.981679 0.393909 0.589007
0.989354 0.457044 0.648923
0.993810 0.510770 0.692003
0.996534 0.551869 0.722208
0.899480 0.243129 0.233226
0.918297 0.247834 0.283486
0.938599 0.264174 0.349839
0.958406 0.297598 0.431790
0.975241 0.353305 0.528596
0.985145 0.427086 0.617975
0.991830 0.500124 0.685318
0.996039 0.565734 0.732607
0.998762 0.616242 0.760832
0.903937 0.360980 0.230255
0.926715 0.351077 0.285962
0.948750 0.348601 0.356771
0.968061 0.361723 0.442436
0.982421 0.398861 0.542956
0.989354 0.467690 0.641000
0.993810 0.543699 0.718247
0.996781 0.617232 0.771973
0.999257 0.678881 0.799455
0.901461 0.553602 0.215647
0.927210 0.522654 0.264917
0.953206 0.495420 0.344392
0.974994 0.477346 0.444417
0.988363 0.474622 0.554840
0.992572 0.526863 0.657836
0.994801 0.593711 0.745482
0.996534 0.667244 0.809111
0.999752 0.739044 0.839317
0.901956 0.756375 0.219609
0.926715 0.721713 0.252538
0.951473 0.685318 0.320624
0.972518 0.653132 0.419163
0.986135 0.630849 0.543204
0.993315 0.636791 0.670463
0.995791 0.676405 0.771726
0.997029 0.736321 0.843773
1.000000 0.803169 0.883387
0.908641 0.887596 0.237683
0.928943 0.862837 0.260956
0.950235 0.833375 0.315920
0.969052 0.804407 0.403813
0.982174 0.779896 0.526368
0.989601 0.768507 0.668482
0.994305 0.779648 0.789057
0.996781 0.812577 0.878188
0.997524 0.867541 0.925724
0.918544 0.958406 0.262194
0.932161 0.948750 0.282000
0.948007 0.934885 0.325576
0.963605 0.919039 0.400099
0.975489 0.903689 0.512751
0.982669 0.893043 0.660312
0.989849 0.885863 0.796732
0.994305 0.893538 0.903689
0.992820 0.926715 0.962862
0.927705 0.979203 0.285467
0.934390 0.982421 0.307502
0.944293 0.984402 0.345135
0.954939 0.985145 0.409012
0.964843 0.984155 0.510522
0.973508 0.980688 0.654122
0.981679 0.977717 0.794008
0.986878 0.975737 0.912355
0.987126 0.975241 0.991087
