src-tauri/resources/luts/自然奶油质感.cube
# Converted from .3dl using Python
LUT_3D_SIZE 17
DOMAIN_MIN 0.0 0.0 0.0
DOMAIN_MAX 1.0 1.0 1.0
0.003907 0.000000 0.000000
0.000000 0.007814 0.043223
0.000000 0.019536 0.082295
0.000000 0.039316 0.125519
0.000000 0.054945 0.168742
0.000000 0.074481 0.211722
0.000000 0.094017 0.254945
0.003907 0.113797 0.302076
0.000000 0.141148 0.368742
0.000000 0.164591 0.419536
0.000000 0.188278 0.470574
0.000000 0.215629 0.517705
0.000000 0.247131 0.588278
0.007814 0.262759 0.654945
0.003907 0.290110 0.690110
0.000000 0.317705 0.741148
0.000000 0.329426 0.784371
0.000000 0.360684 0.827350
0.000000 0.380464 0.862759
0.000000 0.400000 0.894017
0.000000 0.415629 0.925519
0.003907 0.439316 0.960684
0.000000 0.458852 0.976557
0.000000 0.478388 1.000000
0.003907 0.505983 1.000000
0.007814 0.027350 0.011722
0.000000 0.035409 0.031258
0.000000 0.058852 0.078388
0.000000 0.070574 0.117705
0.000000 0.097924 0.164591
0.000000 0.109890 0.203907
0.000000 0.121612 0.243223
0.003907 0.137241 0.317705
0.003907 0.160684 0.352869
0.000000 0.180464 0.411722
0.000000 0.203907 0.462759
0.000000 0.239316 0.517705
0.003907 0.258852 0.580464
0.003907 0.282295 0.643223
0.003907 0.302076 0.678388
0.000000 0.321612 0.721612
0.000000 0.345055 0.776557
0.000000 0.368742 0.823443
0.000000 0.388278 0.851038
0.000000 0.415629 0.894017
0.000000 0.439316 0.917705
0.000000 0.451038 0.948962
0.000000 0.482295 0.992186
0.003907 0.490110 1.000000
0.000000 0.517705 1.000000
0.051038 0.058852 0.047131
0.023443 0.066667 0.035409
0.000000 0.090110 0.074481
0.000000 0.105983 0.121612
0.000000 0.125519 0.160684
0.000000 0.137241 0.192186
0.000000 0.160684 0.239316
0.000000 0.176557 0.297924
0.000000 0.188278 0.345055
0.003907 0.211722 0.407814
0.003907 0.223443 0.454945
0.000000 0.247131 0.517705
0.000000 0.274481 0.580464
0.000000 0.297924 0.635409
0.000000 0.317705 0.666667
0.000000 0.345055 0.737241
0.000000 0.364591 0.768742
0.000000 0.392186 0.831258
0.000000 0.407814 0.858852
0.000000 0.431258 0.905983
0.003907 0.447131 0.925519
0.011722 0.462759 0.952869
0.000000 0.486203 0.980464
0.003907 0.509890 1.000000
0.000000 0.529426 1.000000
0.070574 0.090110 0.062759
0.054945 0.097924 0.066667
0.023443 0.102076 0.066667
0.000000 0.125519 0.105983
0.007814 0.145055 0.160684
0.000000 0.176557 0.200000
0.000000 0.188278 0.235409
0.000000 0.203907 0.286203
0.003907 0.227350 0.345055
0.007814 0.239316 0.411722
0.007814 0.258852 0.447131
0.003907 0.282295 0.502076
0.007814 0.297924 0.576557
0.011722 0.321612 0.631258
0.000000 0.352869 0.678388
0.000000 0.368742 0.737241
0.000000 0.384371 0.780464
0.000000 0.407814 0.819536
0.007814 0.431258 0.858852
0.000000 0.454945 0.897924
0.000000 0.478388 0.933333
0.000000 0.482295 0.948962
0.000000 0.517705 0.980464
0.000000 0.525519 1.000000
0.007814 0.545055 0.992186
0.094017 0.137241 0.082295
0.109890 0.133333 0.094017
0.090110 0.141148 0.102076
0.054945 0.145055 0.105983
0.011722 0.164591 0.160684
0.003907 0.192186 0.200000
0.000000 0.219536 0.247131
0.000000 0.243223 0.309890
0.003907 0.262759 0.348962
0.000000 0.282295 0.407814
0.000000 0.297924 0.462759
0.000000 0.325519 0.521612
0.000000 0.337241 0.576557
0.000000 0.364591 0.635409
0.007814 0.384371 0.674481
0.000000 0.407814 0.733333
0.003907 0.415629 0.772650
0.000000 0.447131 0.827350
0.003907 0.466667 0.858852
0.003907 0.486203 0.902076
0.003907 0.497924 0.933333
0.000000 0.517705 0.960684
0.000000 0.537241 0.992186
0.000000 0.556777 0.996093
0.000000 0.576557 1.000000
0.141148 0.188278 0.133333
0.133333 0.180464 0.125519
0.133333 0.188278 0.137241
0.097924 0.188278 0.125519
0.039316 0.196093 0.164591
0.000000 0.211722 0.192186
0.007814 0.243223 0.247131
0.000000 0.278388 0.302076
0.000000 0.317705 0.364591
0.000000 0.333333 0.411722
0.000000 0.348962 0.466667
0.000000 0.376557 0.513797
0.000000 0.396093 0.588278
0.000000 0.411722 0.639316
0.000000 0.427350 0.690110
0.000000 0.447131 0.733333
0.000000 0.466667 0.780464
0.007814 0.482295 0.831258
0.000000 0.497924 0.854945
0.003907 0.513797 0.897924
0.000000 0.529426 0.921612
0.000000 0.545055 0.956777
0.000000 0.556777 0.980464
0.000000 0.576557 0.992186
0.000000 0.596093 1.000000
0.188278 0.219536 0.160684
0.172650 0.219536 0.164591
0.168742 0.223443 0.164591
0.152869 0.223443 0.176557
0.125519 0.227350 0.184371
0.039316 0.235409 0.200000
0.003907 0.247131 0.227350
0.003907 0.282295 0.297924
0.007814 0.321612 0.348962
0.000000 0.368742 0.415629
0.000000 0.388278 0.458852
0.000000 0.411722 0.525519
0.000000 0.439316 0.584371
0.003907 0.454945 0.639316
0.000000 0.466667 0.682296
0.000000 0.486203 0.729426
0.000000 0.513797 0.788278
0.003907 0.513797 0.819536
0.003907 0.533333 0.854945
0.000000 0.552869 0.897924
0.000000 0.564591 0.921612
0.000000 0.576557 0.952869
0.000000 0.600000 0.984371
0.003907 0.615629 1.000000
0.007814 0.631258 0.992186
0.207814 0.278388 0.192186
0.203907 0.270574 0.196093
0.203907 0.270574 0.207814
0.188278 0.270574 0.196093
0.172650 0.278388 0.203907
0.121612 0.274481 0.203907
0.035409 0.270574 0.223443
0.003907 0.290110 0.262759
0.003907 0.333333 0.341148
0.000000 0.376557 0.400000
0.007814 0.415629 0.458852
0.000000 0.466667 0.533333
0.003907 0.482295 0.576557
0.000000 0.502076 0.627350
0.000000 0.509890 0.682296
0.000000 0.533333 0.729426
0.000000 0.552869 0.772650
0.007814 0.552869 0.815629
0.007814 0.572650 0.851038
0.000000 0.600000 0.894017
0.000000 0.611722 0.929426
0.000000 0.615629 0.937241
0.007814 0.639316 0.992186
0.007814 0.654945 1.000000
0.000000 0.666667 1.000000
0.266667 0.325519 0.251038
0.251038 0.321612 0.258852
0.247131 0.321612 0.243223
0.243223 0.317705 0.243223
0.231258 0.313797 0.239316
0.172650 0.321612 0.231258
0.133333 0.305983 0.254945
0.047131 0.302076 0.270574
0.000000 0.345055 0.329426
0.000000 0.388278 0.376557
0.000000 0.427350 0.439316
0.000000 0.474481 0.517705
0.000000 0.529426 0.592186
0.000000 0.552869 0.639316
0.000000 0.560684 0.694017
0.003907 0.584371 0.741148
0.000000 0.596093 0.768742
0.000000 0.607814 0.823443
0.000000 0.627350 0.862759
0.000000 0.643223 0.894017
0.000000 0.654945 0.929426
0.000000 0.670574 0.952869
0.003907 0.682296 0.980464
0.003907 0.697924 0.996093
0.000000 0.705983 0.996093
0.313797 0.384371 0.290110
0.305983 0.384371 0.286203
0.294017 0.380464 0.290110
0.282295 0.376557 0.282295
0.278388 0.376557 0.290110
0.243223 0.364591 0.294017
0.203907 0.356777 0.282295
0.129426 0.352869 0.286203
0.054945 0.352869 0.305983
0.007814 0.384371 0.376557
0.000000 0.439316 0.423443
0.000000 0.490110 0.513797
0.003907 0.537241 0.584371
0.000000 0.572650 0.643223
0.003907 0.615629 0.702076
0.000000 0.635409 0.745055
0.003907 0.643223 0.780464
0.000000 0.654945 0.819536
0.003907 0.678388 0.866667
0.078388 0.694017 0.894017
0.090110 0.702076 0.933333
0.152869 0.713797 0.948962
0.211722 0.729426 0.972650
0.258852 0.741148 1.000000
0.282295 0.748962 1.000000
0.392186 0.490110 0.364591
0.388278 0.478388 0.364591
0.376557 0.474481 0.356777
0.372650 0.466667 0.364591
0.360684 0.474481 0.356777
0.329426 0.462759 0.368742
0.274481 0.443223 0.337241
0.223443 0.427350 0.337241
0.133333 0.427350 0.345055
0.078388 0.419536 0.384371
0.003907 0.462759 0.431258
0.000000 0.513797 0.509890
0.003907 0.572650 0.592186
0.003907 0.600000 0.643223
0.000000 0.643223 0.717705
0.000000 0.686203 0.768742
0.000000 0.697924 0.796093
0.003907 0.705983 0.831258
0.000000 0.717705 0.866667
0.129426 0.729426 0.890110
0.247131 0.745055 0.921612
0.278388 0.748962 0.952869
0.313797 0.760684 0.972650
0.333333 0.764591 0.996093
0.356777 0.772650 1.000000
0.439316 0.533333 0.407814
0.423443 0.529426 0.407814
0.415629 0.513797 0.396093
0.411722 0.517705 0.396093
0.400000 0.521612 0.400000
0.380464 0.509890 0.403907
0.345055 0.486203 0.376557
0.274481 0.470574 0.364591
0.223443 0.466667 0.368742
0.137241 0.447131 0.372650
0.054945 0.454945 0.400000
0.003907 0.502076 0.474481
0.003907 0.552869 0.548962
0.000000 0.600000 0.615629
0.007814 0.635409 0.682296
0.003907 0.682296 0.745055
0.000000 0.717705 0.788278
0.000000 0.737241 0.835409
0.011722 0.752869 0.866667
0.211722 0.772650 0.897924
0.290110 0.776557 0.925519
0.356777 0.792186 0.960684
0.419536 0.800000 0.968742
0.451038 0.811722 1.000000
0.458852 0.811722 1.000000
0.502076 0.596093 0.462759
0.466667 0.588278 0.462759
0.470574 0.568742 0.443223
0.462759 0.568742 0.439316
0.451038 0.584371 0.454945
0.431258 0.560684 0.454945
0.396093 0.552869 0.419536
0.352869 0.537241 0.403907
0.309890 0.533333 0.407814
0.231258 0.505983 0.403907
0.121612 0.478388 0.407814
0.078388 0.490110 0.435409
0.000000 0.552869 0.529426
0.000000 0.603907 0.596093
0.000000 0.651038 0.651038
0.000000 0.690110 0.721612
0.000000 0.729426 0.780464
0.000000 0.764591 0.827350
0.148962 0.800000 0.862759
0.282295 0.807814 0.905983
0.341148 0.815629 0.929426
0.400000 0.823443 0.964591
0.451038 0.831258 0.968742
0.482295 0.843223 1.000000
0.533333 0.847131 0.992186
0.541148 0.643223 0.505983
0.521612 0.639316 0.490110
0.521612 0.627350 0.497924
0.505983 0.623443 0.490110
0.517705 0.631258 0.509890
0.497924 0.615629 0.505983
0.462759 0.611722 0.466667
0.435409 0.592186 0.458852
0.376557 0.588278 0.454945
0.309890 0.572650 0.451038
0.231258 0.545055 0.439316
0.125519 0.525519 0.439316
0.082295 0.541148 0.478388
0.000000 0.600000 0.568742
0.003907 0.654945 0.639316
0.000000 0.697924 0.717705
0.000000 0.741148 0.760684
0.000000 0.776557 0.819536
0.219536 0.807814 0.874481
0.325519 0.839316 0.909890
0.392186 0.847131 0.937241
0.439316 0.854945 0.948962
0.494017 0.858852 0.980464
0.525519 0.874481 1.000000
0.556777 0.870574 1.000000
0.584371 0.690110 0.560684
0.576557 0.682296 0.552869
0.564591 0.682296 0.541148
0.572650 0.678388 0.556777
0.568742 0.674481 0.552869
0.552869 0.674481 0.552869
0.529426 0.666667 0.548962
0.513797 0.654945 0.545055
0.478388 0.639316 0.505983
0.392186 0.635409 0.490110
0.325519 0.623443 0.482295
0.247131 0.596093 0.478388
0.090110 0.568742 0.486203
0.090110 0.584371 0.529426
0.003907 0.651038 0.623443
0.000000 0.713797 0.694017
0.003907 0.748962 0.748962
0.137241 0.780464 0.815629
0.266667 0.831258 0.874481
0.356777 0.858852 0.909890
0.423443 0.866667 0.937241
0.486203 0.890110 0.964591
0.529426 0.902076 0.980464
0.556777 0.902076 0.996093
0.580464 0.897924 1.000000
0.697924 0.776557 0.666667
0.674481 0.772650 0.658852
0.658852 0.756777 0.643223
0.662759 0.752869 0.643223
0.670574 0.768742 0.651038
0.658852 0.756777 0.643223
0.627350 0.741148 0.631258
0.603907 0.741148 0.623443
0.596093 0.733333 0.615629
0.521612 0.717705 0.580464
0.458852 0.694017 0.560684
0.384371 0.682296 0.564591
0.278388 0.666667 0.552869
0.102076 0.635409 0.548962
0.141148 0.654945 0.592186
0.035409 0.705983 0.670574
0.109890 0.760684 0.752869
0.196093 0.800000 0.807814
0.266667 0.819536 0.858852
0.337241 0.851038 0.882295
0.415629 0.878388 0.917705
0.466667 0.897924 0.948962
0.525519 0.917705 0.976557
0.564591 0.921612 0.996093
0.588278 0.921612 1.000000
0.705983 0.796093 0.686203
0.694017 0.784371 0.674481
0.686203 0.784371 0.670574
0.686203 0.792186 0.670574
0.697924 0.796093 0.682296
0.670574 0.784371 0.662759
0.658852 0.780464 0.658852
0.647131 0.776557 0.654945
0.619536 0.772650 0.651038
0.596093 0.748962 0.643223
0.545055 0.729426 0.603907
0.470574 0.725519 0.592186
0.396093 0.705983 0.580464
0.258852 0.686203 0.572650
0.082295 0.654945 0.580464
0.148962 0.682296 0.627350
0.102076 0.756777 0.717705
0.148962 0.788278 0.776557
0.270574 0.835409 0.835409
0.360684 0.858852 0.882295
0.423443 0.886203 0.925519
0.494017 0.913797 0.945055
0.548962 0.933333 0.976557
0.588278 0.937241 1.000000
0.635409 0.948962 0.992186
0.733333 0.831258 0.713797
0.741148 0.819536 0.721612
0.725519 0.815629 0.702076
0.733333 0.811722 0.713797
0.733333 0.823443 0.721612
0.729426 0.823443 0.721612
0.709890 0.811722 0.713797
0.709890 0.811722 0.713797
0.702076 0.803907 0.697924
0.666667 0.800000 0.702076
0.607814 0.784371 0.654945
0.560684 0.772650 0.639316
0.502076 0.764591 0.627350
0.407814 0.741148 0.619536
0.258852 0.717705 0.611722
0.117705 0.702076 0.623443
0.200000 0.737241 0.674481
0.192186 0.796093 0.764591
0.270574 0.843223 0.831258
0.356777 0.878388 0.874481
0.427350 0.894017 0.909890
0.490110 0.913797 0.925519
0.552869 0.941148 0.964591
0.600000 0.948962 0.980464
0.647131 0.960684 0.996093
0.776557 0.854945 0.748962
0.772650 0.851038 0.752869
0.764591 0.851038 0.760684
0.768742 0.847131 0.748962
0.772650 0.858852 0.768742
0.764591 0.858852 0.756777
0.745055 0.847131 0.741148
0.748962 0.843223 0.756777
0.737241 0.847131 0.748962
0.721612 0.831258 0.733333
0.697924 0.823443 0.729426
0.639316 0.815629 0.694017
0.596093 0.819536 0.682296
0.521612 0.800000 0.682296
0.423443 0.780464 0.651038
0.274481 0.764591 0.647131
0.156777 0.752869 0.662759
0.258852 0.776557 0.725519
0.290110 0.843223 0.811722
0.380464 0.882295 0.878388
0.431258 0.909890 0.913797
0.505983 0.929426 0.937241
0.568742 0.952869 0.964591
0.611722 0.956777 0.996093
0.651038 0.968742 0.984371
0.815629 0.882295 0.807814
0.807814 0.886203 0.788278
0.807814 0.882295 0.796093
0.803907 0.878388 0.792186
0.815629 0.886203 0.800000
0.784371 0.878388 0.784371
0.803907 0.878388 0.792186
0.792186 0.890110 0.776557
0.788278 0.874481 0.792186
0.772650 0.874481 0.768742
0.760684 0.870574 0.772650
0.733333 0.866667 0.772650
0.678388 0.854945 0.733333
0.615629 0.847131 0.729426
0.568742 0.839316 0.725519
0.458852 0.823443 0.702076
0.270574 0.807814 0.697924
0.231258 0.811722 0.717705
0.341148 0.831258 0.776557
0.360684 0.886203 0.843223
0.431258 0.913797 0.894017
0.502076 0.945055 0.929426
0.576557 0.960684 0.956777
0.619536 0.976557 0.988278
0.662759 0.968742 1.000000
0.858852 0.937241 0.839316
0.854945 0.929426 0.851038
0.862759 0.921612 0.847131
0.862759 0.921612 0.839316
0.866667 0.925519 0.851038
0.851038 0.917705 0.843223
0.847131 0.921612 0.843223
0.847131 0.921612 0.843223
0.847131 0.917705 0.854945
0.831258 0.921612 0.843223
0.819536 0.909890 0.839316
0.796093 0.909890 0.823443
0.772650 0.913797 0.811722
0.717705 0.897924 0.788278
0.654945 0.886203 0.760684
0.592186 0.878388 0.760684
0.486203 0.866667 0.745055
0.294017 0.839316 0.725519
0.274481 0.847131 0.756777
0.364591 0.866667 0.815629
0.411722 0.921612 0.882295
0.470574 0.945055 0.917705
0.537241 0.960684 0.960684
0.596093 0.968742 0.976557
0.639316 0.984371 1.000000
0.862759 0.937241 0.862759
0.878388 0.937241 0.862759
0.858852 0.933333 0.854945
0.874481 0.929426 0.870574
0.862759 0.937241 0.858852
0.874481 0.929426 0.862759
0.874481 0.933333 0.858852
0.862759 0.933333 0.878388
0.870574 0.937241 0.874481
0.858852 0.933333 0.858852
0.839316 0.929426 0.851038
0.835409 0.933333 0.858852
0.811722 0.925519 0.839316
0.772650 0.925519 0.819536
0.713797 0.921612 0.811722
0.674481 0.913797 0.792186
0.600000 0.897924 0.780464
0.486203 0.894017 0.764591
0.286203 0.866667 0.764591
0.333333 0.886203 0.811722
0.415629 0.909890 0.854945
0.470574 0.945055 0.917705
0.541148 0.976557 0.952869
0.596093 0.988278 0.980464
0.654945 0.992186 0.988278
0.894017 0.948962 0.890110
0.897924 0.948962 0.878388
0.882295 0.948962 0.874481
0.890110 0.948962 0.866667
0.894017 0.948962 0.882295
0.890110 0.948962 0.874481
0.882295 0.948962 0.874481
0.882295 0.948962 0.878388
0.866667 0.956777 0.886203
0.882295 0.948962 0.878388
0.870574 0.952869 0.886203
0.862759 0.945055 0.870574
0.858852 0.948962 0.878388
0.823443 0.956777 0.862759
0.792186 0.945055 0.831258
0.745055 0.941148 0.835409
0.686203 0.933333 0.819536
0.623443 0.941148 0.815629
0.521612 0.925519 0.811722
0.274481 0.913797 0.807814
0.384371 0.929426 0.847131
0.486203 0.941148 0.890110
0.529426 0.984371 0.948962
0.592186 1.000000 0.984371
0.647131 1.000000 1.000000
0.913797 0.964591 0.897924
0.902076 0.960684 0.886203
0.902076 0.960684 0.886203
0.913797 0.964591 0.894017
0.909890 0.964591 0.897924
0.902076 0.956777 0.890110
0.909890 0.964591 0.897924
0.897924 0.964591 0.894017
0.905983 0.960684 0.902076
0.890110 0.960684 0.897924
0.897924 0.968742 0.905983
0.886203 0.972650 0.890110
0.878388 0.976557 0.902076
0.862759 0.972650 0.882295
0.843223 0.968742 0.878388
0.811722 0.968742 0.862759
0.772650 0.968742 0.870574
0.717705 0.972650 0.854945
0.647131 0.964591 0.839316
0.533333 0.960684 0.835409
0.341148 0.964591 0.847131
0.462759 0.968742 0.882295
0.541148 0.980464 0.925519
0.584371 0.996093 0.968742
0.643223 1.000000 1.000000
0.909890 0.976557 0.902076
0.917705 0.968742 0.902076
0.909890 0.976557 0.905983
0.921612 0.972650 0.894017
0.913797 0.968742 0.909890
0.909890 0.976557 0.905983
0.917705 0.972650 0.905983
0.921612 0.976557 0.917705
0.909890 0.976557 0.905983
0.917705 0.984371 0.921612
0.913797 0.980464 0.917705
0.897924 0.988278 0.917705
0.909890 0.976557 0.913797
0.897924 0.988278 0.925519
0.894017 0.984371 0.913797
0.862759 0.988278 0.905983
0.831258 0.980464 0.890110
0.796093 0.984371 0.890110
0.745055 1.000000 0.882295
0.682296 0.996093 0.882295
0.552869 0.996093 0.878388
0.423443 1.000000 0.890110
0.505983 1.000000 0.921612
0.584371 0.992186 0.956777
0.627350 1.000000 0.996093
0.035409 0.003907 0.000000
0.035409 0.003907 0.047131
0.027350 0.011722 0.078388
0.007814 0.015629 0.113797
0.007814 0.031258 0.172650
0.007814 0.039316 0.219536
0.000000 0.070574 0.266667
0.000000 0.097924 0.317705
0.003907 0.113797 0.368742
0.003907 0.148962 0.423443
0.000000 0.180464 0.474481
0.000000 0.203907 0.533333
0.000000 0.231258 0.592186
0.007814 0.258852 0.651038
0.000000 0.278388 0.694017
0.003907 0.302076 0.741148
0.000000 0.329426 0.784371
0.000000 0.352869 0.823443
0.000000 0.376557 0.866667
0.000000 0.396093 0.897924
0.000000 0.415629 0.925519
0.003907 0.439316 0.960684
0.000000 0.462759 0.980464
0.000000 0.478388 1.000000
0.000000 0.502076 1.000000
0.039316 0.027350 0.007814
0.043223 0.035409 0.047131
0.039316 0.039316 0.070574
0.007814 0.058852 0.121612
0.000000 0.070574 0.168742
0.000000 0.094017 0.203907
0.007814 0.105983 0.262759
0.000000 0.129426 0.305983
0.000000 0.145055 0.360684
0.007814 0.168742 0.427350
0.000000 0.192186 0.462759
0.000000 0.219536 0.521612
0.000000 0.247131 0.588278
0.007814 0.266667 0.635409
0.000000 0.294017 0.690110
0.000000 0.317705 0.741148
0.000000 0.337241 0.780464
0.000000 0.364591 0.811722
0.007814 0.384371 0.858852
0.000000 0.419536 0.886203
0.003907 0.423443 0.925519
0.000000 0.454945 0.960684
0.007814 0.466667 0.984371
0.000000 0.497924 1.000000
0.000000 0.517705 0.992186
0.058852 0.054945 0.039316
0.058852 0.066667 0.047131
0.039316 0.074481 0.070574
0.019536 0.094017 0.109890
0.007814 0.109890 0.160684
0.007814 0.129426 0.211722
0.000000 0.145055 0.258852
0.000000 0.152869 0.313797
0.003907 0.176557 0.352869
0.000000 0.192186 0.411722
0.003907 0.223443 0.462759
0.000000 0.243223 0.505983
0.000000 0.270574 0.572650
0.000000 0.290110 0.639316
0.007814 0.317705 0.682296
0.000000 0.337241 0.725519
0.003907 0.360684 0.772650
0.000000 0.376557 0.815629
0.003907 0.400000 0.854945
0.000000 0.423443 0.890110
0.007814 0.439316 0.929426
0.000000 0.462759 0.948962
0.007814 0.486203 0.984371
0.000000 0.509890 1.000000
0.000000 0.521612 0.996093
0.070574 0.090110 0.066667
0.086203 0.097924 0.070574
0.066667 0.105983 0.074481
0.027350 0.125519 0.113797
0.000000 0.145055 0.164591
0.000000 0.176557 0.200000
0.000000 0.184371 0.239316
0.000000 0.196093 0.294017
0.000000 0.219536 0.356777
0.000000 0.239316 0.400000
0.000000 0.254945 0.451038
0.000000 0.270574 0.525519
0.000000 0.297924 0.580464
0.000000 0.325519 0.627350
0.003907 0.341148 0.682296
0.000000 0.372650 0.733333
0.000000 0.388278 0.764591
0.000000 0.396093 0.803907
0.003907 0.427350 0.851038
0.003907 0.451038 0.897924
0.000000 0.466667 0.929426
0.007814 0.478388 0.960684
0.003907 0.505983 0.996093
0.000000 0.525519 1.000000
0.000000 0.545055 0.996093
0.105983 0.133333 0.105983
0.105983 0.133333 0.105983
0.097924 0.145055 0.105983
0.070574 0.148962 0.113797
0.027350 0.160684 0.156777
0.000000 0.192186 0.196093
0.000000 0.219536 0.243223
0.007814 0.235409 0.290110
0.000000 0.258852 0.345055
0.000000 0.278388 0.396093
0.007814 0.294017 0.462759
0.000000 0.317705 0.513797
0.007814 0.337241 0.572650
0.007814 0.356777 0.623443
0.000000 0.376557 0.674481
0.000000 0.400000 0.729426
0.000000 0.419536 0.772650
0.000000 0.439316 0.815629
0.000000 0.462759 0.854945
0.000000 0.474481 0.902076
0.000000 0.497924 0.929426
0.000000 0.509890 0.956777
0.000000 0.533333 0.980464
0.000000 0.552869 0.992186
0.000000 0.568742 1.000000
0.145055 0.184371 0.141148
0.145055 0.184371 0.141148
0.148962 0.188278 0.145055
0.117705 0.196093 0.148962
0.070574 0.200000 0.156777
0.023443 0.215629 0.203907
0.000000 0.239316 0.243223
0.000000 0.278388 0.302076
0.003907 0.313797 0.372650
0.003907 0.325519 0.407814
0.000000 0.337241 0.466667
0.003907 0.364591 0.525519
0.011722 0.388278 0.576557
0.000000 0.407814 0.627350
0.000000 0.427350 0.690110
0.003907 0.443223 0.733333
0.000000 0.466667 0.776557
0.003907 0.478388 0.827350
0.000000 0.497924 0.858852
0.003907 0.505983 0.894017
0.000000 0.521612 0.917705
0.000000 0.545055 0.956777
0.000000 0.556777 0.980464
0.000000 0.576557 0.992186
0.000000 0.588278 1.000000
0.180464 0.231258 0.164591
0.180464 0.231258 0.164591
0.180464 0.227350 0.172650
0.160684 0.231258 0.184371
0.141148 0.235409 0.180464
0.070574 0.227350 0.192186
0.015629 0.247131 0.223443
0.000000 0.274481 0.282295
0.007814 0.321612 0.356777
0.000000 0.364591 0.411722
0.000000 0.384371 0.474481
0.007814 0.403907 0.513797
0.000000 0.431258 0.568742
0.003907 0.443223 0.623443
0.007814 0.462759 0.686203
0.011722 0.478388 0.737241
0.000000 0.497924 0.776557
0.000000 0.517705 0.811722
0.000000 0.533333 0.870574
0.000000 0.548962 0.894017
0.003907 0.552869 0.925519
0.000000 0.580464 0.956777
0.000000 0.600000 0.976557
0.000000 0.611722 0.992186
0.000000 0.619536 1.000000
0.227350 0.282295 0.215629
0.227350 0.270574 0.207814
0.211722 0.274481 0.223443
0.203907 0.266667 0.215629
0.188278 0.274481 0.223443
0.137241 0.270574 0.203907
0.070574 0.266667 0.219536
0.000000 0.297924 0.274481
0.000000 0.337241 0.341148
0.000000 0.380464 0.407814
0.011722 0.411722 0.470574
0.000000 0.451038 0.533333
0.000000 0.478388 0.600000
0.000000 0.490110 0.639316
0.000000 0.513797 0.682296
0.000000 0.529426 0.717705
0.000000 0.548962 0.776557
0.000000 0.560684 0.815629
0.000000 0.572650 0.858852
0.000000 0.596093 0.894017
0.003907 0.600000 0.925519
0.000000 0.623443 0.952869
0.000000 0.639316 0.988278
0.000000 0.651038 1.000000
0.000000 0.666667 1.000000
0.270574 0.325519 0.235409
0.270574 0.313797 0.247131
0.262759 0.317705 0.251038
0.251038 0.317705 0.243223
0.239316 0.329426 0.266667
0.196093 0.309890 0.239316
0.141148 0.309890 0.243223
0.070574 0.317705 0.282295
0.011722 0.329426 0.333333
0.000000 0.392186 0.388278
0.011722 0.423443 0.447131
0.000000 0.474481 0.509890
0.003907 0.525519 0.600000
0.007814 0.541148 0.635409
0.000000 0.556777 0.682296
0.000000 0.568742 0.745055
0.007814 0.588278 0.768742
0.000000 0.611722 0.811722
0.003907 0.627350 0.854945
0.003907 0.635409 0.902076
0.000000 0.651038 0.925519
0.000000 0.654945 0.960684
0.000000 0.678388 0.988278
0.000000 0.694017 1.000000
0.000000 0.705983 1.000000
0.317705 0.388278 0.294017
0.321612 0.392186 0.305983
0.309890 0.376557 0.302076
0.297924 0.372650 0.294017
0.290110 0.376557 0.286203
0.262759 0.368742 0.294017
0.215629 0.364591 0.274481
0.148962 0.348962 0.282295
0.086203 0.360684 0.329426
0.011722 0.388278 0.372650
0.003907 0.435409 0.439316
0.003907 0.486203 0.505983
0.000000 0.537241 0.580464
0.000000 0.580464 0.635409
0.000000 0.611722 0.709890
0.007814 0.623443 0.760684
0.000000 0.631258 0.780464
0.003907 0.654945 0.819536
0.000000 0.670574 0.858852
0.082295 0.694017 0.894017
0.094017 0.702076 0.921612
0.145055 0.709890 0.956777
0.207814 0.725519 0.976557
0.266667 0.733333 1.000000
0.278388 0.737241 1.000000
0.400000 0.490110 0.376557
0.392186 0.482295 0.372650
0.376557 0.474481 0.360684
0.368742 0.462759 0.368742
0.376557 0.478388 0.380464
0.348962 0.458852 0.368742
0.294017 0.443223 0.345055
0.239316 0.427350 0.333333
0.156777 0.427350 0.352869
0.094017 0.423443 0.372650
