src-tauri/resources/luts/自然奶油质感.3dl
# 25x25x25 3DL 3D LUT
0 128 256 384 512 639 767 895 1023
16 0 0
0 161 514
0 385 1044
0 674 1718
0 1012 2409
0 1301 3035
0 1558 3533
16 1799 3934
16 2072 4095
289 369 257
0 514 434
0 771 964
32 980 1686
32 1220 2361
0 1510 3019
32 1766 3517
0 1975 3886
32 2232 4063
771 899 658
626 915 723
16 1012 931
0 1510 1702
0 1799 2393
0 1991 2987
16 2184 3501
0 2361 3902
32 2585 4063
1285 1574 1188
1156 1542 1156
835 1461 1156
32 1574 1542
16 2200 2393
0 2602 3051
16 2778 3549
626 2923 3886
1156 3067 4095
2056 2441 1895
1895 2329 1799
1622 2264 1718
947 2072 1654
0 2264 2168
0 2826 2955
610 3276 3533
1638 3372 3950
2184 3469 4063
2858 3180 2730
2714 3083 2634
2569 3035 2585
2136 2939 2377
1140 2730 2264
145 2891 2746
1092 3356 3517
1911 3677 3886
2409 3774 4095
3180 3501 3067
3148 3469 3067
3051 3469 3035
2955 3404 3003
2441 3356 2794
1124 3131 2650
1188 3453 3324
2072 3806 3838
2666 3967 4031
3533 3838 3533
3581 3806 3565
3581 3822 3517
3517 3822 3517
3324 3790 3437
2762 3742 3244
1172 3549 3131
1927 3870 3758
2682 4063 4047
3726 3999 3694
3774 3983 3661
3758 3983 3710
3758 4031 3774
3726 3999 3742
3533 4047 3710
3051 4095 3613
1734 4095 3645
2569 4095 4079
450 32 16
466 48 514
80 128 1012
32 353 1734
0 803 2393
0 1108 3019
0 1445 3533
16 1734 3950
16 2023 4079
482 434 161
482 450 498
161 610 996
0 851 1590
32 1140 2345
0 1397 3003
16 1686 3501
0 1943 3886
0 2200 4095
835 931 707
867 947 835
466 980 964
16 1413 1686
0 1686 2361
0 1943 3019
0 2152 3517
0 2312 3902
0 2553 4047
1413 1606 1285
1317 1542 1269
1028 1493 1172
353 1622 1574
16 2216 2345
32 2505 3083
112 2714 3501
691 2858 3886
1124 3003 4095
2168 2505 2007
2039 2377 1879
1799 2296 1799
1156 2120 1718
177 2280 2184
0 2794 2907
980 3244 3565
1750 3356 3902
2152 3469 4095
2875 3196 2762
2746 3115 2698
2682 3051 2634
2312 2939 2505
1349 2730 2296
594 2907 2762
1253 3388 3469
2039 3677 3918
2457 3758 4095
3276 3533 3115
3164 3517 3180
3131 3501 3083
3051 3453 3099
2553 3356 2891
1301 3115 2666
1285 3437 3324
2168 3806 3870
2698 3950 4095
3645 3822 3565
3581 3854 3597
3565 3854 3501
3485 3838 3501
3372 3822 3469
2858 3774 3260
1301 3597 3148
1959 3886 3742
2682 4063 4079
3790 3967 3710
3742 3950 3677
3790 3983 3758
3742 4015 3726
3742 4015 3758
3565 4031 3677
3083 4063 3565
1734 4095 3677
2553 4095 4079
980 80 64
947 48 482
931 80 980
771 209 1558
16 418 2280
48 723 2939
16 1140 3517
0 1542 3902
0 1879 4095
915 530 145
883 498 498
915 482 980
723 594 1542
32 787 2232
0 1076 2875
0 1429 3453
32 1766 3918
0 2072 4095
1108 931 450
1060 931 723
980 947 964
787 1172 1590
145 1413 2312
0 1670 2971
0 1927 3485
0 2200 3902
32 2425 4079
1542 1622 1253
1493 1558 1285
1429 1542 1413
947 1574 1526
434 2136 2361
626 2361 2987
723 2585 3501
931 2762 3886
1269 2939 4079
2312 2521 2232
2216 2425 2136
2088 2361 2056
1574 2184 1815
980 2248 2152
803 2778 2907
1445 3148 3565
1959 3308 3854
2184 3388 4063
2987 3196 2875
2891 3115 2746
2794 3083 2730
2521 3003 2618
1718 2714 2312
1124 2907 2762
1606 3356 3469
2264 3677 3902
2602 3742 4095
3356 3533 3260
3292 3501 3212
3276 3517 3212
3148 3501 3164
2778 3404 2939
1702 3148 2730
1526 3404 3276
2280 3774 3854
2826 3950 4095
3645 3822 3565
3645 3822 3597
3629 3838 3549
3613 3838 3629
3485 3822 3517
3019 3758 3340
1702 3613 3131
2136 3902 3726
2778 4063 4079
3790 3967 3742
3806 3983 3758
3806 3983 3758
3838 4015 3790
3758 4031 3774
3661 4031 3774
3260 4063 3661
1815 4095 3629
2682 4095 4079
1445 161 48
1413 96 466
1397 112 964
1445 128 1477
1397 289 2152
947 610 2842
0 899 3421
0 1188 3870
16 1638 4095
1445 578 128
1349 546 530
1413 514 947
1381 530 1429
1365 658 2088
867 867 2858
16 1156 3469
0 1413 3854
0 1879 4095
1477 964 353
1413 996 626
1413 996 1012
1461 996 1493
1429 1140 2136
899 1317 2875
32 1558 3453
16 1927 3854
0 2248 4095
1783 1542 851
1654 1477 996
1590 1493 1269
1477 1445 1461
1397 1702 2184
1204 2007 2858
1172 2296 3453
1220 2585 3886
1493 2826 4095
2361 2473 1766
2296 2409 1863
2280 2361 2039
2152 2264 2136
1493 2152 2088
1590 2746 2939
1959 3003 3517
2152 3180 3886
2216 3292 4095
3035 3164 2778
3003 3131 2794
3035 3164 2923
2842 3035 2810
2264 2794 2457
1654 2810 2746
2007 3340 3469
2489 3629 3918
2778 3710 4095
3437 3565 3324
3421 3549 3308
3404 3533 3324
3324 3517 3292
3115 3404 3148
2168 3196 2778
1895 3388 3260
2553 3806 3870
3019 3934 4095
3758 3854 3694
3726 3822 3629
3710 3838 3629
3694 3870 3645
3613 3838 3629
3244 3774 3437
2280 3629 3212
2393 3854 3710
2987 4031 4095
3854 3983 3806
3854 3983 3774
3870 3999 3790
3870 3983 3854
3838 3999 3854
3774 4031 3822
3437 4063 3726
2264 4095 3677
2875 4095 4095
2023 241 96
1927 209 530
1959 177 1028
1943 225 1477
1959 225 1975
1927 418 2634
1670 787 3292
1076 1108 3838
0 1526 4031
1943 642 209
1911 610 562
1879 546 996
1879 578 1477
1991 578 1959
1959 707 2618
1686 1012 3356
1172 1333 3854
128 1702 4095
2007 1140 385
1975 1108 691
1943 1076 1044
1959 1012 1493
1959 1028 1959
1943 1156 2618
1734 1429 3324
1269 1718 3854
899 2072 4095
2136 1461 691
2023 1461 819
1991 1493 1156
1959 1477 1510
1927 1461 1911
1959 1702 2698
1799 1991 3372
1606 2280 3854
1734 2618 4095
2585 2232 1301
2489 2200 1397
2377 2168 1622
2248 2136 1879
2023 2023 2023
2039 2312 2730
2136 2666 3388
2280 2971 3854
2377 3099 4095
3067 3115 2425
3051 3051 2441
2987 3051 2618
3003 3035 2826
2826 2907 2810
2120 2698 2634
2505 3276 3469
2794 3517 3854
2907 3613 4079
3437 3517 3164
3388 3549 3164
3388 3501 3244
3453 3565 3437
3404 3501 3340
2794 3292 3003
2345 3356 3228
2923 3806 3886
3260 3934 4095
3726 3854 3645
3742 3870 3661
3774 3854 3742
3774 3854 3742
3726 3886 3710
3533 3822 3597
2842 3661 3356
2682 3838 3774
3244 4047 4063
3854 3983 3806
3918 3967 3822
3886 4015 3838
3918 3999 3886
3902 4031 3854
3854 4031 3902
3677 4063 3806
2794 4095 3742
3067 4095 4079
2521 369 193
2489 369 594
2457 241 1028
2521 257 1526
2489 241 1959
2537 273 2537
2489 530 3148
2296 980 3758
1911 1493 4079
2489 707 257
2441 691 610
2425 594 1012
2425 578 1493
2457 594 1959
2505 626 2505
2553 819 3164
2345 1220 3774
2023 1654 4095
2569 1237 434
2489 1204 674
2473 1124 1092
2457 1028 1510
2473 1044 1975
2505 1060 2505
2505 1220 3164
2296 1622 3774
2136 1975 4095
2585 1654 642
2537 1686 883
2457 1670 1156
2425 1558 1526
2473 1510 1959
2505 1526 2489
2521 1783 3228
2393 2152 3774
2345 2489 4095
2810 1943 980
2730 1927 1108
2666 1991 1381
2602 2088 1750
2505 2039 2072
2521 2023 2521
2553 2312 3228
2585 2650 3790
2537 2923 4095
3228 2891 1847
3180 2842 1927
3083 2858 2104
3019 2842 2393
2826 2778 2505
2537 2537 2537
2682 2955 3276
2875 3228 3822
2955 3421 4095
3501 3517 2875
3437 3469 2875
3485 3469 3019
3453 3485 3148
3469 3501 3324
3372 3453 3356
2778 3276 3196
3260 3790 3902
3421 3902 4079
3758 3838 3469
3774 3822 3485
3726 3838 3549
3774 3870 3677
3822 3902 3806
3790 3902 3790
3340 3774 3533
3051 3806 3710
3501 4031 4095
3902 3967 3742
3886 3983 3790
3902 3999 3838
3902 3983 3886
3967 3999 3918
3967 4047 3950
3870 4047 3918
3356 4095 3822
3356 4095 4095
3131 530 321
3035 514 658
3019 289 1012
3051 305 1558
3035 305 2023
2987 305 2537
3083 337 3019
3083 707 3661
2858 1349 4095
3051 787 353
3035 803 691
2987 674 1076
2971 610 1493
3003 626 2039
3067 626 2569
3099 691 3115
3115 931 3661
2891 1542 4095
3148 1317 514
3035 1253 771
3003 1188 1124
2971 1060 1542
2987 1076 2007
3003 1076 2521
3067 1092 3083
3083 1349 3677
2875 1847 4095
3051 1799 642
3115 1815 915
3099 1766 1285
3019 1654 1606
3019 1574 2023
3051 1590 2569
3099 1638 3131
3099 1911 3726
2955 2345 4095
3244 2152 1012
3180 2152 1124
3099 2200 1445
3051 2264 1783
3035 2104 2088
3035 2056 2553
3067 2088 3051
3099 2409 3694
3035 2746 4063
3404 2457 1365
3404 2441 1445
3324 2489 1686
3276 2585 2039
3180 2682 2361
3067 2618 2602
3099 2618 3067
3148 2955 3726
3164 3212 4063
3661 3308 2393
3661 3340 2489
3597 3372 2650
3565 3324 2794
3501 3324 2971
3404 3308 3115
3115 3115 3148
3356 3549 3806
3437 3694 4095
3822 3806 3308
3822 3822 3276
3822 3806 3356
3854 3822 3485
3822 3870 3597
3854 3902 3790
3838 3870 3822
3308 3774 3694
3758 4047 4079
3934 3983 3645
3934 3999 3726
3934 3999 3758
3950 4015 3790
3983 4031 3886
4047 4047 4015
4063 4095 4079
3822 4095 3967
3629 4095 4063
3661 642 450
3597 626 723
3565 482 1108
3597 353 1574
3549 337 2056
3581 337 2553
3597 369 3067
3597 610 3613
3613 1060 4079
3597 899 482
3629 931 755
3597 803 1172
3549 674 1574
3549 658 2056
3629 691 2553
3613 723 3115
3629 899 3613
3597 1285 4095
3661 1381 642
3581 1333 803
3581 1285 1220
3517 1108 1574
3549 1108 2056
3581 1092 2553
3597 1092 3067
3613 1269 3597
3581 1606 4063
3613 1863 755
3661 1879 996
3597 1847 1349
3597 1734 1734
3581 1606 2104
3629 1670 2650
3613 1686 3115
3645 1766 3645
3597 2072 4095
3677 2377 1060
3629 2377 1188
3613 2377 1510
3549 2312 1831
3565 2200 2152
3597 2104 2569
3565 2120 3099
3597 2216 3613
3581 2521 4079
3806 2634 1397
3742 2634 1526
3710 2666 1766
3645 2794 2152
3581 2842 2457
3533 2714 2698
3565 2585 3083
3597 2666 3597
3597 3003 4095
3854 2891 1734
3886 2955 1943
3886 3003 2136
3790 3067 2409
3742 3148 2682
3645 3276 2987
3613 3196 3180
3645 3180 3629
3661 3501 4095
3999 3710 2939
3983 3694 2955
3950 3710 3051
3950 3726 3164
3918 3726 3308
3886 3774 3469
3854 3790 3645
3661 3629 3645
3838 3934 4095
4015 3999 3517
4063 3999 3565
4047 4015 3645
4031 4015 3694
4063 3999 3806
4031 4031 3902
4079 4063 4031
4079 4063 4031
3870 4095 4095
4095 851 626
4095 819 851
4063 739 1188
4079 530 1606
4095 514 2072
4095 482 2602
4095 562 3051
4095 658 3581
4095 1028 4095
4095 1028 658
4063 1060 915
4047 980 1237
4047 723 1558
4095 739 2088
4095 819 2634
4095 819 3131
4095 931 3629
4095 1237 4079
4079 1477 739
4095 1413 947
4095 1397 1285
4095 1253 1606
4063 1188 2072
4063 1172 2634
4079 1237 3099
4095 1285 3613
4095 1542 4095
4079 1895 899
4079 1975 1140
4095 1927 1461
4079 1863 1815
4079 1686 2152
4095 1766 2682
4095 1783 3148
4095 1815 3677
4095 2007 4095
4079 2473 1220
4095 2441 1365
4063 2425 1638
4079 2409 1943
4063 2329 2296
4063 2152 2602
4079 2232 3115
4095 2216 3565
4095 2393 4063
4063 2842 1638
4095 2842 1686
4063 2923 1927
3999 2987 2168
4031 2955 2537
3999 2794 2746
4015 2682 3131
4047 2682 3597
4079 2842 4095
4095 3035 1911
4063 3083 2007
4095 3131 2248
4079 3228 2553
4031 3292 2762
4063 3388 3003
4079 3308 3308
4047 3196 3645
4095 3292 4079
4095 3437 2505
4063 3453 2457
4095 3404 2618
4095 3437 2794
4095 3517 3019
4095 3597 3260
4079 3726 3517
4095 3677 3661
4079 3694 4095
4095 3983 3356
4063 3967 3388
4095 3967 3437
4095 4015 3533
4095 3999 3613
4095 4031 3774
4095 4047 3870
4079 4095 4015
4095 4063 4095
