src-tauri/resources/luts/自然莱卡质感.cube
# Converted from .3dl using Python
LUT_3D_SIZE 5
DOMAIN_MIN 0.0 0.0 0.0
DOMAIN_MAX 1.0 1.0 1.0
0.071305 0.067343 0.059421
0.095321 0.119336 0.132706
0.142610 0.196336 0.229760
0.183461 0.264669 0.308245
0.206239 0.313196 0.356771
0.131716 0.155732 0.059916
0.143352 0.191632 0.196583
0.203763 0.295618 0.334241
0.262689 0.387967 0.430552
0.306264 0.451845 0.496410
0.233721 0.312701 0.065858
0.230503 0.323595 0.218618
0.312949 0.443427 0.477346
0.405051 0.556078 0.585789
0.475118 0.622184 0.650161
0.375340 0.509037 0.077990
0.353800 0.487002 0.188413
0.397871 0.548155 0.491211
0.550631 0.679871 0.692993
0.653875 0.747957 0.764793
0.531320 0.673929 0.095073
0.500124 0.641991 0.172320
0.502104 0.641000 0.448626
0.644219 0.739540 0.728893
0.769002 0.816539 0.840307
0.306264 0.081456 0.082941
0.347363 0.109928 0.137658
0.372122 0.231245 0.294380
0.381035 0.361971 0.425353
0.393167 0.449616 0.504085
0.242387 0.234464 0.060906
0.252785 0.236692 0.219856
0.294627 0.344145 0.399109
0.361228 0.471404 0.513493
0.413469 0.544937 0.583808
0.346868 0.446150 0.071552
0.333746 0.419163 0.221837
0.375340 0.492449 0.516960
0.477841 0.609804 0.637534
0.552860 0.677148 0.702154
0.500619 0.630849 0.090369
0.486754 0.600891 0.177767
0.488487 0.615004 0.505571
0.616737 0.720971 0.731864
0.708839 0.782867 0.801931
0.650656 0.766031 0.109433
0.634068 0.741768 0.155732
0.605348 0.712800 0.425600
0.700421 0.775192 0.750186
0.800198 0.837336 0.858876
0.665264 0.119336 0.113642
0.703887 0.133696 0.198069
0.784353 0.201287 0.318148
0.794256 0.379302 0.515474
0.762813 0.526120 0.636296
0.548155 0.266650 0.067591
0.548403 0.255756 0.238921
0.600891 0.327061 0.445655
0.670711 0.528101 0.618470
0.697945 0.643724 0.703144
0.523644 0.598415 0.081703
0.508047 0.539738 0.241892
0.521416 0.537262 0.538500
0.592226 0.675910 0.704877
0.660064 0.746719 0.772221
0.682100 0.784600 0.125774
0.668977 0.756375 0.214657
0.663283 0.708591 0.491953
0.712057 0.776182 0.780391
0.784848 0.831394 0.853677
0.784353 0.870760 0.156227
0.794008 0.866056 0.204258
0.772964 0.807130 0.385987
0.782124 0.826690 0.772716
0.854419 0.876702 0.899975
0.823719 0.146323 0.162169
0.859619 0.173558 0.260956
0.919287 0.254766 0.424115
0.957910 0.371874 0.561525
0.958901 0.509780 0.678138
0.794504 0.254766 0.138401
0.806883 0.258480 0.283981
0.849715 0.328794 0.488982
0.915821 0.495667 0.659817
0.940827 0.635306 0.755385
0.765288 0.601634 0.124041
0.775935 0.529339 0.269621
0.792523 0.506313 0.533795
0.850953 0.639515 0.739787
0.905917 0.764298 0.833127
0.822233 0.872988 0.184452
0.818024 0.831641 0.272840
0.816291 0.790542 0.514484
0.842288 0.807873 0.796979
0.893043 0.882149 0.912602
0.889081 0.950730 0.233969
0.901708 0.956177 0.295370
0.912602 0.948502 0.465709
0.913345 0.912602 0.791285
0.927210 0.933399 0.957415
0.872246 0.158455 0.198316
0.920525 0.210201 0.314187
0.966576 0.299084 0.481802
0.987126 0.407527 0.610547
0.991087 0.487497 0.681852
0.899480 0.243129 0.233226
0.938599 0.264174 0.349839
0.975241 0.353305 0.528596
0.991830 0.500124 0.685318
0.998762 0.616242 0.760832
0.901461 0.553602 0.215647
0.953206 0.495420 0.344392
0.988363 0.474622 0.554840
0.994801 0.593711 0.745482
0.999752 0.739044 0.839317
0.908641 0.887596 0.237683
0.950235 0.833375 0.315920
0.982174 0.779896 0.526368
0.994305 0.779648 0.789057
0.997524 0.867541 0.925724
0.927705 0.979203 0.285467
0.944293 0.984402 0.345135
0.964843 0.984155 0.510522
0.981679 0.977717 0.794008
0.987126 0.975241 0.991087
