src-tauri/resources/luts/自然莱卡质感.3dl
# Created by: Adobe Photoshop Export Color Lookup Plugin
# LUT by SparkleStock. Enhanced with VOXCOLOR algorithms.
0 64 128 192 256 320 384 448 512 576 640 704 768 832 896 960 1023
288 272 240
302 315 303
317 358 366
341 411 440
385 482 536
429 554 631
477 632 729
526 712 829
576 793 928
621 867 1014
665 941 1099
706 1010 1178
741 1069 1245
776 1127 1311
799 1176 1360
816 1221 1401
833 1265 1441
340 342 240
348 377 326
356 412 412
377 461 502
422 537 601
468 614 700
519 698 803
571 786 910
623 874 1016
672 955 1107
720 1035 1199
765 1111 1283
804 1176 1354
843 1241 1425
872 1295 1480
895 1344 1527
918 1393 1574
392 412 240
394 439 349
395 466 458
412 511 565
460 592 666
508 673 768
560 764 877
615 859 991
671 954 1104
723 1042 1201
775 1130 1298
824 1213 1388
868 1284 1464
911 1355 1540
945 1414 1600
974 1468 1653
1003 1521 1707
453 501 241
450 520 366
446 539 491
460 580 613
509 665 731
557 750 849
613 847 969
673 951 1089
732 1054 1210
789 1149 1312
846 1244 1414
899 1332 1508
948 1408 1587
996 1485 1666
1035 1548 1731
1069 1604 1789
1104 1661 1848
532 629 242
526 640 369
520 652 496
532 689 634
579 774 794
627 860 955
688 964 1094
755 1079 1222
823 1194 1350
885 1294 1456
948 1395 1562
1008 1488 1659
1061 1567 1739
1116 1646 1818
1159 1711 1885
1198 1768 1945
1237 1825 2005
611 756 244
603 761 373
594 766 501
604 798 655
650 884 858
696 970 1061
762 1082 1219
838 1207 1355
914 1333 1491
982 1439 1601
1050 1545 1710
1115 1644 1810
1175 1726 1890
1235 1808 1970
1284 1873 2039
1327 1931 2101
1370 1989 2163
714 914 250
703 913 371
692 912 492
699 937 650
738 1017 880
778 1096 1110
849 1212 1299
937 1347 1467
1024 1482 1636
1101 1595 1749
1178 1709 1863
1251 1812 1966
1319 1895 2047
1386 1979 2128
1441 2045 2195
1491 2103 2257
1541 2161 2318
829 1089 258
816 1082 367
802 1075 477
804 1093 633
835 1162 881
865 1231 1130
943 1349 1355
1043 1493 1569
1144 1637 1782
1231 1757 1901
1318 1878 2019
1401 1986 2126
1477 2071 2206
1553 2155 2287
1616 2222 2354
1673 2279 2413
1730 2337 2472
944 1263 266
928 1250 364
912 1237 461
909 1248 615
931 1307 883
953 1366 1151
1036 1487 1412
1150 1639 1670
1264 1791 1928
1361 1919 2052
1458 2047 2176
1551 2161 2285
1636 2246 2366
1720 2331 2447
1791 2398 2512
1855 2456 2569
1919 2513 2626
1083 1459 278
1064 1441 364
1045 1423 450
1037 1425 594
1048 1468 852
1060 1511 1109
1135 1619 1388
1242 1760 1678
1349 1901 1967
1472 2040 2123
1594 2180 2279
1708 2302 2411
1802 2390 2495
1896 2479 2578
1975 2545 2643
2045 2601 2699
2115 2656 2755
1222 1655 289
1200 1632 365
1178 1609 440
1164 1602 573
1165 1629 820
1167 1656 1068
1234 1751 1364
1334 1881 1685
1433 2010 2007
1582 2161 2195
1731 2312 2383
1864 2444 2537
1968 2535 2624
2073 2626 2710
2158 2692 2775
2235 2746 2829
2312 2800 2883
1365 1854 302
1341 1826 367
1317 1798 432
1298 1783 554
1290 1794 789
1282 1805 1025
1339 1886 1332
1429 2001 1677
1519 2116 2021
1685 2272 2241
1850 2428 2461
1999 2564 2638
2116 2660 2732
2232 2755 2825
2327 2822 2892
2410 2874 2946
2493 2927 2999
1516 2056 315
1491 2025 373
1466 1993 431
1444 1971 543
1429 1967 761
1414 1964 979
1458 2025 1285
1533 2120 1635
1607 2214 1984
1771 2362 2235
1935 2511 2486
2090 2644 2690
2224 2746 2799
2359 2849 2908
2463 2918 2981
2552 2969 3035
2641 3021 3089
1667 2259 329
1641 2224 379
1615 2188 430
1590 2159 531
1568 2140 732
1545 2122 933
1577 2165 1237
1636 2239 1593
1695 2312 1948
1858 2453 2230
2021 2593 2512
2181 2723 2741
2333 2833 2866
2486 2942 2991
2600 3013 3069
2695 3064 3125
2790 3116 3180
1825 2426 346
1798 2391 391
1772 2356 437
1744 2324 530
1716 2297 716
1687 2270 902
1708 2297 1199
1754 2351 1552
1800 2406 1905
1955 2533 2208
2110 2660 2511
2267 2782 2760
2428 2893 2902
2588 3004 3044
2708 3077 3133
2807 3131 3194
2906 3185 3256
1985 2574 365
1959 2542 406
1932 2511 448
1902 2479 533
1868 2445 706
1833 2412 878
1845 2425 1166
1879 2461 1512
1914 2497 1858
2058 2609 2178
2201 2720 2497
2351 2830 2763
2515 2940 2923
2678 3049 3083
2801 3125 3184
2904 3183 3254
3006 3241 3325
2146 2722 384
2119 2693 421
2092 2665 459
2060 2633 537
2020 2593 696
1980 2554 854
1982 2553 1133
2005 2571 1473
2028 2589 1812
2160 2684 2148
2292 2780 2483
2435 2879 2766
2602 2987 2944
2769 3095 3122
2894 3173 3234
3000 3235 3314
3106 3298 3394
456 276 264
483 306 310
510 337 355
537 386 424
563 472 538
588 558 652
625 653 769
666 752 887
708 851 1005
748 939 1102
788 1027 1200
825 1110 1289
859 1179 1362
892 1248 1435
916 1305 1490
937 1355 1537
957 1406 1583
465 372 256
484 394 334
502 417 412
525 461 502
556 546 615
586 631 729
628 727 847
676 829 968
723 931 1089
770 1025 1190
817 1119 1291
862 1206 1384
902 1280 1460
943 1354 1536
973 1413 1595
999 1465 1645
1025 1517 1695
475 467 249
485 483 359
495 498 469
513 536 580
549 619 693
584 703 806
632 801 926
685 906 1049
738 1012 1173
793 1111 1277
847 1210 1381
899 1302 1478
946 1381 1558
994 1459 1637
1030 1521 1700
1062 1574 1754
1093 1628 1808
510 576 244
512 584 375
515 592 506
530 624 635
568 707 763
606 789 891
659 890 1018
718 1000 1146
778 1110 1274
839 1214 1381
901 1318 1488
959 1415 1587
1013 1497 1670
1066 1579 1752
1109 1643 1817
1146 1699 1875
1183 1754 1932
595 712 245
594 712 374
593 713 503
604 741 646
640 823 819
675 904 992
732 1010 1139
800 1128 1274
867 1245 1408
934 1353 1518
1001 1461 1628
1066 1561 1728
1124 1645 1810
1183 1729 1892
1231 1795 1960
1273 1852 2020
1316 1909 2081
680 847 246
675 841 373
670 835 500
677 858 657
711 938 875
744 1019 1093
806 1130 1260
881 1255 1401
957 1380 1542
1030 1492 1655
1102 1604 1767
1172 1707 1869
1236 1793 1951
1300 1878 2033
1353 1946 2103
1401 2005 2166
1449 2064 2229
790 1012 253
781 1001 370
773 990 487
776 1006 647
803 1079 892
830 1151 1136
896 1264 1334
982 1396 1508
1068 1529 1683
1150 1646 1799
1231 1763 1916
1309 1869 2021
1380 1956 2103
1451 2042 2184
1510 2110 2253
1564 2170 2315
1618 2229 2378
911 1193 262
900 1177 366
890 1161 470
888 1171 626
906 1231 888
923 1292 1150
994 1405 1384
1092 1544 1605
1190 1683 1826
1282 1806 1948
1375 1929 2070
1462 2040 2178
1541 2127 2259
1620 2213 2340
1686 2281 2407
1745 2339 2467
1804 2398 2527
1032 1374 272
1019 1353 362
1006 1333 453
1000 1335 606
1009 1384 884
1017 1432 1163
1093 1546 1434
1203 1692 1702
1312 1838 1970
1415 1967 2096
1518 2096 2223
1615 2211 2335
1702 2298 2415
1789 2385 2496
1861 2452 2561
1926 2509 2618
1991 2567 2676
1176 1572 285
1161 1548 363
1147 1525 442
1137 1520 583
1136 1552 848
1135 1585 1114
1202 1685 1403
1303 1818 1704
1404 1951 2005
1530 2089 2164
1656 2227 2324
1771 2349 2458
1867 2438 2541
1963 2527 2624
2042 2594 2689
2112 2649 2744
2182 2704 2800
1319 1770 297
1303 1743 364
1288 1717 431
1274 1705 560
1263 1721 812
1252 1737 1065
1311 1823 1372
1404 1944 1706
1496 2065 2040
1645 2212 2232
1793 2359 2425
1927 2487 2581
2032 2578 2667
2138 2669 2753
2223 2735 2817
2298 2789 2871
2373 2842 2924
1467 1968 310
1450 1939 367
1434 1910 424
1416 1892 541
1397 1893 778
1378 1894 1015
1426 1964 1332
1508 2069 1690
1590 2174 2048
1752 2324 2273
1914 2474 2498
2061 2606 2679
2178 2700 2772
2295 2794 2865
2388 2860 2931
2468 2912 2983
2548 2964 3036
1625 2168 324
1607 2137 373
1589 2106 423
1568 2082 528
1543 2070 745
1518 2057 962
1553 2109 1277
1619 2192 1640
1685 2276 2002
1843 2416 2260
2002 2557 2518
2152 2684 2726
2285 2784 2835
2417 2884 2944
2519 2951 3016
2605 3003 3069
2691 3054 3123
1783 2367 337
1763 2334 380
1744 2302 422
1720 2272 516
1689 2246 713
1658 2221 910
1681 2254 1221
1730 2316 1589
1780 2378 1957
1935 2509 2247
2090 2640 2538
2242 2763 2773
2391 2868 2898
2539 2974 3022
2650 3043 3100
2742 3093 3155
2833 3143 3211
1943 2529 355
1922 2497 392
1901 2466 429
1875 2434 514
1839 2402 694
1804 2369 874
1816 2387 1177
1853 2430 1541
1890 2473 1905
2035 2591 2218
2180 2708 2532
2329 2821 2788
2483 2927 2930
2638 3033 3072
2753 3103 3160
2848 3156 3221
2944 3209 3281
2104 2672 374
2081 2642 407
2059 2613 440
2031 2582 516
1992 2546 681
1952 2509 846
1956 2515 1138
1982 2540 1495
2007 2566 1851
2140 2667 2182
2273 2768 2513
2413 2870 2787
2569 2974 2948
2725 3077 3108
2842 3149 3207
2940 3205 3276
3038 3262 3344
2265 2815 393
2241 2788 422
2217 2761 450
2187 2730 519
2144 2690 669
2101 2650 818
2096 2642 1100
2110 2650 1448
2124 2659 1796
2245 2744 2145
2365 2829 2494
2497 2919 2786
2654 3020 2965
2811 3121 3144
2931 3195 3255
3032 3255 3330
3132 3315 3406
624 280 288
664 298 316
704 316 344
733 361 407
740 462 540
748 562 673
772 674 809
806 791 945
839 909 1081
875 1011 1191
910 1114 1301
944 1209 1401
976 1289 1480
1008 1369 1559
1034 1434 1621
1058 1490 1673
1081 1546 1725
591 401 273
620 412 342
649 423 412
674 461 501
689 554 630
704 647 759
738 756 891
780 872 1026
822 989 1161
868 1095 1272
915 1202 1383
959 1301 1484
1001 1383 1566
1042 1466 1647
1075 1530 1710
1104 1586 1764
1133 1641 1817
557 523 257
576 526 368
594 530 479
614 561 594
638 646 719
661 732 844
703 838 974
754 954 1108
806 1069 1241
862 1180 1353
919 1290 1465
974 1392 1567
1025 1477 1651
1076 1563 1735
1116 1627 1800
1150 1681 1855
1184 1736 1909
566 651 247
575 648 384
585 644 520
600 669 657
628 749 795
655 829 933
704 933 1068
764 1050 1203
824 1166 1338
890 1280 1450
955 1393 1563
1019 1498 1666
1078 1586 1752
1136 1673 1837
1183 1739 1904
1222 1793 1960
1262 1847 2017
658 795 248
661 784 379
665 774 509
675 793 658
700 871 844
724 949 1029
777 1055 1185
844 1176 1325
912 1297 1466
983 1413 1580
1055 1528 1694
1124 1634 1798
1187 1723 1882
1250 1811 1967
1302 1879 2035
1348 1936 2096
1395 1993 2157
750 938 248
747 921 374
745 904 499
750 918 660
771 993 893
792 1069 1126
850 1177 1301
925 1303 1447
1000 1428 1594
1077 1545 1709
1154 1662 1825
1228 1770 1929
1296 1860 2013
1364 1949 2096
1422 2019 2167
1474 2079 2231
1527 2139 2296
866 1110 256
860 1089 369
854 1068 482
854 1075 644
868 1141 903
882 1206 1162
943 1315 1369
1028 1445 1550
1112 1575 1730
1199 1696 1849
1285 1817 1969
1367 1927 2076
1442 2016 2158
1516 2106 2240
1579 2176 2310
1637 2236 2374
1694 2296 2438
993 1297 267
985 1272 365
977 1248 463
973 1248 620
977 1300 895
981 1352 1169
1046 1460 1413
1141 1595 1642
1237 1730 1871
1334 1855 1995
1431 1981 2120
1523 2094 2230
1605 2183 2311
1687 2272 2393
1755 2341 2460
1817 2399 2521
1879 2458 2582
1121 1484 277
1111 1456 361
1100 1428 444
1091 1422 596
1086 1460 886
1081 1499 1176
1150 1605 1457
1255 1745 1734
1361 1885 2011
1469 2015 2141
1577 2144 2271
1679 2261 2384
1768 2349 2465
1857 2438 2545
1931 2506 2610
1997 2563 2667
2064 2620 2725
1268 1684 291
1259 1655 362
1249 1627 433
1238 1615 572
1224 1637 845
1210 1659 1119
1269 1750 1418
1364 1876 1730
1460 2002 2042
1588 2138 2206
1717 2275 2369
1835 2396 2505
1932 2485 2588
2030 2575 2670
2109 2642 2735
2179 2697 2790
2249 2753 2845
1416 1884 306
1407 1855 364
1398 1825 423
1384 1807 547
1361 1813 805
1338 1819 1062
1388 1895 1379
1474 2007 1727
1559 2119 2074
1708 2262 2270
1856 2405 2466
1990 2531 2625
2096 2622 2711
2203 2713 2796
2288 2779 2860
2361 2832 2912
2435 2885 2965
1569 2083 320
1560 2053 367
1551 2023 415
1535 2000 527
1504 1991 766
1474 1982 1005
1513 2042 1332
1586 2138 1704
1660 2233 2076
1819 2376 2306
1978 2520 2536
2123 2647 2720
2241 2740 2812
2358 2833 2905
2448 2899 2970
2526 2950 3021
2604 3001 3073
1733 2279 333
1723 2249 374
1712 2219 415
1693 2192 514
1657 2172 730
1622 2151 946
1648 2193 1268
1705 2265 1644
1762 2338 2021
1915 2471 2285
2068 2603 2550
2214 2724 2762
2344 2822 2871
2475 2919 2979
2574 2985 3051
2657 3036 3104
2740 3086 3157
1898 2474 347
1885 2445 380
1872 2415 414
1850 2385 501
1810 2353 694
1770 2321 887
1784 2343 1205
1824 2393 1585
1865 2443 1965
2011 2565 2264
2158 2687 2564
2304 2802 2805
2448 2904 2929
2593 3005 3053
2700 3072 3131
2788 3122 3186
2876 3171 3241
2060 2631 364
2045 2603 392
2030 2575 421
2006 2543 498
1963 2506 672
1920 2469 846
1924 2478 1154
1952 2509 1530
1979 2540 1905
2115 2648 2229
2251 2756 2552
2390 2861 2816
2539 2961 2958
2687 3062 3100
2798 3130 3187
2889 3181 3247
2981 3233 3307
2222 2769 383
2204 2743 407
2186 2716 431
2160 2685 500
2115 2646 657
2071 2607 814
2067 2604 1111
2084 2619 1477
2100 2634 1843
2222 2726 2185
2344 2817 2528
2475 2910 2811
2623 3007 2972
2771 3105 3133
2883 3174 3231
2976 3228 3297
3070 3282 3363
2384 2907 402
2363 2882 422
2343 2858 442
2314 2827 502
2268 2786 642
2222 2745 782
2210 2731 1067
2216 2730 1424
2221 2729 1781
2329 2803 2142
2438 2878 2504
2559 2959 2805
2707 3053 2986
2854 3148 3167
2967 3217 3275
3063 3274 3347
3159 3332 3419
861 294 312
909 303 331
956 312 351
990 351 410
994 452 546
999 553 682
1019 676 832
1045 810 989
1071 944 1146
1098 1064 1272
1124 1184 1397
1151 1295 1510
1176 1388 1598
1201 1481 1687
1225 1555 1755
1247 1620 1815
1270 1684 1874
788 429 288
823 431 354
858 434 421
885 466 510
897 557 644
909 648 778
937 766 924
974 897 1077
1012 1029 1230
1053 1151 1354
1094 1274 1477
1134 1387 1589
1172 1481 1677
1210 1575 1766
1241 1647 1834
1270 1708 1892
