src-tauri/resources/luts/自然莱卡质感.3dl
# Created by: Adobe Photoshop Export Color Lookup Plugin
# LUT by SparkleStock. Enhanced with VOXCOLOR algorithms.
0 256 512 768 1023
288 272 240
385 482 536
576 793 928
741 1069 1245
833 1265 1441
532 629 242
579 774 794
823 1194 1350
1061 1567 1739
1237 1825 2005
944 1263 266
931 1307 883
1264 1791 1928
1636 2246 2366
1919 2513 2626
1516 2056 315
1429 1967 761
1607 2214 1984
2224 2746 2799
2641 3021 3089
2146 2722 384
2020 2593 696
2028 2589 1812
2602 2987 2944
3106 3298 3394
1237 329 335
1403 444 556
1503 934 1189
1539 1462 1718
1588 1816 2036
979 947 246
1021 956 888
1190 1390 1612
1459 1904 2074
1670 2201 2358
1401 1802 289
1348 1693 896
1516 1989 2088
1930 2463 2575
2233 2735 2836
2022 2548 365
1966 2427 718
1973 2484 2042
2491 2912 2956
2863 3162 3239
2628 3094 442
2561 2996 629
2445 2879 1719
2829 3131 3030
3232 3382 3469
2687 482 459
2843 540 800
3168 813 1285
3208 1532 2082
3081 2125 2570
2214 1077 273
2215 1033 965
2427 1321 1800
2709 2133 2498
2819 2600 2840
2115 2417 330
2052 2180 977
2106 2170 2175
2392 2730 2847
2666 3016 3119
2755 3169 508
2702 3055 867
2679 2862 1987
2876 3135 3152
3170 3358 3448
3168 3517 631
3207 3498 825
3122 3260 1559
3159 3339 3121
3451 3541 3635
3327 591 655
3472 701 1054
3713 1029 1713
3869 1502 2268
3873 2059 2739
3209 1029 559
3259 1044 1147
3432 1328 1975
3699 2002 2665
3800 2566 3051
3091 2430 501
3134 2138 1089
3201 2045 2156
3437 2583 2988
3659 3087 3365
3321 3526 745
3304 3359 1102
3297 3193 2078
3402 3263 3219
3607 3563 3686
3591 3840 945
3642 3862 1193
3686 3831 1881
3689 3686 3196
3745 3770 3867
3523 640 801
3718 849 1269
3904 1208 1946
3987 1646 2466
4003 1969 2754
3633 982 942
3791 1067 1413
3939 1427 2135
4006 2020 2768
4034 2489 3073
3641 2236 871
3850 2001 1391
3992 1917 2241
4018 2398 3011
4038 2985 3390
3670 3585 960
3838 3366 1276
3967 3150 2126
4016 3149 3187
4029 3504 3739
3747 3955 1153
3814 3976 1394
3897 3975 2062
3965 3949 3207
3987 3939 4003
