src-tauri/resources/luts/自然莱卡质感.3dl
# Created by: Adobe Photoshop Export Color Lookup Plugin
# LUT by SparkleStock. Enhanced with VOXCOLOR algorithms.
0 128 256 384 512 640 768 896 1023
288 272 240
317 358 366
385 482 536
477 632 729
576 793 928
665 941 1099
741 1069 1245
799 1176 1360
833 1265 1441
392 412 240
395 466 458
460 592 666
560 764 877
671 954 1104
775 1130 1298
868 1284 1464
945 1414 1600
1003 1521 1707
532 629 242
520 652 496
579 774 794
688 964 1094
823 1194 1350
948 1395 1562
1061 1567 1739
1159 1711 1885
1237 1825 2005
714 914 250
692 912 492
738 1017 880
849 1212 1299
1024 1482 1636
1178 1709 1863
1319 1895 2047
1441 2045 2195
1541 2161 2318
944 1263 266
912 1237 461
931 1307 883
1036 1487 1412
1264 1791 1928
1458 2047 2176
1636 2246 2366
1791 2398 2512
1919 2513 2626
1222 1655 289
1178 1609 440
1165 1629 820
1234 1751 1364
1433 2010 2007
1731 2312 2383
1968 2535 2624
2158 2692 2775
2312 2800 2883
1516 2056 315
1466 1993 431
1429 1967 761
1458 2025 1285
1607 2214 1984
1935 2511 2486
2224 2746 2799
2463 2918 2981
2641 3021 3089
1825 2426 346
1772 2356 437
1716 2297 716
1708 2297 1199
1800 2406 1905
2110 2660 2511
2428 2893 2902
2708 3077 3133
2906 3185 3256
2146 2722 384
2092 2665 459
2020 2593 696
1982 2553 1133
2028 2589 1812
2292 2780 2483
2602 2987 2944
2894 3173 3234
3106 3298 3394
624 280 288
704 316 344
740 462 540
772 674 809
839 909 1081
910 1114 1301
976 1289 1480
1034 1434 1621
1081 1546 1725
557 523 257
594 530 479
638 646 719
703 838 974
806 1069 1241
919 1290 1465
1025 1477 1651
1116 1627 1800
1184 1736 1909
658 795 248
665 774 509
700 871 844
777 1055 1185
912 1297 1466
1055 1528 1694
1187 1723 1882
1302 1879 2035
1395 1993 2157
866 1110 256
854 1068 482
868 1141 903
943 1315 1369
1112 1575 1730
1285 1817 1969
1442 2016 2158
1579 2176 2310
1694 2296 2438
1121 1484 277
1100 1428 444
1086 1460 886
1150 1605 1457
1361 1885 2011
1577 2144 2271
1768 2349 2465
1931 2506 2610
2064 2620 2725
1416 1884 306
1398 1825 423
1361 1813 805
1388 1895 1379
1559 2119 2074
1856 2405 2466
2096 2622 2711
2288 2779 2860
2435 2885 2965
1733 2279 333
1712 2219 415
1657 2172 730
1648 2193 1268
1762 2338 2021
2068 2603 2550
2344 2822 2871
2574 2985 3051
2740 3086 3157
2060 2631 364
2030 2575 421
1963 2506 672
1924 2478 1154
1979 2540 1905
2251 2756 2552
2539 2961 2958
2798 3130 3187
2981 3233 3307
2384 2907 402
2343 2858 442
2268 2786 642
2210 2731 1067
2221 2729 1781
2438 2878 2504
2707 3053 2986
2967 3217 3275
3159 3332 3419
1237 329 335
1327 343 393
1403 444 556
1462 639 822
1503 934 1189
1523 1219 1484
1539 1462 1718
1559 1662 1899
1588 1816 2036
1020 578 269
1057 569 506
1107 652 758
1172 836 1048
1257 1132 1395
1352 1429 1666
1440 1672 1883
1516 1861 2050
1577 1993 2175
979 947 246
990 905 528
1021 956 888
1084 1114 1268
1190 1390 1612
1328 1673 1871
1459 1904 2074
1576 2080 2233
1670 2201 2358
1108 1376 257
1101 1304 503
1112 1317 937
1165 1436 1427
1283 1684 1843
1454 1948 2103
1616 2165 2302
1762 2331 2455
1883 2446 2579
1401 1802 289
1366 1721 469
1348 1693 896
1385 1766 1469
1516 1989 2088
1735 2252 2372
1930 2463 2575
2097 2623 2721
2233 2735 2836
1707 2189 330
1683 2125 450
1653 2070 802
1660 2090 1368
1746 2251 2130
2017 2513 2553
2250 2721 2809
2440 2876 2958
2581 2978 3060
2022 2548 365
2006 2498 444
1966 2427 718
1942 2400 1235
1973 2484 2042
2237 2713 2616
2491 2912 2956
2709 3067 3138
2863 3162 3239
2332 2856 400
2320 2818 453
2273 2742 656
2224 2683 1103
2205 2693 1884
2423 2866 2591
2677 3045 3026
2913 3199 3263
3079 3295 3374
2628 3094 442
2612 3064 478
2561 2996 629
2498 2923 1005
2445 2879 1719
2604 2986 2508
2829 3131 3030
3059 3276 3333
3232 3382 3469
1976 403 388
2051 408 484
2171 460 628
2287 605 869
2351 893 1256
2349 1243 1632
2320 1554 1929
2289 1818 2159
2280 2026 2331
1679 607 293
1696 602 546
1756 653 812
1842 808 1124
1938 1117 1518
2029 1496 1856
2093 1809 2114
2138 2053 2309
2171 2227 2455
1497 1052 251
1499 1003 553
1531 1015 928
1592 1137 1337
1686 1416 1740
1821 1770 2054
1944 2058 2289
2047 2275 2461
2125 2414 2591
1496 1607 256
1489 1513 532
1503 1473 968
1544 1536 1470
1617 1752 1942
1778 2061 2252
1936 2314 2476
2079 2502 2636
2193 2616 2755
1745 2139 305
1697 2034 515
1682 1950 922
1702 1949 1481
1756 2090 2147
1949 2365 2476
2134 2589 2701
2298 2756 2853
2431 2864 2965
2068 2530 369
2025 2458 509
2005 2369 833
2004 2329 1371
2018 2400 2157
2226 2631 2635
2434 2832 2917
2617 2987 3072
2750 3083 3170
2366 2849 420
2345 2806 514
2324 2724 754
2300 2657 1231
2269 2658 2035
2453 2840 2677
2668 3017 3051
2868 3163 3242
3007 3252 3335
2640 3101 466
2641 3082 531
2622 3012 699
2579 2930 1094
2508 2873 1842
2643 2997 2625
2845 3147 3103
3053 3285 3356
3200 3374 3460
2887 3294 515
2898 3285 566
2881 3231 681
2829 3148 995
2734 3052 1641
2808 3111 2500
2978 3225 3075
3174 3352 3408
3328 3452 3542
2687 482 459
2738 482 588
2843 540 800
2991 652 1048
3168 813 1285
3234 1176 1728
3208 1532 2082
3141 1856 2360
3081 2125 2570
2434 640 349
2424 644 609
2474 692 906
2588 805 1229
2765 1003 1568
2907 1439 1986
2968 1826 2302
2975 2144 2535
2955 2371 2703
2214 1077 273
2193 1028 581
2215 1033 965
2289 1121 1385
2427 1321 1800
2591 1759 2207
2709 2133 2498
2784 2420 2700
2819 2600 2840
2088 1700 259
2070 1590 550
2072 1538 986
2108 1573 1493
2193 1724 1997
2347 2113 2402
2495 2438 2677
2621 2679 2858
2710 2814 2979
2115 2417 330
2076 2283 563
2052 2180 977
2058 2135 1529
2106 2170 2175
2240 2479 2581
2392 2730 2847
2541 2912 3012
2666 3016 3119
2472 2867 431
2418 2771 590
2383 2680 921
2375 2605 1433
2403 2559 2137
2495 2755 2706
2654 2951 3034
2822 3113 3203
2941 3205 3296
2755 3169 508
2726 3121 620
2702 3055 867
2685 2970 1305
2679 2862 1987
2727 2983 2726
2876 3135 3152
3049 3274 3360
3170 3358 3448
2981 3370 570
2989 3360 656
2985 3323 831
2964 3239 1177
2922 3092 1777
2923 3154 2650
3048 3268 3186
3215 3389 3464
3342 3472 3565
3168 3517 631
3197 3519 704
3207 3498 825
3187 3422 1081
3122 3260 1559
3067 3260 2483
3159 3339 3121
3315 3450 3498
3451 3541 3635
3084 544 562
3127 552 700
3217 616 933
3346 739 1226
3502 926 1541
3608 1178 1845
3650 1485 2166
3642 1805 2460
3597 2099 2685
2936 671 475
2930 685 713
2977 740 1009
3078 857 1354
3234 1061 1737
3397 1393 2081
3504 1755 2391
3550 2093 2647
3527 2354 2832
2788 1056 390
2776 1025 676
2799 1037 1044
2870 1123 1460
2999 1310 1893
3180 1672 2283
3328 2051 2595
3420 2384 2827
3433 2603 2980
2678 1665 347
2673 1568 628
2682 1516 1041
2722 1539 1527
2810 1665 2025
2979 2006 2457
3144 2366 2779
3272 2671 3000
3330 2851 3129
2648 2468 382
2632 2312 609
2625 2182 1006
2638 2108 1533
2682 2121 2152
2814 2387 2609
2975 2689 2945
3125 2952 3165
3229 3100 3280
2843 3037 516
2804 2924 677
2771 2813 1001
2755 2723 1490
2765 2675 2142
2842 2787 2721
2978 2995 3106
3128 3208 3335
3244 3331 3446
3065 3390 629
3041 3331 748
3013 3259 1001
2991 3181 1422
2983 3104 2045
3021 3114 2739
3122 3235 3207
3249 3386 3477
3362 3488 3583
3270 3592 722
3276 3580 818
3271 3550 1007
3259 3497 1346
3248 3413 1892
3249 3351 2665
3308 3403 3228
3401 3503 3572
3506 3589 3686
3415 3706 794
3445 3715 881
3466 3714 1023
3475 3684 1280
3468 3607 1715
3424 3482 2500
3437 3493 3153
3497 3573 3597
3598 3654 3752
3327 591 655
3383 623 810
3472 701 1054
3585 834 1363
3713 1029 1713
3814 1253 1997
3869 1502 2268
3887 1771 2518
3873 2059 2739
3279 698 622
3296 726 831
3352 794 1117
3443 924 1464
3569 1137 1862
3701 1430 2192
3797 1742 2473
3849 2046 2706
3846 2312 2895
3209 1029 559
3223 1018 810
3259 1044 1147
3325 1139 1544
3432 1328 1975
3576 1652 2360
3699 2002 2665
3780 2325 2894
3800 2566 3051
3138 1601 505
3162 1525 764
3188 1482 1140
3232 1504 1589
3307 1624 2067
3442 1930 2502
3577 2282 2838
3685 2605 3074
3737 2823 3207
3091 2430 501
3112 2276 714
3134 2138 1089
3162 2050 1583
3201 2045 2156
3305 2276 2621
3437 2583 2988
3565 2882 3242
3659 3087 3365
3179 3115 622
3177 2984 773
3174 2849 1080
3176 2735 1538
3191 2668 2140
3253 2733 2708
3359 2932 3127
3481 3171 3401
3594 3354 3536
3321 3526 745
3315 3450 856
3304 3359 1102
3295 3269 1502
3297 3193 2078
3330 3170 2727
3402 3263 3219
3499 3413 3542
3607 3563 3686
3473 3741 856
3478 3722 950
3476 3689 1143
3473 3645 1475
3476 3591 1987
3490 3522 2678
3526 3528 3247
3585 3594 3639
3668 3705 3802
3591 3840 945
3617 3852 1037
3642 3862 1193
3665 3858 1459
3686 3831 1881
3685 3727 2561
3689 3686 3196
3707 3702 3670
3745 3770 3867
3458 623 736
3537 685 912
3630 783 1165
3732 925 1479
3836 1123 1837
3910 1355 2143
3953 1561 2373
3975 1771 2564
3984 2013 2754
3488 719 770
3536 763 957
3605 851 1228
3692 999 1568
3789 1222 1962
3873 1510 2298
3933 1777 2549
3971 2027 2745
3987 2264 2916
3487 1003 751
3535 1009 970
3591 1055 1271
3658 1166 1638
3740 1369 2053
3826 1677 2432
3899 1991 2719
3952 2280 2928
3979 2517 3074
3464 1526 708
3523 1472 944
3576 1444 1275
3630 1477 1676
3691 1604 2124
3770 1889 2544
3849 2216 2873
3917 2530 3105
3962 2773 3233
3429 2339 669
3491 2200 871
3551 2071 1220
3603 1983 1672
3644 1967 2186
3706 2177 2631
3783 2467 3002
3864 2773 3267
3937 3032 3395
3455 3116 746
3502 2974 885
3546 2823 1173
3585 2690 1599
3618 2604 2150
3664 2645 2695
3729 2824 3123
3807 3071 3420
3892 3312 3574
3523 3587 854
3552 3494 955
3578 3384 1188
3602 3276 1565
3623 3189 2101
3656 3163 2708
3705 3230 3206
3769 3372 3562
3848 3572 3744
3612 3831 970
3629 3802 1056
3647 3759 1244
3664 3708 1565
3681 3658 2051
3709 3622 2681
3743 3602 3243
3785 3638 3666
3834 3772 3881
3700 3922 1069
3723 3936 1162
3752 3948 1321
3783 3953 1591
3815 3948 2012
3852 3914 2623
3878 3858 3223
3888 3828 3704
3879 3871 3958
3523 640 801
3619 731 1001
3718 849 1269
3814 1005 1589
3904 1208 1946
3957 1441 2242
3987 1646 2466
4001 1822 2632
4003 1969 2754
3590 733 900
3662 795 1079
3747 906 1343
3834 1076 1674
3915 1311 2056
3965 1591 2379
3996 1846 2621
4014 2063 2795
4025 2229 2917
3633 982 942
3709 1001 1145
3791 1067 1413
3871 1202 1744
3939 1427 2135
3979 1725 2496
4006 2020 2768
4023 2285 2959
4034 2489 3073
3651 1458 930
3743 1418 1155
3832 1408 1441
3910 1461 1787
3968 1611 2193
3996 1889 2589
4014 2196 2901
4026 2493 3118
4036 2742 3229
3641 2236 871
3745 2111 1070
3850 2001 1391
3938 1928 1795
3992 1917 2241
4009 2128 2657
4018 2398 3011
4025 2695 3268
4038 2985 3390
3643 3055 887
3743 2915 1020
3843 2768 1295
3928 2638 1693
3983 2548 2194
4012 2572 2708
4022 2732 3117
4027 2974 3408
4039 3244 3568
3670 3585 960
3752 3485 1054
3838 3366 1276
3914 3249 1631
3967 3150 2126
3997 3104 2700
4016 3149 3187
4026 3282 3547
4029 3504 3739
3710 3871 1059
3765 3832 1139
3829 3776 1315
3892 3712 1616
3940 3650 2071
3969 3607 2667
3998 3578 3218
4016 3609 3650
4010 3743 3889
3747 3955 1153
3774 3968 1242
3814 3976 1394
3857 3979 1652
3897 3975 2062
3932 3961 2642
3965 3949 3207
3986 3941 3685
3987 3939 4003
