src-tauri/resources/luts/自然奶油质感.3dl
# 25x25x25 3DL 3D LUT
0 256 512 767 1023
16 0 0
0 385 1044
0 1012 2409
0 1558 3533
16 2072 4095
771 899 658
16 1012 931
0 1799 2393
16 2184 3501
32 2585 4063
2056 2441 1895
1622 2264 1718
0 2264 2168
610 3276 3533
2184 3469 4063
3180 3501 3067
3051 3469 3035
2441 3356 2794
1188 3453 3324
2666 3967 4031
3726 3999 3694
3758 3983 3710
3726 3999 3742
3051 4095 3613
2569 4095 4079
980 80 64
931 80 980
16 418 2280
16 1140 3517
0 1879 4095
1108 931 450
980 947 964
145 1413 2312
0 1927 3485
32 2425 4079
2312 2521 2232
2088 2361 2056
980 2248 2152
1445 3148 3565
2184 3388 4063
3356 3533 3260
3276 3517 3212
2778 3404 2939
1526 3404 3276
2826 3950 4095
3790 3967 3742
3806 3983 3758
3758 4031 3774
3260 4063 3661
2682 4095 4079
2023 241 96
1959 177 1028
1959 225 1975
1670 787 3292
0 1526 4031
2007 1140 385
1943 1076 1044
1959 1028 1959
1734 1429 3324
899 2072 4095
2585 2232 1301
2377 2168 1622
2023 2023 2023
2136 2666 3388
2377 3099 4095
3437 3517 3164
3388 3501 3244
3404 3501 3340
2345 3356 3228
3260 3934 4095
3854 3983 3806
3886 4015 3838
3902 4031 3854
3677 4063 3806
3067 4095 4079
3131 530 321
3019 289 1012
3035 305 2023
3083 337 3019
2858 1349 4095
3148 1317 514
3003 1188 1124
2987 1076 2007
3067 1092 3083
2875 1847 4095
3244 2152 1012
3099 2200 1445
3035 2104 2088
3067 2088 3051
3035 2746 4063
3661 3308 2393
3597 3372 2650
3501 3324 2971
3115 3115 3148
3437 3694 4095
3934 3983 3645
3934 3999 3758
3983 4031 3886
4063 4095 4079
3629 4095 4063
4095 851 626
4063 739 1188
4095 514 2072
4095 562 3051
4095 1028 4095
4079 1477 739
4095 1397 1285
4063 1188 2072
4079 1237 3099
4095 1542 4095
4079 2473 1220
4063 2425 1638
4063 2329 2296
4079 2232 3115
4095 2393 4063
4095 3035 1911
4095 3131 2248
4031 3292 2762
4079 3308 3308
4095 3292 4079
4095 3983 3356
4095 3967 3437
4095 3999 3613
4095 4047 3870
4095 4063 4095
