src-tauri/resources/luts/自然清新质感.cube
# Converted from .3dl using Python
LUT_3D_SIZE 9
DOMAIN_MIN 0.0 0.0 0.0
DOMAIN_MAX 1.0 1.0 1.0
0.041152 0.012346 0.020576
0.107253 0.162037 0.524177
0.176698 0.323302 0.788323
0.227881 0.440072 0.887603
0.238683 0.456533 0.897891
0.238683 0.456790 0.897891
0.238683 0.456533 0.897891
0.238940 0.456533 0.897891
0.238940 0.457047 0.897891
0.041152 0.079475 0.035237
0.092850 0.173354 0.463477
0.161523 0.320988 0.738940
0.219136 0.444444 0.878086
0.238426 0.465278 0.896091
0.238426 0.462191 0.896348
0.238169 0.460134 0.896091
0.237912 0.458591 0.895833
0.238683 0.458333 0.896091
0.051183 0.268004 0.089249
0.084619 0.292438 0.395576
0.152006 0.394547 0.679012
0.216564 0.494084 0.868570
0.241512 0.510802 0.894033
0.240741 0.499228 0.895062
0.240226 0.488683 0.895319
0.238940 0.480195 0.895576
0.237654 0.473765 0.896605
0.073817 0.508230 0.154321
0.091049 0.487140 0.340021
0.155093 0.536523 0.625257
0.224537 0.594650 0.860854
0.257202 0.599537 0.897377
0.252829 0.576903 0.896862
0.250000 0.556070 0.896862
0.247171 0.537294 0.897891
0.241770 0.521091 0.898920
0.111883 0.729681 0.202160
0.120628 0.724537 0.315329
0.177984 0.739455 0.595422
0.247685 0.751543 0.856481
0.294753 0.737397 0.912551
0.280350 0.704990 0.903807
0.273148 0.674640 0.902263
0.267490 0.646091 0.903549
0.257716 0.618570 0.903035
0.137088 0.773405 0.199331
0.147377 0.779835 0.281893
0.194444 0.810442 0.546553
0.257459 0.836420 0.817130
0.316101 0.828447 0.917953
0.316358 0.814815 0.921296
0.312243 0.797068 0.921039
0.305813 0.776235 0.919753
0.298611 0.753344 0.920010
0.150206 0.796296 0.197016
0.157922 0.804270 0.257973
0.196245 0.837191 0.494856
0.253858 0.868313 0.760802
0.318930 0.870628 0.909979
0.327418 0.865226 0.923611
0.327418 0.856739 0.927984
0.323560 0.846451 0.927726
0.321502 0.834619 0.929012
0.156379 0.806070 0.195988
0.161780 0.812243 0.242027
0.193416 0.840792 0.442130
0.246399 0.871914 0.695216
0.315072 0.886060 0.899177
0.328189 0.881430 0.921553
0.331276 0.878344 0.930041
0.331019 0.876543 0.931584
0.333591 0.875514 0.932870
0.160494 0.811214 0.197788
0.167953 0.817901 0.231739
0.195216 0.842335 0.390432
0.244342 0.872171 0.627315
0.317130 0.895833 0.897119
0.332562 0.889146 0.924383
0.337963 0.886317 0.934156
0.338992 0.886831 0.934928
0.341821 0.889660 0.934928
0.096451 0.013374 0.019805
0.132459 0.121914 0.457047
0.188014 0.282665 0.734311
0.235854 0.417695 0.873457
0.249228 0.448817 0.895833
0.247428 0.452161 0.896862
0.246142 0.452932 0.897377
0.245370 0.452932 0.897634
0.245628 0.454733 0.897634
0.090278 0.052469 0.026492
0.112654 0.119084 0.358282
0.166924 0.268261 0.647891
0.221708 0.410237 0.841821
0.245628 0.455247 0.887088
0.244084 0.457305 0.893261
0.243570 0.457562 0.895576
0.243056 0.457305 0.896091
0.242284 0.457047 0.896091
0.081533 0.208591 0.072016
0.095679 0.220165 0.279578
0.151235 0.326646 0.572788
0.212706 0.444444 0.817387
0.244856 0.489455 0.879887
0.244342 0.484825 0.890432
0.243570 0.479167 0.894547
0.243056 0.473508 0.895576
0.242284 0.469136 0.897119
0.084362 0.439558 0.136831
0.092850 0.411523 0.240741
0.147119 0.463735 0.525720
0.212449 0.535237 0.801955
0.254887 0.565586 0.879372
0.253344 0.550669 0.890689
0.251286 0.534979 0.895062
0.248971 0.520319 0.896348
0.247171 0.508230 0.898920
0.112397 0.703447 0.201389
0.115998 0.680041 0.260545
0.161265 0.685442 0.523663
0.225051 0.698560 0.797840
0.283179 0.698302 0.890432
0.277263 0.671039 0.896091
0.271605 0.643261 0.898405
0.265432 0.616512 0.899177
0.259002 0.591564 0.899949
0.139918 0.765689 0.201132
0.146091 0.763632 0.246142
0.182870 0.787294 0.486626
0.241255 0.811471 0.760802
0.312500 0.811728 0.906121
0.316615 0.797582 0.916152
0.313014 0.776492 0.917953
0.305813 0.752058 0.916152
0.298868 0.728138 0.915895
0.153035 0.794496 0.198817
0.158693 0.798868 0.232767
0.189300 0.826132 0.437757
0.243570 0.855195 0.698817
0.319702 0.865741 0.901235
0.330761 0.858025 0.921039
0.331790 0.847479 0.927212
0.328189 0.834877 0.926698
0.324588 0.820216 0.926698
0.158436 0.804527 0.197274
0.162809 0.808128 0.222737
0.189043 0.831790 0.387603
0.239198 0.861883 0.630144
0.315586 0.885545 0.887860
0.332562 0.879115 0.918981
0.338735 0.877058 0.930813
0.339249 0.875514 0.932356
0.338992 0.871399 0.932870
0.163066 0.810700 0.199331
0.167438 0.813272 0.218364
0.189815 0.833333 0.347994
0.235597 0.862912 0.572788
0.310442 0.894547 0.877315
0.334877 0.888117 0.918724
0.343621 0.885545 0.933642
0.344650 0.885288 0.934414
0.344907 0.885545 0.934156
0.274691 0.030607 0.018776
0.259774 0.092593 0.335134
0.274434 0.233539 0.628858
0.296296 0.372428 0.832305
0.302212 0.427984 0.877315
0.289866 0.436986 0.885545
0.278549 0.441358 0.889918
0.270062 0.443930 0.891975
0.264918 0.447788 0.893261
0.233282 0.059671 0.019805
0.218621 0.097994 0.242541
0.239712 0.219650 0.525977
0.271348 0.351595 0.763632
0.288066 0.420782 0.848508
0.276235 0.439300 0.877315
0.267490 0.448302 0.889660
0.261060 0.451389 0.892490
0.255916 0.452675 0.893519
0.211934 0.171039 0.044496
0.195473 0.180298 0.184156
0.218107 0.270576 0.456019
0.254372 0.380916 0.718364
0.278549 0.450617 0.829475
0.268776 0.464506 0.871656
0.261060 0.468364 0.889660
0.255144 0.466564 0.894290
0.251286 0.462963 0.895833
0.193416 0.367284 0.095936
0.178755 0.350309 0.172325
0.203189 0.398663 0.424897
0.244084 0.470165 0.695216
0.279064 0.523920 0.824588
0.270576 0.524949 0.870370
0.262603 0.517747 0.890689
0.256173 0.506687 0.896091
0.252572 0.495370 0.898405
0.159979 0.652263 0.176955
0.158179 0.618056 0.218879
0.188786 0.614712 0.438529
0.238683 0.628858 0.692644
0.294496 0.647377 0.838735
0.285751 0.632716 0.876029
0.276235 0.611883 0.892233
0.267490 0.588477 0.896348
0.261574 0.566101 0.898405
0.163837 0.744084 0.193416
0.167181 0.735597 0.225051
0.195216 0.750257 0.422068
0.246142 0.771605 0.675154
0.318930 0.783179 0.875514
0.322788 0.772119 0.903807
0.317130 0.751286 0.913323
0.307099 0.725823 0.912809
0.298868 0.701389 0.912037
0.164866 0.785494 0.198302
0.168981 0.788323 0.222994
0.193673 0.809156 0.387088
0.243570 0.835648 0.627572
0.323560 0.855195 0.882202
0.336934 0.846193 0.914095
0.337963 0.834619 0.925154
0.332819 0.820473 0.925154
0.326903 0.804012 0.924640
0.164866 0.798868 0.197788
0.168467 0.803755 0.218107
0.189558 0.824074 0.347479
0.236111 0.853138 0.569959
0.316358 0.885031 0.869856
0.338220 0.877315 0.914095
0.346451 0.874486 0.930556
0.346451 0.872685 0.932613
0.344393 0.866770 0.933128
0.165123 0.806327 0.198045
0.170782 0.810700 0.216564
0.188529 0.828189 0.317644
0.229681 0.856996 0.522119
0.304527 0.894547 0.849537
0.337191 0.887346 0.910751
0.349023 0.884002 0.932613
0.350051 0.882973 0.934156
0.350051 0.882716 0.934156
0.525463 0.062757 0.021091
0.470422 0.084877 0.212191
0.445216 0.191615 0.507973
0.435442 0.316358 0.765175
0.426698 0.391461 0.840535
0.397119 0.409465 0.860597
0.369856 0.419753 0.871656
0.346451 0.425669 0.877058
0.328704 0.431070 0.880144
0.450103 0.090021 0.017747
0.402778 0.104424 0.149177
0.387603 0.185442 0.408436
0.388889 0.288837 0.665638
0.390947 0.370885 0.790381
0.366770 0.408179 0.846965
0.343621 0.428241 0.872942
0.323045 0.436728 0.881173
0.305298 0.439815 0.883745
0.416924 0.168467 0.023148
0.369599 0.176183 0.121656
0.355195 0.237140 0.354424
0.359053 0.322016 0.605453
0.366770 0.400720 0.759516
0.344393 0.433899 0.838477
0.322531 0.449588 0.875257
0.303241 0.453704 0.886574
0.287809 0.451646 0.889146
0.387603 0.325874 0.054012
0.344650 0.319187 0.129372
0.331533 0.354167 0.337449
0.338220 0.412809 0.578447
0.353909 0.477623 0.752572
0.332047 0.495370 0.838477
0.310185 0.498200 0.878858
0.291409 0.492027 0.891718
0.278549 0.481996 0.894547
0.323560 0.590535 0.126800
0.301698 0.552984 0.172068
0.300412 0.543467 0.350051
0.317901 0.559414 0.578189
0.352109 0.598508 0.773920
0.332047 0.600823 0.849794
0.310700 0.588220 0.884774
0.291924 0.567644 0.895319
0.279835 0.546553 0.897891
0.287037 0.718879 0.164352
0.269033 0.704475 0.197531
0.269805 0.709362 0.355967
0.296811 0.726337 0.584362
0.359053 0.747685 0.828189
0.358025 0.742798 0.883230
0.343879 0.724794 0.905607
0.325360 0.699846 0.909208
0.310957 0.675154 0.908179
0.260288 0.777006 0.180556
0.240998 0.776235 0.208591
0.241512 0.789866 0.341307
0.274177 0.812243 0.560700
0.350823 0.837706 0.848765
0.364455 0.829733 0.901235
0.360854 0.818416 0.921039
0.349023 0.803498 0.923097
0.337963 0.786008 0.922068
0.239198 0.795267 0.184414
0.219136 0.800412 0.211934
0.219136 0.817130 0.318416
0.252829 0.844650 0.521862
0.333333 0.881687 0.841049
0.359568 0.873457 0.905607
0.365741 0.869856 0.929784
0.361368 0.867284 0.932613
0.355967 0.860597 0.933128
0.219136 0.804012 0.185442
0.204733 0.808899 0.213992
0.206019 0.823560 0.298097
0.236883 0.850823 0.482253
0.311986 0.893261 0.810700
0.350823 0.885031 0.899177
0.362654 0.880916 0.931327
0.361111 0.879630 0.934156
0.360082 0.880144 0.934671
0.798097 0.109053 0.029835
0.746142 0.108539 0.141718
0.709362 0.172325 0.407665
0.680041 0.261317 0.673097
0.650720 0.337449 0.783179
0.600823 0.368056 0.818673
0.553241 0.385545 0.838477
0.508745 0.394290 0.848508
0.468621 0.399949 0.854167
0.720936 0.131944 0.022891
0.657407 0.132973 0.111111
0.617798 0.176440 0.330247
0.594650 0.243056 0.570216
0.580247 0.314558 0.721965
0.547325 0.363169 0.800669
0.505658 0.394033 0.841049
0.460391 0.409465 0.856739
0.416409 0.413066 0.861625
0.670782 0.214249 0.024949
0.604424 0.209877 0.104424
0.564300 0.236368 0.292953
0.543467 0.284979 0.512860
0.533951 0.346451 0.687243
0.501800 0.388374 0.790895
0.459105 0.415123 0.844907
0.414352 0.429012 0.866255
0.375514 0.430813 0.872171
0.653035 0.350051 0.034465
0.586163 0.333848 0.106481
0.540638 0.343364 0.278549
0.513632 0.376543 0.490484
0.503344 0.431584 0.683128
0.466307 0.457562 0.796039
0.421039 0.470165 0.855195
0.377572 0.472737 0.878601
0.346193 0.467335 0.884774
0.671811 0.532922 0.049383
0.601852 0.500257 0.103138
0.537294 0.488169 0.269547
0.492027 0.506944 0.491770
0.479424 0.567387 0.713220
0.442901 0.585648 0.823045
0.398405 0.579733 0.877058
0.356739 0.560185 0.895576
0.328447 0.537294 0.898148
0.588220 0.700103 0.101595
0.510288 0.679270 0.141975
0.445473 0.674383 0.291924
0.418981 0.685185 0.513117
0.456790 0.710648 0.766204
0.444444 0.713477 0.853395
0.413066 0.700103 0.894033
0.376286 0.676955 0.905350
0.348251 0.651492 0.903549
0.513889 0.777006 0.130144
0.427726 0.768004 0.168981
0.366255 0.772377 0.299383
0.355967 0.788066 0.511831
0.423097 0.813014 0.796811
0.431584 0.808128 0.879887
0.415381 0.798611 0.914095
0.389403 0.784722 0.920267
0.367798 0.765947 0.918724
0.444959 0.800669 0.144033
0.355710 0.799383 0.187243
0.302469 0.809928 0.296553
0.305041 0.834105 0.492798
0.383488 0.872685 0.797068
0.410237 0.864969 0.893004
0.408179 0.861883 0.929012
0.393004 0.858539 0.932870
0.380144 0.850823 0.932870
0.377058 0.808385 0.152263
0.296039 0.806584 0.198560
0.256173 0.816101 0.287809
0.268519 0.842078 0.460648
0.344650 0.888632 0.757973
0.386317 0.880144 0.882973
0.393261 0.875772 0.929784
0.384259 0.874743 0.935185
0.377829 0.876543 0.934928
0.848251 0.121914 0.033179
0.820473 0.120370 0.119084
0.813272 0.172068 0.368313
0.814043 0.248457 0.628858
0.810185 0.320473 0.748457
0.798611 0.345679 0.778292
0.773920 0.358796 0.795267
0.740484 0.364969 0.804527
0.703704 0.369599 0.810700
0.804012 0.142233 0.028292
0.765947 0.144805 0.102623
0.750000 0.178755 0.301440
0.748457 0.233796 0.529064
0.754630 0.299897 0.690329
0.756173 0.340792 0.761317
0.736368 0.367541 0.799897
0.700617 0.381944 0.817387
0.655093 0.386060 0.824588
0.776235 0.212449 0.032150
0.734568 0.215792 0.102881
0.712963 0.236368 0.266204
0.707819 0.274434 0.468879
0.715021 0.331276 0.656893
0.717850 0.366512 0.754887
0.696245 0.389403 0.807870
0.657665 0.401235 0.831019
0.609825 0.403292 0.839249
0.769805 0.344393 0.043467
0.725823 0.336934 0.110082
0.698302 0.340278 0.251543
0.685957 0.361883 0.439815
0.687757 0.409979 0.646348
0.684671 0.431584 0.760802
0.657665 0.441615 0.822788
0.615998 0.442644 0.849280
0.568930 0.437243 0.856996
0.789866 0.549125 0.061471
0.740226 0.512603 0.114198
0.701646 0.486626 0.245370
0.677212 0.487654 0.433642
0.668981 0.531121 0.657407
0.658179 0.544239 0.780864
0.625514 0.540895 0.849023
0.581276 0.525977 0.876800
0.533951 0.504372 0.879372
0.803241 0.704475 0.093107
0.751286 0.678241 0.127315
0.705247 0.657922 0.234568
0.669753 0.652778 0.420525
0.650206 0.671039 0.689815
0.637088 0.685700 0.808899
0.603138 0.681584 0.876029
0.558899 0.665638 0.903807
0.515175 0.644033 0.905350
0.794753 0.783436 0.110597
0.736625 0.770319 0.137088
0.676440 0.762860 0.227109
0.628344 0.766204 0.409722
0.605710 0.785751 0.713220
0.605967 0.791667 0.835134
0.581276 0.787037 0.898663
0.543724 0.774691 0.921553
0.505916 0.757202 0.922068
0.763117 0.812500 0.119599
0.697016 0.809156 0.145062
0.625772 0.813014 0.220422
0.569187 0.827932 0.394547
0.547582 0.858025 0.716049
0.567644 0.856224 0.854424
0.555041 0.851852 0.915895
0.525720 0.844650 0.931327
0.494599 0.834877 0.931584
0.707562 0.817901 0.126543
0.633488 0.814558 0.153292
0.563014 0.820216 0.211934
0.510031 0.837963 0.368056
0.487912 0.871914 0.687500
0.524177 0.873714 0.861368
0.519805 0.869856 0.927212
0.495113 0.866255 0.934928
0.470679 0.868570 0.935185
0.876800 0.128601 0.033693
0.866255 0.130401 0.101080
0.872685 0.176183 0.332305
0.885545 0.244856 0.589763
0.895319 0.315586 0.736111
0.896862 0.335134 0.759259
0.888632 0.343879 0.770319
0.873200 0.346965 0.774949
0.853395 0.349280 0.778807
0.858282 0.143519 0.031893
0.842850 0.149177 0.091049
0.841049 0.179527 0.272377
0.849537 0.231481 0.498200
0.864455 0.302726 0.690844
0.873457 0.334619 0.746656
0.868827 0.353395 0.774691
0.852366 0.362654 0.785751
0.825617 0.364969 0.791152
0.847737 0.198817 0.037294
0.829733 0.207819 0.095165
0.822788 0.228138 0.238426
0.826389 0.265947 0.435185
0.840021 0.327932 0.654578
0.850051 0.356481 0.738426
0.845679 0.373200 0.781636
0.827675 0.380401 0.798868
0.796811 0.381173 0.804784
0.849794 0.319444 0.051183
0.828704 0.318158 0.106996
0.816872 0.323817 0.224794
0.814300 0.345936 0.400206
0.821245 0.394290 0.629372
0.827675 0.413580 0.737397
0.820473 0.421039 0.795782
0.800412 0.420010 0.819702
0.767233 0.413580 0.823817
0.868570 0.529835 0.075103
0.841307 0.491770 0.119856
0.822531 0.467850 0.226337
0.811471 0.468879 0.392747
0.807356 0.504887 0.617284
0.806584 0.519033 0.745628
0.794753 0.515689 0.821245
0.771605 0.500772 0.853652
0.736625 0.479167 0.852623
0.901235 0.704218 0.097737
0.872685 0.672582 0.127572
0.845679 0.645833 0.211420
0.820730 0.632973 0.370113
0.797325 0.642233 0.624486
0.791152 0.658693 0.765175
0.773920 0.657407 0.852109
0.747171 0.643004 0.893004
0.712706 0.620113 0.895833
0.914866 0.788323 0.111111
0.884259 0.772891 0.132973
0.846451 0.759774 0.199074
0.807870 0.754630 0.348765
0.774177 0.762860 0.621656
0.769290 0.771605 0.783179
0.751800 0.769290 0.876543
0.724280 0.757973 0.917953
0.689043 0.738940 0.923354
0.909465 0.816101 0.118570
0.875514 0.814558 0.136574
0.829733 0.816872 0.186986
0.781636 0.825875 0.325874
0.741512 0.843621 0.607767
0.739969 0.845422 0.801440
0.723765 0.841821 0.898148
0.695988 0.833848 0.932356
0.659979 0.822788 0.937243
0.884774 0.820216 0.122428
0.846193 0.819444 0.138117
0.800412 0.825103 0.173868
0.751029 0.838735 0.298868
0.702418 0.861883 0.582819
0.701903 0.867798 0.822016
0.684671 0.864969 0.921039
0.655864 0.859825 0.940329
0.620113 0.859053 0.939815
0.893004 0.130916 0.033179
0.891975 0.137346 0.085905
0.901235 0.179527 0.293210
0.916667 0.244084 0.546039
0.934156 0.317130 0.734825
0.935957 0.330761 0.751029
0.935957 0.335391 0.755658
0.934671 0.335648 0.755144
0.932356 0.336677 0.756173
0.889660 0.140689 0.033951
0.889918 0.148663 0.076646
0.895319 0.178241 0.238426
0.907150 0.232253 0.466049
0.926183 0.313272 0.706790
0.929527 0.335905 0.745628
0.931584 0.346965 0.761060
0.930813 0.350309 0.764403
0.925412 0.351080 0.766461
0.889403 0.180041 0.040638
0.890175 0.191101 0.082562
0.894290 0.213735 0.205761
0.903807 0.256687 0.403035
0.920010 0.328961 0.666152
0.923868 0.352109 0.734053
0.926955 0.363169 0.765947
0.925926 0.366255 0.775463
0.917181 0.365226 0.777006
0.896091 0.283693 0.056584
0.895062 0.284208 0.098508
0.898405 0.295782 0.195730
0.905093 0.325103 0.365226
0.915123 0.379887 0.623200
0.917953 0.399691 0.723251
0.920525 0.405864 0.776235
0.917953 0.402521 0.795525
0.905607 0.395319 0.794239
0.913580 0.486626 0.085648
0.907665 0.448302 0.119856
0.907150 0.434414 0.208333
0.909208 0.445216 0.361111
0.911008 0.481224 0.587963
0.910494 0.500000 0.718621
0.910494 0.496399 0.797840
0.905350 0.479167 0.831019
0.889146 0.456790 0.824846
0.932613 0.692901 0.107253
0.924897 0.656379 0.133745
0.918981 0.629372 0.205504
0.914095 0.615484 0.344393
0.910237 0.619342 0.572788
0.909465 0.635802 0.728909
0.905607 0.634774 0.829218
0.895833 0.619599 0.878858
0.876543 0.593621 0.881944
0.944702 0.788323 0.119856
0.937757 0.770833 0.140947
0.929527 0.756173 0.195473
0.920267 0.746914 0.318930
0.910237 0.745370 0.545782
0.902521 0.754115 0.737397
0.893004 0.752315 0.854167
0.878344 0.740484 0.911008
0.854167 0.719393 0.922068
0.951132 0.816101 0.125514
0.945730 0.817130 0.142233
0.937243 0.820988 0.180813
0.924383 0.826389 0.288580
0.905607 0.833591 0.513632
0.886831 0.835905 0.750000
0.870628 0.832562 0.878086
0.851080 0.824074 0.931584
0.821759 0.811728 0.943930
0.952675 0.819444 0.127058
0.948817 0.821759 0.139146
0.941358 0.829475 0.163066
0.924125 0.842078 0.257973
0.890947 0.857510 0.483539
0.860082 0.862654 0.772119
0.836420 0.859311 0.906636
0.812500 0.852623 0.944959
0.780864 0.848251 0.945216
0.906121 0.131687 0.032922
0.905864 0.140175 0.072016
0.913323 0.178241 0.245628
0.929012 0.239969 0.488169
0.954475 0.319959 0.733025
0.955247 0.327161 0.742798
0.954218 0.328189 0.743827
0.953704 0.327675 0.741770
0.955504 0.329475 0.741255
0.904064 0.138374 0.034979
0.908951 0.146091 0.060185
0.916409 0.175154 0.194444
0.930556 0.231739 0.420267
0.955247 0.321502 0.721193
0.955504 0.336934 0.746399
0.953704 0.342850 0.755144
0.951903 0.343879 0.755144
0.952418 0.344650 0.755144
0.904835 0.162809 0.042181
0.914866 0.170525 0.065844
0.927726 0.194187 0.165638
0.944444 0.243570 0.362654
0.966307 0.327932 0.677469
0.965021 0.348251 0.734053
0.959877 0.356739 0.759774
0.953704 0.358025 0.765689
0.950875 0.357253 0.763632
0.912294 0.246142 0.058899
0.925154 0.242798 0.085391
0.944187 0.257716 0.162809
0.964763 0.296039 0.328189
0.981739 0.363683 0.619342
0.978909 0.386831 0.716049
0.968879 0.392747 0.766461
0.957047 0.388889 0.782665
0.948302 0.381430 0.776492
0.930556 0.430556 0.088220
0.941872 0.392490 0.113940
0.963220 0.388374 0.187757
0.984568 0.411008 0.330761
0.996399 0.452932 0.563786
0.991255 0.477623 0.702160
0.977366 0.474537 0.783179
0.959619 0.455247 0.814300
0.943158 0.431584 0.802984
0.948302 0.664609 0.114198
0.959362 0.624486 0.136317
0.977109 0.599794 0.199074
0.993570 0.590792 0.325360
1.000000 0.597222 0.537551
0.994084 0.619599 0.706276
0.978395 0.620885 0.813786
0.959362 0.605710 0.866255
0.942901 0.578704 0.869856
0.954733 0.779835 0.123714
0.964506 0.760031 0.144033
0.978909 0.745628 0.197274
0.991255 0.736883 0.309928
0.994856 0.734053 0.509002
0.985854 0.744599 0.711420
0.970679 0.742798 0.837449
0.953189 0.729681 0.901749
0.938014 0.707047 0.918724
0.955504 0.817644 0.125514
0.961934 0.819187 0.143776
0.971965 0.823560 0.185700
0.979938 0.828447 0.284979
0.980453 0.831533 0.474280
0.967593 0.831276 0.716049
0.952675 0.824588 0.857767
0.938529 0.813014 0.925412
0.926440 0.798354 0.945473
0.955504 0.819444 0.127572
0.956276 0.821502 0.141975
0.959362 0.832047 0.168467
0.960905 0.845679 0.250000
0.956276 0.856996 0.429270
0.939815 0.858796 0.719650
0.924125 0.851080 0.878858
0.912037 0.841049 0.942644
0.906121 0.835905 0.947274
