src-tauri/resources/luts/自然莱卡质感.cube
# Converted from .3dl using Python
LUT_3D_SIZE 17
DOMAIN_MIN 0.0 0.0 0.0
DOMAIN_MAX 1.0 1.0 1.0
0.071305 0.067343 0.059421
0.074771 0.077990 0.075019
0.078485 0.088636 0.090616
0.084427 0.101758 0.108938
0.095321 0.119336 0.132706
0.106214 0.137163 0.156227
0.118099 0.156474 0.180490
0.130230 0.176281 0.205249
0.142610 0.196336 0.229760
0.153751 0.214657 0.251052
0.164645 0.232978 0.272097
0.174796 0.250062 0.291656
0.183461 0.264669 0.308245
0.192127 0.279029 0.324585
0.197821 0.291161 0.336717
0.202030 0.302303 0.346868
0.206239 0.313196 0.356771
0.084179 0.084674 0.059421
0.086160 0.093340 0.080713
0.088141 0.102005 0.102005
0.093340 0.114137 0.124288
0.104481 0.132954 0.148799
0.115870 0.152018 0.173310
0.128497 0.172815 0.198812
0.141372 0.194603 0.225303
0.154246 0.216390 0.251547
0.166378 0.236445 0.274078
0.178262 0.256252 0.296856
0.189403 0.275068 0.317653
0.199059 0.291161 0.335231
0.208715 0.307254 0.352810
0.215895 0.320624 0.366427
0.221590 0.332756 0.378064
0.227284 0.344887 0.389700
0.097054 0.102005 0.059421
0.097549 0.108690 0.086408
0.097796 0.115375 0.113394
0.102005 0.126516 0.139886
0.113890 0.146571 0.164892
0.125774 0.166625 0.190146
0.138648 0.189156 0.217133
0.152265 0.212676 0.245358
0.166130 0.236197 0.273335
0.179005 0.257985 0.297351
0.191879 0.279772 0.321367
0.204011 0.300322 0.343649
0.214905 0.317900 0.362466
0.225551 0.335479 0.381283
0.233969 0.350087 0.396138
0.241149 0.363456 0.409260
0.248329 0.376578 0.422629
0.112156 0.124041 0.059668
0.111414 0.128745 0.090616
0.110423 0.133449 0.121565
0.113890 0.143600 0.151770
0.126021 0.164645 0.180985
0.137905 0.185690 0.210201
0.151770 0.209705 0.239911
0.166625 0.235454 0.269621
0.181233 0.260956 0.299579
0.195345 0.284476 0.324833
0.209458 0.307997 0.350087
0.222580 0.329785 0.373360
0.234712 0.348601 0.392919
0.246596 0.367665 0.412478
0.256252 0.383263 0.428571
0.264669 0.397128 0.442931
0.273335 0.411240 0.457539
0.131716 0.155732 0.059916
0.130230 0.158455 0.091359
0.128745 0.161426 0.122803
0.131716 0.170587 0.156970
0.143352 0.191632 0.196583
0.155236 0.212924 0.236445
0.170339 0.238673 0.270859
0.186927 0.267145 0.302550
0.203763 0.295618 0.334241
0.219114 0.320376 0.360485
0.234712 0.345383 0.386729
0.249567 0.368408 0.410745
0.262689 0.387967 0.430552
0.276306 0.407527 0.450111
0.286952 0.423620 0.466700
0.296608 0.437732 0.481555
0.306264 0.451845 0.496410
0.151275 0.187175 0.060411
0.149294 0.188413 0.092350
0.147066 0.189651 0.124041
0.149542 0.197574 0.162169
0.160931 0.218866 0.212429
0.172320 0.240158 0.262689
0.188661 0.267888 0.301807
0.207477 0.298836 0.335479
0.226294 0.330032 0.369151
0.243129 0.356276 0.396385
0.259965 0.382520 0.423372
0.276058 0.407031 0.448131
0.290914 0.427334 0.467938
0.305769 0.447636 0.487744
0.317900 0.463729 0.504828
0.328547 0.478089 0.520178
0.339193 0.492449 0.535529
0.176776 0.226294 0.061897
0.174053 0.226046 0.091854
0.171330 0.225798 0.121812
0.173063 0.231988 0.160931
0.182719 0.251795 0.217876
0.192622 0.271354 0.274821
0.210201 0.300074 0.321614
0.231988 0.333498 0.363209
0.253528 0.366922 0.405051
0.272592 0.394900 0.433028
0.291656 0.423125 0.461253
0.309730 0.448626 0.486754
0.326566 0.469176 0.506809
0.343154 0.489973 0.526863
0.356771 0.506313 0.543451
0.369151 0.520673 0.558802
0.381530 0.535033 0.573904
0.205249 0.269621 0.063877
0.202030 0.267888 0.090864
0.198564 0.266155 0.118099
0.199059 0.270612 0.156722
0.206734 0.287695 0.218123
0.214162 0.304778 0.279772
0.233474 0.333994 0.335479
0.258232 0.369646 0.388462
0.283238 0.405298 0.441198
0.304778 0.435009 0.470661
0.326318 0.464967 0.499876
0.346868 0.491706 0.526368
0.365685 0.512751 0.546175
0.384501 0.533548 0.566229
0.400099 0.550136 0.582818
0.414211 0.564249 0.597425
0.428324 0.578609 0.612033
0.233721 0.312701 0.065858
0.229760 0.309483 0.090121
0.225798 0.306264 0.114137
0.225056 0.308987 0.152265
0.230503 0.323595 0.218618
0.235949 0.338203 0.284972
0.256499 0.368160 0.349591
0.284724 0.405794 0.413469
0.312949 0.443427 0.477346
0.336965 0.475118 0.508047
0.360980 0.506809 0.538747
0.384006 0.535033 0.565734
0.405051 0.556078 0.585789
0.425848 0.577123 0.605843
0.443427 0.593711 0.621936
0.459272 0.608071 0.636049
0.475118 0.622184 0.650161
0.268136 0.361228 0.068829
0.263432 0.356771 0.090121
0.258727 0.352315 0.111414
0.256747 0.352810 0.147066
0.259470 0.363456 0.210943
0.262441 0.374103 0.274573
0.281010 0.400842 0.343649
0.307502 0.435751 0.415449
0.333994 0.470661 0.487002
0.364447 0.505076 0.525625
0.394652 0.539738 0.564249
0.422877 0.569943 0.596930
0.446150 0.591731 0.617727
0.469423 0.613766 0.638277
0.488982 0.630106 0.654370
0.506313 0.643971 0.668235
0.523644 0.657589 0.682100
0.302550 0.409755 0.071552
0.297103 0.404060 0.090369
0.291656 0.398366 0.108938
0.288190 0.396633 0.141867
0.288438 0.403318 0.203021
0.288933 0.410002 0.264422
0.305521 0.433523 0.337707
0.330280 0.465709 0.417182
0.354791 0.497648 0.496905
0.391681 0.535033 0.543451
0.428571 0.572419 0.589998
0.461500 0.605100 0.628126
0.487249 0.627631 0.649666
0.513246 0.650161 0.670958
0.534291 0.666502 0.687051
0.553355 0.679871 0.700421
0.572419 0.693241 0.713791
0.337955 0.459025 0.074771
0.332013 0.452092 0.090864
0.326071 0.445160 0.106957
0.321367 0.441446 0.137163
0.319386 0.444169 0.195345
0.317405 0.446893 0.253776
0.331518 0.466947 0.329785
0.353800 0.495420 0.415202
0.376083 0.523892 0.500371
0.417182 0.562515 0.554840
0.458034 0.601139 0.609309
0.494924 0.634811 0.653132
0.523892 0.658579 0.676405
0.552612 0.682100 0.699431
0.576133 0.698688 0.716019
0.596682 0.711562 0.729388
0.617232 0.724684 0.742510
0.375340 0.509037 0.077990
0.369151 0.501362 0.092350
0.362961 0.493439 0.106710
0.357514 0.487992 0.134439
0.353800 0.487002 0.188413
0.350087 0.486259 0.242387
0.360980 0.501362 0.318148
0.379549 0.524882 0.404803
0.397871 0.548155 0.491211
0.438475 0.584798 0.553355
0.479079 0.621689 0.615499
0.517455 0.654617 0.666006
0.550631 0.679871 0.692993
0.584055 0.705373 0.719980
0.609804 0.722456 0.738054
0.631840 0.735083 0.751424
0.653875 0.747957 0.764793
0.412726 0.559297 0.081456
0.406289 0.550631 0.093835
0.399851 0.541718 0.106462
0.393662 0.534538 0.131468
0.388215 0.529834 0.181233
0.382520 0.525378 0.230998
0.390443 0.536024 0.306264
0.405051 0.554345 0.394405
0.419658 0.572419 0.482298
0.460015 0.607329 0.552117
0.500371 0.641991 0.621936
0.539985 0.674177 0.678633
0.577618 0.701411 0.709582
0.615499 0.728398 0.740530
0.643724 0.745977 0.759842
0.667244 0.758604 0.773706
0.690765 0.771478 0.787324
0.451845 0.600644 0.085665
0.445160 0.591978 0.096806
0.438722 0.583313 0.108195
0.431790 0.575390 0.131221
0.424858 0.568705 0.177272
0.417678 0.562020 0.223323
0.422877 0.568705 0.296856
0.434266 0.582075 0.384254
0.445655 0.595692 0.471651
0.484031 0.627135 0.546670
0.522407 0.658579 0.621689
0.561278 0.688784 0.683337
0.601139 0.716266 0.718495
0.640753 0.743748 0.753652
0.670463 0.761822 0.775687
0.694974 0.775192 0.790790
0.719485 0.788562 0.806140
0.491458 0.637286 0.090369
0.485021 0.629364 0.100520
0.478336 0.621689 0.110919
0.470909 0.613766 0.131963
0.462491 0.605348 0.174796
0.453825 0.597178 0.217381
0.456796 0.600396 0.288685
0.465214 0.609309 0.374350
0.473880 0.618222 0.460015
0.509532 0.645952 0.539242
0.544937 0.673434 0.618222
0.582075 0.700668 0.684080
0.622679 0.727903 0.723694
0.663035 0.754890 0.763308
0.693488 0.773706 0.788314
0.718990 0.788066 0.805645
0.744244 0.802426 0.823224
0.531320 0.673929 0.095073
0.524635 0.666749 0.104234
0.517950 0.659817 0.113642
0.510027 0.651894 0.132954
0.500124 0.641991 0.172320
0.490220 0.632335 0.211438
0.490716 0.632087 0.280515
0.496410 0.636544 0.364694
0.502104 0.641000 0.448626
0.534786 0.664521 0.531815
0.567467 0.688289 0.614756
0.602872 0.712800 0.684823
0.644219 0.739540 0.728893
0.685566 0.766279 0.772964
0.716514 0.785590 0.800693
0.742758 0.800941 0.820500
0.769002 0.816539 0.840307
0.112899 0.068334 0.065363
0.119584 0.075761 0.076752
0.126269 0.083436 0.087893
0.132954 0.095568 0.104976
0.139391 0.116861 0.133201
0.145581 0.138153 0.161426
0.154741 0.161674 0.190394
0.164892 0.186185 0.219609
0.175291 0.210696 0.248824
0.185194 0.232483 0.272840
0.195098 0.254271 0.297103
0.204258 0.274821 0.319138
0.212676 0.291904 0.337212
0.220847 0.308987 0.355286
0.226789 0.323100 0.368903
0.231988 0.335479 0.380540
0.236940 0.348106 0.391929
0.115128 0.092102 0.063382
0.119832 0.097549 0.082694
0.124288 0.103243 0.102005
0.129983 0.114137 0.124288
0.137658 0.135182 0.152265
0.145085 0.156227 0.180490
0.155484 0.179995 0.209705
0.167368 0.205249 0.239663
0.179005 0.230503 0.269621
0.190641 0.253776 0.294627
0.202278 0.277049 0.319634
0.213419 0.298589 0.342659
0.223323 0.316910 0.361476
0.233474 0.335231 0.380292
0.240901 0.349839 0.394900
0.247338 0.362714 0.407279
0.253776 0.375588 0.419658
0.117603 0.115623 0.061649
0.120079 0.119584 0.088883
0.122555 0.123298 0.116118
0.127012 0.132706 0.143600
0.135925 0.153256 0.171577
0.144590 0.174053 0.199554
0.156474 0.198316 0.229265
0.169596 0.224313 0.259718
0.182719 0.250557 0.290418
0.196336 0.275068 0.316167
0.209705 0.299579 0.341916
0.222580 0.322357 0.365932
0.234216 0.341916 0.385739
0.246101 0.361228 0.405298
0.255014 0.376578 0.420896
0.262936 0.389700 0.434266
0.270612 0.403070 0.447636
0.126269 0.142610 0.060411
0.126764 0.144590 0.092845
0.127507 0.146571 0.125279
0.131221 0.154494 0.157217
0.140629 0.175043 0.188908
0.150037 0.195345 0.220599
0.163159 0.220352 0.252043
0.177767 0.247586 0.283734
0.192622 0.274821 0.315425
0.207725 0.300569 0.341916
0.223075 0.326318 0.368408
0.237435 0.350334 0.392919
0.250805 0.370636 0.413469
0.263927 0.390938 0.433771
0.274573 0.406784 0.449864
0.283734 0.420649 0.464224
0.292894 0.434266 0.478336
0.147314 0.176281 0.060659
0.147066 0.176281 0.092597
0.146819 0.176529 0.124536
0.149542 0.183461 0.159941
0.158455 0.203763 0.202773
0.167121 0.223818 0.245605
0.181233 0.250062 0.282000
0.198069 0.279277 0.315425
0.214657 0.308245 0.348601
0.231245 0.334984 0.375836
0.247834 0.361723 0.403070
0.263927 0.386482 0.427829
0.278287 0.407279 0.448131
0.292894 0.428076 0.468433
0.304778 0.444417 0.485269
0.315177 0.458529 0.500124
0.325823 0.472642 0.515227
0.168359 0.209705 0.060906
0.167121 0.208220 0.092350
0.165883 0.206734 0.123793
0.167616 0.212429 0.162664
0.176034 0.232236 0.216638
0.184204 0.252290 0.270612
0.199554 0.279772 0.311958
0.218123 0.310720 0.346868
0.236940 0.341669 0.381778
0.255014 0.369398 0.409755
0.272840 0.397128 0.437485
0.290171 0.422629 0.462738
0.306016 0.443922 0.483040
0.321862 0.464967 0.503342
0.334984 0.481802 0.520673
0.346868 0.496410 0.536271
0.358752 0.511018 0.551869
0.195593 0.250557 0.062639
0.193365 0.247834 0.091607
0.191384 0.245110 0.120574
0.192127 0.249072 0.160188
0.198812 0.267145 0.220847
0.205496 0.284972 0.281258
0.221837 0.312949 0.330280
0.243129 0.345630 0.373360
0.264422 0.378559 0.416687
0.284724 0.407527 0.445407
0.304778 0.436494 0.474375
0.324090 0.462738 0.500371
0.341669 0.484278 0.520673
0.359247 0.505571 0.540728
0.373855 0.522407 0.557811
0.387225 0.537262 0.573162
0.400594 0.551869 0.588760
0.225551 0.295370 0.064868
0.222827 0.291409 0.090616
0.220352 0.287447 0.116365
0.219856 0.289923 0.154989
0.224313 0.304778 0.219856
0.228522 0.319881 0.284724
0.246101 0.347858 0.342659
0.270364 0.382273 0.397376
0.294627 0.416687 0.452092
0.317405 0.447140 0.482298
0.340431 0.477593 0.512503
0.361971 0.505076 0.539242
0.381530 0.526616 0.559297
0.401089 0.547908 0.579351
0.417430 0.564744 0.595940
0.432038 0.579104 0.610795
0.446645 0.593711 0.625650
0.255509 0.340183 0.067343
0.252290 0.334984 0.089626
0.249072 0.330032 0.112156
0.247586 0.330527 0.150037
0.249814 0.342659 0.218866
0.251795 0.354543 0.287943
0.270612 0.382768 0.355038
0.297846 0.418916 0.421391
0.324833 0.455063 0.487744
0.350334 0.487002 0.518940
0.375836 0.518940 0.550384
0.399851 0.547413 0.578113
0.421391 0.568953 0.597920
0.442931 0.590493 0.617975
0.460758 0.607081 0.634068
0.476851 0.621193 0.648180
0.492944 0.635553 0.662540
0.291161 0.389205 0.070562
0.287447 0.383263 0.089874
0.283981 0.377569 0.109433
0.281505 0.376331 0.144343
0.281258 0.384254 0.209953
0.281010 0.392424 0.275811
0.297598 0.417182 0.347363
0.322605 0.450111 0.421887
0.347611 0.483040 0.496410
0.378807 0.517207 0.535776
0.410002 0.551374 0.575390
0.438475 0.581580 0.608566
0.462243 0.603615 0.629116
0.486011 0.625650 0.649666
0.505571 0.642238 0.665759
0.522902 0.655855 0.679376
0.540233 0.669473 0.693241
0.326566 0.438227 0.073533
0.322605 0.431542 0.090121
0.318891 0.425105 0.106710
0.315425 0.422134 0.138648
0.312701 0.426096 0.201040
0.309978 0.430057 0.263679
0.324585 0.451349 0.339688
0.347611 0.481307 0.422382
0.370389 0.511265 0.505076
0.407279 0.547660 0.552612
0.443922 0.584055 0.600396
0.477098 0.615746 0.639020
0.503095 0.638277 0.660312
0.529339 0.660807 0.681604
0.550384 0.677148 0.697450
0.568953 0.690517 0.710819
0.587522 0.703640 0.723942
0.363209 0.487249 0.076752
0.359000 0.480069 0.090864
0.355038 0.472889 0.104976
0.350582 0.468433 0.133944
0.345878 0.468680 0.192622
0.341174 0.468928 0.251300
0.353058 0.486259 0.329785
0.373360 0.512255 0.418420
0.393662 0.538252 0.507056
0.433771 0.575390 0.562763
0.473880 0.612528 0.618470
0.510275 0.645209 0.663283
0.539242 0.668482 0.686309
0.568210 0.691755 0.709334
0.591235 0.708096 0.725675
0.611042 0.720971 0.738549
0.630849 0.733845 0.751671
0.402327 0.536767 0.080218
0.397871 0.529091 0.092350
0.393414 0.521416 0.104729
0.388215 0.515474 0.130725
0.382025 0.512503 0.184452
0.375836 0.509284 0.238178
0.384501 0.522159 0.316167
0.400842 0.542709 0.406041
0.417182 0.563506 0.495667
0.456301 0.598168 0.559544
0.495667 0.633078 0.623422
0.532805 0.664521 0.674920
0.565734 0.689279 0.701906
0.598415 0.714038 0.728893
0.623669 0.730626 0.746719
0.644962 0.743501 0.759842
0.666254 0.756128 0.773211
0.441446 0.586036 0.083436
0.436494 0.577866 0.094083
0.431790 0.569943 0.104481
0.425848 0.562515 0.127754
0.418173 0.556078 0.176529
0.410498 0.549889 0.225303
0.416192 0.558059 0.302303
0.428324 0.573409 0.393414
0.440703 0.588760 0.484526
0.479079 0.621193 0.556326
0.517455 0.653627 0.628373
0.555088 0.684080 0.686556
0.591978 0.710077 0.717504
0.628621 0.736321 0.748205
0.656103 0.753404 0.767517
0.678881 0.765784 0.781134
0.701411 0.778163 0.794999
0.481060 0.626145 0.087893
0.475860 0.618222 0.097054
0.470661 0.610547 0.106214
0.464224 0.602624 0.127259
0.455311 0.594702 0.171825
0.446645 0.586531 0.216390
0.449616 0.590988 0.291409
0.458777 0.601634 0.381530
0.467938 0.612280 0.471651
0.503838 0.641495 0.549146
0.539738 0.670463 0.626888
0.576628 0.698440 0.690270
0.614756 0.724684 0.725427
0.653132 0.750928 0.760584
0.681604 0.768259 0.782372
0.705125 0.781382 0.797475
0.728893 0.794504 0.812330
0.520921 0.661550 0.092597
0.515227 0.654122 0.100768
0.509780 0.646942 0.108938
0.502847 0.639267 0.127754
0.493191 0.630354 0.168606
0.483288 0.621193 0.209458
0.484278 0.622679 0.281753
0.490716 0.628869 0.370141
0.496905 0.635306 0.458282
0.529834 0.660312 0.540233
0.562763 0.685318 0.622184
0.597425 0.710572 0.690022
0.636049 0.736321 0.729884
0.674672 0.761822 0.769497
0.703640 0.779648 0.794008
0.727903 0.793513 0.811092
0.752166 0.807626 0.827928
0.560782 0.696955 0.097301
0.554840 0.690270 0.104481
0.548898 0.683585 0.111414
0.541471 0.675910 0.128497
0.530824 0.666006 0.165635
0.520178 0.656103 0.202525
0.518940 0.654122 0.272345
0.522407 0.656103 0.358505
0.525873 0.658331 0.444665
0.555831 0.679376 0.531072
0.585541 0.700421 0.617480
0.618222 0.722704 0.689775
0.657093 0.747710 0.734093
0.695964 0.772716 0.778410
0.725675 0.791037 0.805893
0.750681 0.805893 0.824462
0.775439 0.820748 0.843278
0.154494 0.069324 0.071305
0.164397 0.073781 0.078237
0.174301 0.078237 0.085170
0.181481 0.089379 0.100768
0.183214 0.114385 0.133696
0.185194 0.139143 0.166625
0.191136 0.166873 0.200297
0.199554 0.195841 0.233969
0.207725 0.225056 0.267641
0.216638 0.250309 0.294875
0.225303 0.275811 0.322109
0.233721 0.299332 0.346868
0.241644 0.319138 0.366427
0.249567 0.338945 0.385987
0.256004 0.355038 0.401337
0.261946 0.368903 0.414211
0.267641 0.382768 0.427086
0.146323 0.099282 0.067591
0.153503 0.102005 0.084674
0.160683 0.104729 0.102005
0.166873 0.114137 0.124041
0.170587 0.137163 0.155979
0.174301 0.160188 0.187918
0.182719 0.187175 0.220599
0.193117 0.215895 0.254023
0.203516 0.244863 0.287447
0.214905 0.271107 0.314929
0.226541 0.297598 0.342411
0.237435 0.322109 0.367418
0.247834 0.342411 0.387720
0.257985 0.362961 0.407774
0.266155 0.378807 0.423372
0.273335 0.392671 0.436742
0.280515 0.406289 0.449864
0.137905 0.129487 0.063630
0.142610 0.130230 0.091112
0.147066 0.131221 0.118594
0.152018 0.138896 0.147066
0.157960 0.159941 0.178014
0.163654 0.181233 0.208963
0.174053 0.207477 0.241149
0.186680 0.236197 0.274325
0.199554 0.264669 0.307254
0.213419 0.292152 0.334984
0.227532 0.319386 0.362714
0.241149 0.344640 0.387967
0.253776 0.365685 0.408765
0.266403 0.386977 0.429562
0.276306 0.402822 0.445655
0.284724 0.416192 0.459272
0.293142 0.429809 0.472642
0.140134 0.161179 0.061154
0.142362 0.160436 0.095073
0.144838 0.159445 0.128745
0.148552 0.165635 0.162664
0.155484 0.185442 0.196831
0.162169 0.205249 0.230998
0.174301 0.230998 0.264422
0.189156 0.259965 0.297846
0.204011 0.288685 0.331270
0.220352 0.316910 0.359000
0.236445 0.344887 0.386977
0.252290 0.370884 0.412478
0.266898 0.392671 0.433771
0.281258 0.414211 0.454816
0.292894 0.430552 0.471404
0.302550 0.443922 0.485269
0.312454 0.457291 0.499381
0.162912 0.196831 0.061401
0.163654 0.194107 0.093835
0.164645 0.191632 0.126021
0.167121 0.196336 0.162912
0.173310 0.215647 0.208963
0.179252 0.234959 0.254766
0.192374 0.261203 0.293389
0.208963 0.291161 0.328052
0.225798 0.321119 0.362961
0.243377 0.349839 0.391186
0.261203 0.378311 0.419411
0.278287 0.404556 0.445160
0.293885 0.426591 0.465957
0.309483 0.448378 0.487002
0.322357 0.465214 0.503838
0.333746 0.479327 0.518940
0.345383 0.493439 0.534043
0.185690 0.232236 0.061401
0.184947 0.228027 0.092597
0.184452 0.223818 0.123545
0.185690 0.227284 0.163407
0.190889 0.245853 0.221094
0.196088 0.264669 0.278782
0.210448 0.291409 0.322109
0.229017 0.322605 0.358257
0.247586 0.353553 0.394652
0.266650 0.382520 0.423125
0.285714 0.411488 0.451845
0.304036 0.438227 0.477593
0.320872 0.460510 0.498391
0.337707 0.482545 0.518940
0.352067 0.499876 0.536519
0.364942 0.514731 0.552364
0.378064 0.529587 0.568458
0.214410 0.274821 0.063382
0.212924 0.269621 0.091359
0.211438 0.264422 0.119336
0.211438 0.266155 0.159445
0.214905 0.282496 0.223570
0.218371 0.298589 0.287695
0.233474 0.325576 0.338945
0.254518 0.357762 0.383758
0.275316 0.389948 0.428324
0.296856 0.419906 0.457787
0.318148 0.449864 0.487497
0.338450 0.477098 0.513989
0.357019 0.499133 0.534291
0.375340 0.521416 0.554593
0.390938 0.538747 0.571924
0.405298 0.553602 0.587769
0.419411 0.568458 0.603615
0.245853 0.321119 0.066105
0.243872 0.314929 0.090369
0.241892 0.308987 0.114632
0.240901 0.308987 0.153503
0.241892 0.321862 0.221590
0.242882 0.334736 0.289428
0.258975 0.361476 0.349839
0.282496 0.394900 0.406536
0.306264 0.428324 0.463233
0.330280 0.459272 0.493934
0.354296 0.490468 0.524882
0.377074 0.518445 0.552117
0.397376 0.540480 0.572171
0.417678 0.562515 0.592473
0.434513 0.579599 0.609062
0.449864 0.593959 0.624164
0.465214 0.608566 0.639267
0.277544 0.367418 0.068581
0.275068 0.360485 0.089379
0.272345 0.353553 0.109928
0.270116 0.352067 0.147561
0.268878 0.361476 0.219361
0.267641 0.371131 0.291161
0.284724 0.397376 0.360733
0.310720 0.432038 0.429314
0.336965 0.466700 0.497896
0.363704 0.498886 0.530082
0.390443 0.530824 0.562268
0.415697 0.559792 0.590245
0.437732 0.581580 0.610300
0.459767 0.603615 0.630106
0.478089 0.620451 0.646200
0.494429 0.634563 0.660312
0.511018 0.648675 0.674672
0.313939 0.416935 0.072048
0.311711 0.409755 0.089626
0.309235 0.402822 0.107205
0.306512 0.399851 0.141619
0.303045 0.405298 0.209210
0.299579 0.410745 0.277049
0.314187 0.433276 0.351077
0.337707 0.464471 0.428324
0.361476 0.495667 0.505571
0.393167 0.529339 0.546175
0.425105 0.563258 0.586531
0.454320 0.593216 0.620203
0.478336 0.615251 0.640753
0.502600 0.637534 0.661055
0.522159 0.654122 0.677148
0.539490 0.667740 0.690765
0.556821 0.681604 0.704382
0.350582 0.466452 0.075761
0.348354 0.459272 0.090121
0.346125 0.451845 0.104729
0.342659 0.447388 0.135430
0.336965 0.448873 0.199307
0.331270 0.450359 0.262936
0.343649 0.469176 0.341421
0.364942 0.496905 0.427581
0.385987 0.524635 0.513493
0.422877 0.560040 0.562020
0.459520 0.595444 0.610547
0.492696 0.626640 0.649913
0.518940 0.649171 0.671206
0.545432 0.671701 0.692251
0.566477 0.688042 0.708096
0.584551 0.701164 0.720971
0.602872 0.714286 0.734093
0.388462 0.515722 0.079228
0.386234 0.508294 0.090864
0.384006 0.500867 0.102748
0.380045 0.495172 0.130478
0.372369 0.492944 0.189651
0.364942 0.490716 0.248824
0.374598 0.505571 0.329785
0.392671 0.529339 0.421887
0.410993 0.552860 0.513989
0.450359 0.588264 0.570933
0.489725 0.623917 0.627878
0.525625 0.655360 0.673434
0.554840 0.678386 0.696212
0.583808 0.701411 0.719237
0.606091 0.717752 0.735331
0.625402 0.730379 0.747957
0.644714 0.743006 0.760832
0.429067 0.564249 0.082446
0.426591 0.556821 0.092597
0.423867 0.549393 0.102748
0.419163 0.542709 0.127259
0.410250 0.537757 0.180738
0.401585 0.532558 0.234216
0.408022 0.542956 0.313939
0.422134 0.560782 0.407031
0.436247 0.578856 0.500371
0.474127 0.611785 0.565734
0.512008 0.644466 0.631344
0.548155 0.674424 0.683833
0.580342 0.698688 0.710819
0.612775 0.722704 0.737559
0.637286 0.739044 0.755385
0.657836 0.751671 0.768507
0.678386 0.764050 0.781629
0.469918 0.612528 0.085912
0.466700 0.605348 0.094083
0.463481 0.597920 0.102501
0.458034 0.590493 0.124041
0.448131 0.582570 0.171825
0.438227 0.574647 0.219609
0.441693 0.580094 0.298341
0.451597 0.592473 0.392424
0.461748 0.604853 0.486507
0.497896 0.635058 0.560535
0.534291 0.665264 0.634811
0.570438 0.693736 0.694479
0.606091 0.718990 0.725179
0.641991 0.743996 0.755880
0.668482 0.760584 0.775192
0.690270 0.772964 0.788809
0.712057 0.785095 0.802426
0.510027 0.651399 0.090121
0.506313 0.644466 0.097054
0.502600 0.637534 0.104234
0.496658 0.629611 0.123298
0.486011 0.620451 0.166378
0.475365 0.611290 0.209458
0.476356 0.613518 0.285714
0.483288 0.621193 0.378807
0.489973 0.628869 0.471651
0.523644 0.655608 0.551869
0.557316 0.682347 0.631840
0.591731 0.708344 0.697202
0.628621 0.733102 0.732359
0.665264 0.758108 0.767517
0.692746 0.774944 0.789057
0.715276 0.787571 0.803912
0.738054 0.800446 0.818767
0.550136 0.685566 0.094825
0.545680 0.679128 0.100768
0.541223 0.672444 0.106710
0.534786 0.664769 0.123793
0.523644 0.655113 0.162664
0.512751 0.645457 0.201535
0.511760 0.644714 0.275068
0.515969 0.648428 0.365685
0.519931 0.652142 0.456301
0.550136 0.674920 0.540976
0.580342 0.697450 0.625898
0.612775 0.720475 0.695964
0.649418 0.744491 0.735826
0.686061 0.768755 0.775687
0.713791 0.785838 0.799950
0.736816 0.799208 0.816291
0.760089 0.812577 0.832632
0.590245 0.719733 0.099530
0.585046 0.713543 0.104481
0.580094 0.707601 0.109433
0.572914 0.699926 0.124288
0.561525 0.689775 0.158950
0.550136 0.679624 0.193612
0.547165 0.676157 0.264174
0.548651 0.675910 0.352563
0.549889 0.675662 0.440951
0.576628 0.693984 0.530329
0.603615 0.712553 0.619955
0.633573 0.732607 0.694479
0.670215 0.755880 0.739292
0.706611 0.779401 0.784105
0.734588 0.796484 0.810844
0.758356 0.810597 0.828670
0.782124 0.824957 0.846497
0.213172 0.072790 0.077247
0.225056 0.075019 0.081951
0.236692 0.077247 0.086903
0.245110 0.086903 0.101510
0.246101 0.111909 0.135182
0.247338 0.136915 0.168854
0.252290 0.167368 0.205992
0.258727 0.200545 0.244863
0.265165 0.233721 0.283734
0.271849 0.263432 0.314929
0.278287 0.293142 0.345878
0.284972 0.320624 0.373855
0.291161 0.343649 0.395642
0.297351 0.366675 0.417678
0.303293 0.384996 0.434513
0.308740 0.401089 0.449369
0.314434 0.416935 0.463976
0.195098 0.106214 0.071305
