src-tauri/resources/luts/自然清新质感.3dl
# LUT by SparkleStock. Enhanced with VOXCOLOR algorithms.
0 256 512 768 1023
160 48 80
687 1257 3065
928 1775 3491
928 1775 3491
929 1777 3491
199 1042 347
591 1534 2640
939 1986 3476
934 1900 3481
924 1842 3486
435 2837 786
692 2875 2315
1146 2867 3548
1062 2623 3508
1002 2405 3511
584 3096 766
763 3255 1924
1240 3385 3538
1273 3331 3608
1250 3245 3612
624 3154 769
759 3275 1518
1233 3483 3488
1314 3446 3632
1329 3459 3635
1068 119 73
1067 908 2445
1175 1664 3411
1083 1716 3460
1030 1741 3473
824 665 173
848 1052 1773
1083 1752 3225
1015 1821 3459
977 1800 3483
622 2536 688
734 2390 1705
1145 2517 3261
1074 2379 3469
1017 2201 3493
641 3054 771
753 3146 1505
1258 3325 3430
1314 3245 3597
1271 3126 3595
642 3135 770
733 3220 1235
1184 3478 3303
1357 3437 3626
1361 3432 3632
3103 424 116
2758 670 1585
2530 1312 3045
2151 1499 3260
1822 1555 3321
2608 833 97
2194 919 1139
2076 1347 2672
1785 1614 3285
1460 1675 3391
2612 2072 192
2089 1898 1048
1864 2206 2773
1549 2254 3410
1277 2089 3492
1998 3021 506
1424 3003 1164
1645 3161 3098
1615 3105 3554
1430 2978 3572
1466 3143 592
996 3173 1119
1340 3455 2947
1529 3405 3615
1469 3408 3635
3409 500 131
3393 685 1292
3481 1227 2862
3455 1337 2995
3318 1358 3028
3296 773 145
3199 887 927
3266 1275 2545
3288 1451 3039
3098 1482 3129
3377 2060 292
3198 1819 880
3139 1963 2400
3090 2005 3193
2864 1863 3315
3557 3065 432
3291 2954 774
3010 2966 2417
2923 2991 3408
2679 2873 3590
3440 3189 476
3112 3208 676
2731 3351 2266
2662 3363 3581
2411 3340 3654
3523 512 128
3551 693 955
3711 1244 2850
3710 1276 2892
3715 1281 2882
3518 633 164
3607 755 644
3757 1275 2634
3732 1387 2954
3697 1389 2969
3618 1674 343
3745 1510 730
3874 1761 2192
3800 1845 3045
3667 1678 3122
3712 3032 481
3806 2899 767
3868 2854 1979
3774 2888 3256
3647 2749 3572
3715 3186 496
3730 3235 655
3718 3332 1669
3593 3309 3417
3523 3250 3683
