src-tauri/resources/luts/自然清新质感.cube
# Converted from .3dl using Python
LUT_3D_SIZE 17
DOMAIN_MIN 0.0 0.0 0.0
DOMAIN_MAX 1.0 1.0 1.0
0.041152 0.012346 0.020576
0.074331 0.087191 0.272377
0.107253 0.162037 0.524177
0.141204 0.239712 0.716049
0.176698 0.323302 0.788323
0.212449 0.406893 0.860340
0.227881 0.440072 0.887603
0.233282 0.448302 0.892747
0.238683 0.456533 0.897891
0.238683 0.456533 0.897891
0.238683 0.456790 0.897891
0.238683 0.456790 0.897891
0.238683 0.456533 0.897891
0.238940 0.456276 0.897891
0.238940 0.456533 0.897891
0.238940 0.456790 0.897891
0.238940 0.457047 0.897891
0.041152 0.045782 0.028035
0.070730 0.106739 0.260802
0.100051 0.167695 0.493827
0.131944 0.236626 0.677726
0.168981 0.322274 0.763632
0.206019 0.407665 0.849537
0.223508 0.442130 0.882716
0.230967 0.451646 0.889918
0.238426 0.460905 0.897119
0.238426 0.460134 0.897119
0.238426 0.459362 0.897119
0.238426 0.458848 0.897119
0.238426 0.458333 0.896862
0.238426 0.457819 0.896862
0.238426 0.457562 0.896862
0.238683 0.457562 0.896862
0.238940 0.457562 0.897119
0.041152 0.079475 0.035237
0.066872 0.126286 0.249228
0.092850 0.173354 0.463477
0.122942 0.233796 0.639403
0.161523 0.320988 0.738940
0.199846 0.408179 0.838735
0.219136 0.444444 0.878086
0.228652 0.454733 0.887088
0.238426 0.465278 0.896091
0.238426 0.463735 0.896348
0.238426 0.462191 0.896348
0.238169 0.460905 0.896348
0.238169 0.460134 0.896091
0.237912 0.459105 0.895833
0.237912 0.458591 0.895833
0.238426 0.458333 0.896091
0.238683 0.458333 0.896091
0.043724 0.143519 0.052469
0.065329 0.174640 0.241770
0.087191 0.206019 0.431327
0.114969 0.254887 0.595936
0.155093 0.338735 0.711677
0.195216 0.422839 0.827418
0.216307 0.457819 0.873200
0.227623 0.468364 0.884259
0.238940 0.478652 0.895062
0.238940 0.475823 0.895319
0.238940 0.472737 0.895576
0.238683 0.470165 0.895576
0.238426 0.468107 0.895319
0.238169 0.466049 0.895062
0.238169 0.464506 0.895319
0.238169 0.463477 0.895576
0.238426 0.462449 0.895833
0.051183 0.268004 0.089249
0.067901 0.280350 0.242541
0.084619 0.292438 0.395576
0.109825 0.324074 0.543210
0.152006 0.394547 0.679012
0.194187 0.465021 0.814815
0.216564 0.494084 0.868570
0.228909 0.502572 0.881430
0.241512 0.510802 0.894033
0.240998 0.504887 0.894547
0.240741 0.499228 0.895062
0.240484 0.493570 0.895319
0.240226 0.488683 0.895319
0.239712 0.483796 0.895319
0.238940 0.480195 0.895576
0.238426 0.476852 0.896091
0.237654 0.473765 0.896605
0.058385 0.392747 0.126029
0.070216 0.386060 0.243056
0.081790 0.379115 0.360082
0.104424 0.393519 0.490226
0.148663 0.450360 0.646091
0.192901 0.507202 0.802212
0.216821 0.530350 0.863940
0.230195 0.536523 0.878344
0.243827 0.542953 0.892747
0.243313 0.534208 0.893776
0.242798 0.525463 0.894547
0.242284 0.516975 0.895062
0.241770 0.509516 0.895319
0.241255 0.501800 0.895319
0.239969 0.495628 0.895833
0.238426 0.490226 0.896605
0.236626 0.484825 0.897377
0.073817 0.508230 0.154321
0.082305 0.497685 0.247171
0.091049 0.487140 0.340021
0.111368 0.494342 0.457819
0.155093 0.536523 0.625257
0.199074 0.578961 0.792953
0.224537 0.594650 0.860854
0.240741 0.597222 0.879115
0.257202 0.599537 0.897377
0.254887 0.588220 0.897119
0.252829 0.576903 0.896862
0.251029 0.566101 0.896605
0.250000 0.556070 0.896862
0.249228 0.545782 0.897377
0.247171 0.537294 0.897891
0.244342 0.529064 0.898405
0.241770 0.521091 0.898920
0.092850 0.619084 0.178241
0.099280 0.612397 0.253086
0.105967 0.605967 0.327675
0.124228 0.610597 0.435700
0.166409 0.638117 0.610340
0.208848 0.665638 0.784979
0.236111 0.673097 0.858539
0.255916 0.670782 0.881944
0.275977 0.668467 0.905093
0.271348 0.654578 0.902778
0.266461 0.640947 0.900206
0.263117 0.627572 0.898920
0.261574 0.615226 0.899691
0.260288 0.603138 0.900463
0.257459 0.591564 0.900720
0.253601 0.580761 0.900977
0.249743 0.569959 0.900977
0.111883 0.729681 0.202160
0.116255 0.727109 0.258745
0.120628 0.724537 0.315329
0.137346 0.727109 0.413580
0.177984 0.739455 0.595422
0.218364 0.752058 0.777006
0.247685 0.751543 0.856481
0.271091 0.744342 0.884516
0.294753 0.737397 0.912551
0.287551 0.721193 0.908179
0.280350 0.704990 0.903807
0.275206 0.689300 0.901235
0.273148 0.674640 0.902263
0.271348 0.660237 0.903549
0.267490 0.646091 0.903549
0.262603 0.632459 0.903292
0.257716 0.618570 0.903035
0.124486 0.751543 0.200874
0.129115 0.751800 0.249743
0.134002 0.752315 0.298611
0.149434 0.757973 0.391204
0.186214 0.774949 0.570988
0.222737 0.791924 0.750772
0.252572 0.793981 0.836934
0.279064 0.788323 0.876029
0.305556 0.782922 0.915381
0.301955 0.771348 0.913837
0.298354 0.760031 0.912551
0.295267 0.748200 0.911780
0.292695 0.735854 0.911780
0.290381 0.723765 0.911780
0.286780 0.711163 0.911780
0.282407 0.698560 0.911523
0.278292 0.685957 0.911523
0.137088 0.773405 0.199331
0.142233 0.776492 0.240741
0.147377 0.779835 0.281893
0.161523 0.789095 0.368570
0.194444 0.810442 0.546553
0.227109 0.831790 0.724280
0.257459 0.836420 0.817130
0.286780 0.832305 0.867541
0.316101 0.828447 0.917953
0.316358 0.821759 0.919496
0.316358 0.814815 0.921296
0.315329 0.807099 0.922068
0.312243 0.797068 0.921039
0.309156 0.787037 0.920010
0.305813 0.776235 0.919753
0.302212 0.764918 0.919753
0.298611 0.753344 0.920010
0.146605 0.790123 0.198045
0.151492 0.794753 0.232767
0.156636 0.799640 0.267490
0.169753 0.810700 0.348251
0.199074 0.834877 0.521348
0.228395 0.858796 0.694444
0.259002 0.865484 0.793467
0.290638 0.863683 0.855453
0.322274 0.861883 0.917181
0.325103 0.858282 0.921811
0.328189 0.854938 0.926183
0.328961 0.850051 0.928755
0.325874 0.842593 0.927469
0.322531 0.835134 0.925926
0.319959 0.826389 0.925669
0.317130 0.816872 0.926183
0.314558 0.807356 0.926440
0.150206 0.796296 0.197016
0.154064 0.800154 0.227366
0.157922 0.804270 0.257973
0.169239 0.814300 0.332562
0.196245 0.837191 0.494856
0.223251 0.859825 0.657150
0.253858 0.868313 0.760802
0.286523 0.869599 0.835391
0.318930 0.870628 0.909979
0.323302 0.868056 0.916924
0.327418 0.865226 0.923611
0.329475 0.861625 0.928241
0.327418 0.856739 0.927984
0.325103 0.851852 0.927469
0.323560 0.846451 0.927726
0.322531 0.840535 0.928498
0.321502 0.834619 0.929012
0.153807 0.802469 0.195730
0.156379 0.805556 0.221965
0.159208 0.808899 0.248457
0.168981 0.818158 0.316615
0.193673 0.839506 0.468364
0.218364 0.860854 0.619856
0.248714 0.870885 0.728395
0.282150 0.875257 0.815329
0.315586 0.879630 0.902521
0.321245 0.877572 0.911780
0.326903 0.875514 0.921296
0.330247 0.873200 0.927726
0.328704 0.871142 0.928498
0.327418 0.868827 0.929270
0.327161 0.866512 0.930041
0.327932 0.864198 0.930813
0.328447 0.861883 0.931584
0.156379 0.806070 0.195988
0.158951 0.809156 0.218879
0.161780 0.812243 0.242027
0.170782 0.820730 0.303498
0.193416 0.840792 0.442130
0.215792 0.860597 0.580761
0.246399 0.871914 0.695216
0.280864 0.879115 0.797068
0.315072 0.886060 0.899177
0.321759 0.883745 0.910237
0.328189 0.881430 0.921553
0.332305 0.879630 0.929012
0.331276 0.878344 0.930041
0.330504 0.877315 0.931070
0.331019 0.876543 0.931584
0.332305 0.876029 0.932356
0.333591 0.875514 0.932870
0.158436 0.808642 0.196759
0.161780 0.811728 0.216821
0.164866 0.815072 0.236883
0.173868 0.823045 0.291667
0.194187 0.841564 0.416152
0.214763 0.859825 0.540895
0.245370 0.872171 0.661265
0.280607 0.881430 0.779835
0.316101 0.890947 0.898148
0.323302 0.888117 0.910494
0.330247 0.885288 0.922840
0.334877 0.883230 0.931584
0.334619 0.882459 0.932099
0.334105 0.881687 0.932870
0.334877 0.881687 0.933385
0.336420 0.882202 0.933642
0.337706 0.882716 0.933899
0.160494 0.811214 0.197788
0.164352 0.814558 0.214763
0.167953 0.817901 0.231739
0.176698 0.825617 0.279835
0.195216 0.842335 0.390432
0.213735 0.858796 0.500772
0.244342 0.872171 0.627315
0.280607 0.884002 0.762346
0.317130 0.895833 0.897119
0.324846 0.892490 0.910751
0.332562 0.889146 0.924383
0.337706 0.886831 0.933899
0.337963 0.886317 0.934156
0.337963 0.886060 0.934671
0.338992 0.886831 0.934928
0.340278 0.888117 0.934928
0.341821 0.889660 0.934928
0.068673 0.012860 0.020319
0.094393 0.077418 0.255401
0.119856 0.141975 0.490484
0.148405 0.214506 0.675926
0.182356 0.302984 0.761317
0.216564 0.391461 0.846708
0.231996 0.429012 0.880658
0.237912 0.440844 0.888889
0.244084 0.452675 0.896862
0.243570 0.453447 0.897119
0.243056 0.454475 0.897377
0.242541 0.454990 0.897634
0.242541 0.454733 0.897634
0.242284 0.454475 0.897634
0.242284 0.454733 0.897634
0.242284 0.455247 0.897634
0.242284 0.456019 0.897891
0.067130 0.039352 0.025463
0.089249 0.091821 0.238169
0.111368 0.144033 0.450617
0.137860 0.208848 0.626029
0.173354 0.298868 0.727366
0.208591 0.388632 0.828447
0.226080 0.428241 0.870370
0.234568 0.442387 0.882202
0.243056 0.456533 0.894290
0.242541 0.456790 0.895062
0.242027 0.457047 0.896091
0.241770 0.457305 0.896605
0.241512 0.456790 0.896862
0.241512 0.456276 0.896862
0.241255 0.456276 0.896862
0.241512 0.456533 0.896862
0.241512 0.456790 0.896862
0.065586 0.065844 0.030864
0.084362 0.105967 0.220936
0.102881 0.146091 0.410751
0.127315 0.203447 0.576389
0.164095 0.294753 0.693416
0.200874 0.386060 0.810442
0.220422 0.427469 0.859825
0.231224 0.443673 0.875772
0.242027 0.460134 0.891461
0.241512 0.459877 0.893261
0.241255 0.459877 0.894805
0.240998 0.459362 0.895833
0.240741 0.458848 0.895833
0.240741 0.458333 0.895833
0.240484 0.457819 0.895833
0.240484 0.457819 0.896091
0.240484 0.457562 0.896091
0.065072 0.122171 0.046039
0.080247 0.148405 0.209362
0.095422 0.174640 0.372685
0.118313 0.221451 0.525977
0.156379 0.309156 0.659465
0.194702 0.396605 0.793210
0.216049 0.437500 0.850566
0.228909 0.454733 0.869856
0.241770 0.471965 0.889146
0.241512 0.470679 0.891461
0.240998 0.469136 0.893776
0.240741 0.467593 0.895319
0.240741 0.466049 0.895319
0.240484 0.464506 0.895319
0.240226 0.463477 0.895319
0.240226 0.462449 0.895576
0.239969 0.461420 0.895833
0.066358 0.238426 0.080504
0.078189 0.247428 0.209105
0.090021 0.256173 0.337706
0.111368 0.286780 0.474023
0.151492 0.360597 0.625772
0.191615 0.434414 0.777778
0.214506 0.469136 0.843107
0.228909 0.484568 0.864969
0.243056 0.500000 0.886831
0.242798 0.496142 0.889918
0.242541 0.492027 0.892747
0.242284 0.487912 0.894805
0.241770 0.483796 0.894805
0.241512 0.479938 0.895062
0.240998 0.476852 0.895576
0.240484 0.474023 0.896091
0.239969 0.471451 0.896862
0.067644 0.354424 0.115226
0.076132 0.346193 0.209105
0.084877 0.337963 0.302726
0.104681 0.352366 0.422068
0.146605 0.412294 0.592078
0.188529 0.471965 0.762346
0.212963 0.501029 0.835391
0.228909 0.514660 0.860082
0.244599 0.528035 0.884774
0.244342 0.521348 0.888375
0.244084 0.514660 0.891975
0.243570 0.508230 0.894290
0.243056 0.501800 0.894547
0.242541 0.495113 0.894805
0.241770 0.489969 0.895576
0.240741 0.485597 0.896862
0.239969 0.481224 0.897891
0.078961 0.474023 0.145576
0.085391 0.461677 0.217850
0.091821 0.449331 0.290381
0.110082 0.456019 0.397891
0.151235 0.500257 0.575617
0.192387 0.544496 0.753344
0.218621 0.565072 0.831533
0.237140 0.573817 0.860082
0.255916 0.582562 0.888375
0.254630 0.573302 0.890947
0.253086 0.563786 0.893776
0.251800 0.554527 0.895576
0.250772 0.545525 0.896091
0.249743 0.536523 0.896348
0.248200 0.528807 0.897119
0.246399 0.521605 0.898148
0.244342 0.514660 0.898920
0.095679 0.595165 0.173611
0.100309 0.585648 0.231481
0.105195 0.575875 0.289095
0.121399 0.578704 0.387603
0.160494 0.606224 0.567644
0.199331 0.634002 0.747428
0.227366 0.645062 0.829218
0.250000 0.647634 0.862140
0.272377 0.650206 0.895062
0.269290 0.638117 0.895833
0.265947 0.625772 0.896862
0.263374 0.613940 0.897634
0.261574 0.602366 0.898148
0.259774 0.590535 0.898663
0.257202 0.579990 0.899177
0.254372 0.569959 0.899691
0.251286 0.559928 0.900206
0.112140 0.716564 0.201903
0.115226 0.709362 0.244856
0.118313 0.702418 0.288066
0.132716 0.701389 0.377572
0.169496 0.712449 0.559671
0.206533 0.723765 0.741512
0.236368 0.725051 0.827160
0.262603 0.721451 0.864198
0.289095 0.717850 0.901492
0.283951 0.702932 0.900720
0.278807 0.688014 0.899949
0.274691 0.673354 0.899691
0.272377 0.658951 0.900463
0.270062 0.644805 0.900977
0.266461 0.631430 0.901235
0.262346 0.618313 0.901492
0.258230 0.605195 0.901492
0.125257 0.743056 0.201132
0.128858 0.739969 0.238426
0.132459 0.737140 0.275977
0.146091 0.740226 0.360339
0.179012 0.755658 0.538066
0.212191 0.771091 0.715792
0.242798 0.774434 0.808128
0.272377 0.771605 0.857510
0.301698 0.769033 0.906636
0.299640 0.757973 0.907922
0.297582 0.747171 0.909465
0.295267 0.735597 0.910237
0.292438 0.722994 0.909979
0.289609 0.710391 0.909722
0.286265 0.697788 0.909722
0.282407 0.685442 0.909722
0.278549 0.672840 0.909722
0.138374 0.769547 0.200360
0.142490 0.770576 0.232253
0.146605 0.771605 0.263889
0.159208 0.779064 0.343107
0.188529 0.798868 0.516718
0.218107 0.818673 0.690072
0.249486 0.823817 0.789095
0.281893 0.822016 0.850566
0.314300 0.819959 0.912037
0.315329 0.813014 0.915381
0.316358 0.806070 0.918724
0.316101 0.797840 0.920525
0.312757 0.786780 0.919496
0.309414 0.775720 0.918467
0.305813 0.764146 0.917953
0.302212 0.752572 0.917953
0.298868 0.740741 0.917953
0.148405 0.789352 0.199331
0.152521 0.792953 0.226337
0.156636 0.796553 0.253344
0.168210 0.806327 0.326903
0.194444 0.828704 0.493313
0.220679 0.850823 0.659722
0.252572 0.858025 0.764660
0.287294 0.857767 0.838735
0.321759 0.857510 0.913066
0.325360 0.853652 0.918724
0.328961 0.849537 0.924383
0.330247 0.843879 0.927726
0.326903 0.835134 0.926183
0.323560 0.826132 0.924897
0.320730 0.816615 0.924383
0.317901 0.806327 0.924383
0.314815 0.796296 0.924383
0.151492 0.795267 0.197788
0.154835 0.798611 0.221708
0.158436 0.801698 0.245370
0.168724 0.810700 0.312500
0.192901 0.831533 0.466307
0.217078 0.852623 0.620113
0.248714 0.861883 0.729938
0.283951 0.864969 0.817644
0.319444 0.868313 0.905607
0.324331 0.864969 0.914095
0.329218 0.861625 0.922325
0.331790 0.857510 0.927984
0.329475 0.852109 0.927469
0.327418 0.846708 0.927212
0.325874 0.840535 0.927212
0.324588 0.834105 0.927726
0.323045 0.827418 0.927984
0.154835 0.801440 0.196502
0.157407 0.804012 0.216821
0.159979 0.806584 0.237397
0.168981 0.815072 0.298097
0.191358 0.834619 0.439300
0.213477 0.854424 0.580247
0.244856 0.865484 0.694959
0.280864 0.872171 0.796553
0.316872 0.878858 0.898148
0.323045 0.876286 0.909208
0.329218 0.873457 0.920525
0.333076 0.871142 0.927984
0.332305 0.869342 0.928755
0.331533 0.867541 0.929527
0.331276 0.864712 0.930298
0.331276 0.861625 0.930813
0.331019 0.858539 0.931327
0.157407 0.805298 0.196502
0.159722 0.807870 0.214506
0.162294 0.810185 0.232253
0.170782 0.817901 0.287037
0.191101 0.836163 0.414866
0.211677 0.854424 0.542953
0.242798 0.867027 0.662551
0.279064 0.876286 0.778035
0.315329 0.885802 0.893519
0.322788 0.882973 0.906893
0.330247 0.880401 0.920267
0.335134 0.878344 0.929527
0.335134 0.877572 0.930298
0.334877 0.877058 0.931327
0.335134 0.876029 0.932099
0.335648 0.874743 0.932613
0.336163 0.873457 0.932870
0.159465 0.808128 0.197531
0.162294 0.810442 0.213220
0.164866 0.812757 0.228652
0.173097 0.819959 0.277263
0.191872 0.836934 0.391975
0.210648 0.853909 0.506687
0.241255 0.867284 0.631430
0.278035 0.878858 0.760802
0.314558 0.890432 0.890432
0.323302 0.887346 0.905607
0.332047 0.884516 0.921039
0.337963 0.882202 0.931327
0.337963 0.881687 0.932099
0.337963 0.881430 0.932870
0.338477 0.880916 0.933385
0.339249 0.880658 0.933642
0.339763 0.880401 0.933642
0.161780 0.810957 0.198560
0.164609 0.813272 0.211934
0.167695 0.815586 0.225051
0.175412 0.822274 0.267747
0.192387 0.837706 0.369084
0.209619 0.853395 0.470679
0.239969 0.867541 0.600051
0.276749 0.881430 0.743570
0.313786 0.895319 0.887088
0.323817 0.891975 0.904321
0.333591 0.888632 0.921553
0.340535 0.886317 0.933385
0.340792 0.886060 0.933899
0.341049 0.885545 0.934414
0.341821 0.886060 0.934671
0.342593 0.886831 0.934671
0.343364 0.887603 0.934414
0.096451 0.013374 0.019805
0.114455 0.067644 0.238426
0.132459 0.121914 0.457047
0.155350 0.189043 0.635545
0.188014 0.282665 0.734311
0.220679 0.376286 0.833076
0.235854 0.417695 0.873457
0.242541 0.433385 0.884774
0.249228 0.448817 0.895833
0.248457 0.450617 0.896348
0.247428 0.452161 0.896862
0.246656 0.453189 0.897119
0.246142 0.452932 0.897377
0.245370 0.452418 0.897377
0.245370 0.452932 0.897634
0.245628 0.453961 0.897634
0.245628 0.454733 0.897634
0.093364 0.032922 0.023148
0.108025 0.076646 0.215278
0.122685 0.120370 0.407665
0.143776 0.181070 0.574588
0.177469 0.275463 0.691101
0.211163 0.369856 0.807613
0.228652 0.414095 0.857767
0.238169 0.433128 0.874486
0.247428 0.451903 0.891461
0.246656 0.453447 0.893261
0.245885 0.454733 0.895062
0.245113 0.455504 0.896348
0.244856 0.455247 0.896605
0.244599 0.454990 0.896605
0.244342 0.454990 0.896862
0.244084 0.455504 0.896862
0.244084 0.456019 0.896862
0.090278 0.052469 0.026492
0.101595 0.085648 0.192387
0.112654 0.119084 0.358282
0.131944 0.172840 0.513632
0.166924 0.268261 0.647891
0.201903 0.363683 0.782150
0.221708 0.410237 0.841821
0.233539 0.432870 0.864455
0.245628 0.455247 0.887088
0.244856 0.456276 0.890175
0.244084 0.457305 0.893261
0.243570 0.457819 0.895576
0.243570 0.457562 0.895576
0.243570 0.457305 0.895833
0.243056 0.457305 0.896091
0.242798 0.457047 0.896091
0.242284 0.457047 0.896091
0.086677 0.101080 0.039609
0.095165 0.122428 0.176698
0.103652 0.143519 0.314043
0.121399 0.188014 0.456019
0.157665 0.279321 0.607510
0.194187 0.370370 0.759002
0.215792 0.416924 0.827932
0.230195 0.441101 0.855453
0.244599 0.465278 0.882973
0.243827 0.465278 0.887346
0.243313 0.465535 0.891718
0.243056 0.465278 0.894805
0.243056 0.464249 0.895062
0.242798 0.463220 0.895319
0.242541 0.462191 0.895576
0.242027 0.461420 0.895833
0.241512 0.460648 0.895833
0.081533 0.208591 0.072016
0.088735 0.214249 0.175926
0.095679 0.220165 0.279578
0.113169 0.249486 0.404835
0.151235 0.326646 0.572788
0.189043 0.403549 0.740741
0.212706 0.444444 0.817387
0.228652 0.466821 0.848765
0.244856 0.489455 0.879887
0.244599 0.487140 0.885031
0.244342 0.484825 0.890432
0.244084 0.482253 0.894033
0.243570 0.479167 0.894547
0.243313 0.475823 0.894805
0.243056 0.473508 0.895576
0.242541 0.471193 0.896348
0.242284 0.469136 0.897119
0.076646 0.315844 0.104424
0.082305 0.306327 0.174897
0.087963 0.296553 0.245370
0.104938 0.310957 0.353909
0.144547 0.373971 0.538066
0.184156 0.436728 0.722222
0.209362 0.471708 0.807099
0.227366 0.492541 0.841821
0.245370 0.513375 0.876800
0.245113 0.508745 0.882973
0.245113 0.504115 0.889146
0.244856 0.499228 0.893519
0.244342 0.493827 0.894033
0.243570 0.488683 0.894547
0.243313 0.484568 0.895576
0.243313 0.480967 0.896862
0.243056 0.477623 0.898148
0.084362 0.439558 0.136831
0.088735 0.425669 0.188786
0.092850 0.411523 0.240741
0.108539 0.417438 0.337963
0.147119 0.463735 0.525720
0.185442 0.509774 0.713735
0.212449 0.535237 0.801955
0.233539 0.550412 0.840792
0.254887 0.565586 0.879372
0.254115 0.558128 0.885031
0.253344 0.550669 0.890689
0.252572 0.542953 0.894547
0.251286 0.534979 0.895062
0.250000 0.527006 0.895319
0.248971 0.520319 0.896348
0.248200 0.514146 0.897634
0.247171 0.508230 0.898920
0.098508 0.571502 0.168981
0.101337 0.558642 0.209877
0.104424 0.545782 0.250772
0.118313 0.546553 0.339506
0.154321 0.574588 0.524691
0.190072 0.602623 0.709877
0.218621 0.617027 0.799897
0.243827 0.624486 0.842335
0.269033 0.631944 0.884774
0.267233 0.621399 0.889146
0.265432 0.610854 0.893261
0.263374 0.600051 0.896348
0.261317 0.589249 0.896605
0.259259 0.578189 0.897119
0.257202 0.568416 0.897634
0.255144 0.559156 0.898663
0.253086 0.549897 0.899434
0.112397 0.703447 0.201389
0.114198 0.691872 0.230967
0.115998 0.680041 0.260545
0.128086 0.675669 0.341307
0.161265 0.685442 0.523663
0.194444 0.695473 0.706019
0.225051 0.698560 0.797840
0.254115 0.698560 0.844136
0.283179 0.698302 0.890432
0.280350 0.684671 0.893261
0.277263 0.671039 0.896091
0.274434 0.657150 0.897891
0.271605 0.643261 0.898405
0.268776 0.629372 0.898663
0.265432 0.616512 0.899177
0.262088 0.604167 0.899434
0.259002 0.591564 0.899949
0.126286 0.734568 0.201389
0.128601 0.728138 0.227366
0.131173 0.721708 0.253344
0.142490 0.722222 0.329475
0.172068 0.736368 0.505144
0.201646 0.750514 0.681070
0.233025 0.755144 0.779321
0.265432 0.755144 0.838735
0.297839 0.755144 0.898148
0.297325 0.744599 0.902263
0.296811 0.734311 0.906121
0.295525 0.722994 0.908693
0.292181 0.709877 0.908179
0.289095 0.696759 0.907665
0.285751 0.684414 0.907665
0.282150 0.672068 0.907665
0.278807 0.659722 0.907922
0.139918 0.765689 0.201132
0.143004 0.764660 0.223508
0.146091 0.763632 0.246142
0.156893 0.769033 0.317387
0.182870 0.787294 0.486626
0.208848 0.805556 0.655864
0.241255 0.811471 0.760802
0.276749 0.811471 0.833333
0.312500 0.811728 0.906121
0.314558 0.804527 0.911008
0.316615 0.797582 0.916152
0.316615 0.788837 0.919239
0.313014 0.776492 0.917953
0.309414 0.764146 0.916667
0.305813 0.752058 0.916152
0.302212 0.740226 0.915895
0.298868 0.728138 0.915895
0.150206 0.788323 0.200617
0.153549 0.790895 0.219907
0.156893 0.793210 0.239198
0.166924 0.801955 0.305298
0.189815 0.822274 0.465278
0.212963 0.842850 0.625000
0.245885 0.850823 0.736111
0.283693 0.852109 0.822274
0.321502 0.853395 0.908693
0.325617 0.848765 0.915638
0.329990 0.844136 0.922582
0.331533 0.837706 0.926440
0.328189 0.827418 0.925154
0.324588 0.817387 0.923868
0.321502 0.806584 0.923097
0.318416 0.796039 0.922840
0.315329 0.785237 0.922582
0.153035 0.794496 0.198817
0.155864 0.796811 0.215792
0.158693 0.798868 0.232767
0.167953 0.806842 0.292438
0.189300 0.826132 0.437757
0.210905 0.845422 0.582819
0.243570 0.855195 0.698817
0.281636 0.860597 0.800154
0.319702 0.865741 0.901235
0.325360 0.861883 0.911265
0.330761 0.858025 0.921039
0.333848 0.853395 0.927469
0.331790 0.847479 0.927212
0.329990 0.841564 0.926955
0.328189 0.834877 0.926698
0.326389 0.827418 0.926698
0.324588 0.820216 0.926698
0.155864 0.800669 0.197016
0.158436 0.802469 0.211677
0.160751 0.804527 0.226337
0.168981 0.811986 0.279578
0.188786 0.829990 0.410237
0.208848 0.847737 0.540638
0.240998 0.859825 0.661523
0.279578 0.869084 0.777778
0.318158 0.878086 0.893776
0.324846 0.875000 0.906636
0.331533 0.871656 0.919496
0.335905 0.868827 0.928498
0.335648 0.867541 0.929270
0.335648 0.865998 0.930041
0.335134 0.862912 0.930556
0.334362 0.859053 0.930813
0.333848 0.854938 0.931070
0.158436 0.804527 0.197274
0.160751 0.806327 0.209877
0.162809 0.808128 0.222737
0.170525 0.815072 0.270319
0.189043 0.831790 0.387603
0.207562 0.848251 0.505144
0.239198 0.861883 0.630144
0.277521 0.873714 0.759002
0.315586 0.885545 0.887860
0.324074 0.882202 0.903292
0.332562 0.879115 0.918981
0.338220 0.877058 0.929784
0.338735 0.877058 0.930813
0.339249 0.877058 0.931842
0.339249 0.875514 0.932356
0.338992 0.873457 0.932613
0.338992 0.871399 0.932870
0.160751 0.807613 0.198302
0.162809 0.809156 0.209362
0.165123 0.810700 0.220422
0.172325 0.816872 0.262860
0.189300 0.832562 0.367798
0.206533 0.847994 0.472737
0.237397 0.862397 0.601595
0.275206 0.876286 0.742027
0.313014 0.889918 0.882459
0.323302 0.886831 0.900720
0.333591 0.883488 0.918981
0.340792 0.881430 0.931327
0.341307 0.881173 0.932099
0.341821 0.881173 0.933128
0.341821 0.880401 0.933385
0.341821 0.879372 0.933385
0.341821 0.878344 0.933642
0.163066 0.810700 0.199331
0.165123 0.811986 0.208848
0.167438 0.813272 0.218364
0.174126 0.818930 0.255658
0.189815 0.833333 0.347994
0.205504 0.847737 0.440586
0.235597 0.862912 0.572788
0.273148 0.878858 0.725051
0.310442 0.894547 0.877315
0.322531 0.891461 0.898148
0.334877 0.888117 0.918724
0.343107 0.885802 0.932870
0.343621 0.885545 0.933642
0.344393 0.885288 0.934414
0.344650 0.885288 0.934414
0.344650 0.885288 0.934414
0.344907 0.885545 0.934156
0.154835 0.018004 0.019290
0.162551 0.061214 0.214506
0.170525 0.104424 0.409722
0.185185 0.165123 0.578447
0.212449 0.260288 0.694444
0.239712 0.355453 0.810700
0.253086 0.400977 0.859825
0.259002 0.421296 0.875257
0.265175 0.441615 0.890947
0.262603 0.444444 0.892233
0.260288 0.447274 0.893776
0.257973 0.449074 0.894805
0.255916 0.449074 0.895319
0.254115 0.449074 0.895833
0.253086 0.449846 0.896091
0.252572 0.451132 0.896348
0.252315 0.452418 0.896605
0.146605 0.032665 0.021091
