src-tauri/resources/luts/自然清新质感.3dl
# LUT by SparkleStock. Enhanced with VOXCOLOR algorithms.
0 64 128 192 256 320 384 448 512 576 640 704 768 832 896 960 1023
160 48 80
289 339 1059
417 630 2038
549 932 2784
687 1257 3065
826 1582 3345
886 1711 3451
907 1743 3471
928 1775 3491
928 1775 3491
928 1776 3491
928 1776 3491
928 1775 3491
929 1774 3491
929 1775 3491
929 1776 3491
929 1777 3491
160 178 109
275 415 1014
389 652 1920
513 920 2635
657 1253 2969
801 1585 3303
869 1719 3432
898 1756 3460
927 1792 3488
927 1789 3488
927 1786 3488
927 1784 3488
927 1782 3487
927 1780 3487
927 1779 3487
928 1779 3487
929 1779 3488
160 309 137
260 491 969
361 674 1802
478 909 2486
628 1248 2873
777 1587 3261
852 1728 3414
889 1768 3449
927 1809 3484
927 1803 3485
927 1797 3485
926 1792 3485
926 1789 3484
925 1785 3483
925 1783 3483
927 1782 3484
928 1782 3484
170 558 204
254 679 940
339 801 1677
447 991 2317
603 1317 2767
759 1644 3217
841 1780 3395
885 1821 3438
929 1861 3480
929 1850 3481
929 1838 3482
928 1828 3482
927 1820 3481
926 1812 3480
926 1806 3481
926 1802 3482
927 1798 3483
199 1042 347
264 1090 943
329 1137 1538
427 1260 2112
591 1534 2640
755 1808 3168
842 1921 3377
890 1954 3427
939 1986 3476
937 1963 3478
936 1941 3480
935 1919 3481
934 1900 3481
932 1881 3481
929 1867 3482
927 1854 3484
924 1842 3486
227 1527 490
273 1501 945
318 1474 1400
406 1530 1906
578 1751 2512
750 1972 3119
843 2062 3359
895 2086 3415
948 2111 3471
946 2077 3475
944 2043 3478
942 2010 3480
940 1981 3481
938 1951 3481
933 1927 3483
927 1906 3486
920 1885 3489
287 1976 600
320 1935 961
354 1894 1322
433 1922 1780
603 2086 2431
774 2251 3083
873 2312 3347
936 2322 3418
1000 2331 3489
991 2287 3488
983 2243 3487
976 2201 3486
972 2162 3487
969 2122 3489
961 2089 3491
950 2057 3493
940 2026 3495
361 2407 693
386 2381 984
412 2356 1274
483 2374 1694
647 2481 2373
812 2588 3052
918 2617 3338
995 2608 3429
1073 2599 3519
1055 2545 3510
1036 2492 3500
1023 2440 3495
1017 2392 3498
1012 2345 3501
1001 2300 3502
986 2258 3503
971 2216 3503
435 2837 786
452 2827 1006
469 2817 1226
534 2827 1608
692 2875 2315
849 2924 3021
963 2922 3330
1054 2894 3439
1146 2867 3548
1118 2804 3531
1090 2741 3514
1070 2680 3504
1062 2623 3508
1055 2567 3513
1040 2512 3513
1021 2459 3512
1002 2405 3511
484 2922 781
502 2923 971
521 2925 1161
581 2947 1521
724 3013 2220
866 3079 2919
982 3087 3254
1085 3065 3406
1188 3044 3559
1174 2999 3553
1160 2955 3548
1148 2909 3545
1138 2861 3545
1129 2814 3545
1115 2765 3545
1098 2716 3544
1082 2667 3544
533 3007 775
553 3019 936
573 3032 1096
628 3068 1433
756 3151 2125
883 3234 2816
1001 3252 3177
1115 3236 3373
1229 3221 3569
1230 3195 3575
1230 3168 3582
1226 3138 3585
1214 3099 3581
1202 3060 3577
1189 3018 3576
1175 2974 3576
1161 2929 3577
570 3072 770
589 3090 905
609 3109 1040
660 3152 1354
774 3246 2027
888 3339 2700
1007 3365 3085
1130 3358 3326
1253 3351 3566
1264 3337 3584
1276 3324 3601
1279 3305 3611
1267 3276 3606
1254 3247 3600
1244 3213 3599
1233 3176 3601
1223 3139 3602
584 3096 766
599 3111 884
614 3127 1003
658 3166 1293
763 3255 1924
868 3343 2555
987 3376 2958
1114 3381 3248
1240 3385 3538
1257 3375 3565
1273 3364 3591
1281 3350 3609
1273 3331 3608
1264 3312 3606
1258 3291 3607
1254 3268 3610
1250 3245 3612
598 3120 761
608 3132 863
619 3145 966
657 3181 1231
753 3264 1821
849 3347 2410
967 3386 2832
1097 3403 3170
1227 3420 3509
1249 3412 3545
1271 3404 3582
1284 3395 3607
1278 3387 3610
1273 3378 3613
1272 3369 3616
1275 3360 3619
1277 3351 3622
608 3134 762
618 3146 851
629 3158 941
664 3191 1180
752 3269 1719
839 3346 2258
958 3390 2703
1092 3418 3099
1225 3445 3496
1251 3436 3539
1276 3427 3583
1292 3420 3612
1288 3415 3616
1285 3411 3620
1287 3408 3622
1292 3406 3625
1297 3404 3627
616 3144 765
629 3156 843
641 3169 921
676 3200 1134
755 3272 1618
835 3343 2103
954 3391 2571
1091 3427 3032
1229 3464 3492
1257 3453 3540
1284 3442 3588
1302 3434 3622
1301 3431 3624
1299 3428 3627
1302 3428 3629
1308 3430 3630
1313 3432 3631
624 3154 769
639 3167 835
653 3180 901
687 3210 1088
759 3275 1518
831 3339 1947
950 3391 2439
1091 3437 2964
1233 3483 3488
1263 3470 3541
1293 3457 3594
1313 3448 3631
1314 3446 3632
1314 3445 3634
1318 3448 3635
1323 3453 3635
1329 3459 3635
267 50 79
367 301 993
466 552 1907
577 834 2628
709 1178 2960
842 1522 3292
902 1668 3424
925 1714 3456
949 1760 3487
947 1763 3488
945 1767 3489
943 1769 3490
943 1768 3490
942 1767 3490
942 1768 3490
942 1770 3490
942 1773 3491
261 153 99
347 357 926
433 560 1752
536 812 2434
674 1162 2828
811 1511 3221
879 1665 3384
912 1720 3430
945 1775 3477
943 1776 3480
941 1777 3484
940 1778 3486
939 1776 3487
939 1774 3487
938 1774 3487
939 1775 3487
939 1776 3487
255 256 120
328 412 859
400 568 1597
495 791 2241
638 1146 2696
781 1501 3151
857 1662 3343
899 1725 3405
941 1789 3466
939 1788 3473
938 1788 3479
937 1786 3483
936 1784 3483
936 1782 3483
935 1780 3483
935 1780 3484
935 1779 3484
253 475 179
312 577 814
371 679 1449
460 861 2045
608 1202 2564
757 1542 3084
840 1701 3307
890 1768 3382
940 1835 3457
939 1830 3466
937 1824 3475
936 1818 3481
936 1812 3481
935 1806 3481
934 1802 3481
934 1798 3482
933 1794 3483
258 927 313
304 962 813
350 996 1313
433 1115 1843
589 1402 2433
745 1689 3024
834 1824 3278
890 1884 3363
945 1944 3448
944 1929 3460
943 1913 3471
942 1897 3479
940 1881 3479
939 1866 3480
937 1854 3482
935 1843 3484
933 1833 3487
263 1378 448
296 1346 813
330 1314 1177
407 1370 1641
570 1603 2302
733 1835 2964
828 1948 3248
890 2001 3344
951 2053 3440
950 2027 3454
949 2001 3468
947 1976 3477
945 1951 3478
943 1925 3479
940 1905 3482
936 1888 3487
933 1871 3491
307 1843 566
332 1795 847
357 1747 1129
428 1773 1547
588 1945 2238
748 2117 2929
850 2197 3233
922 2231 3344
995 2265 3454
990 2229 3464
984 2192 3475
979 2156 3482
975 2121 3484
971 2086 3485
965 2056 3488
958 2028 3492
950 2001 3495
372 2314 675
390 2277 900
409 2239 1124
472 2250 1507
624 2357 2207
775 2465 2906
884 2508 3224
972 2518 3352
1059 2528 3480
1047 2481 3483
1034 2433 3487
1024 2387 3490
1017 2342 3492
1010 2296 3494
1000 2255 3496
989 2216 3498
977 2177 3500
436 2786 785
448 2758 952
460 2731 1120
516 2727 1468
659 2770 2176
803 2814 2883
919 2819 3216
1021 2805 3360
1124 2791 3505
1104 2733 3502
1084 2675 3499
1068 2618 3498
1059 2562 3501
1050 2507 3503
1036 2455 3504
1020 2404 3505
1004 2353 3505
487 2889 782
501 2877 927
515 2866 1073
568 2878 1401
696 2938 2092
825 2998 2783
944 3011 3142
1059 3000 3334
1173 2990 3525
1165 2947 3530
1157 2905 3536
1148 2860 3539
1137 2811 3538
1126 2762 3537
1113 2713 3537
1098 2665 3537
1083 2616 3537
538 2992 779
554 2996 903
570 3000 1026
619 3029 1334
733 3106 2009
848 3183 2683
970 3203 3068
1096 3196 3307
1222 3188 3546
1226 3161 3559
1230 3134 3572
1229 3102 3579
1216 3059 3575
1203 3016 3571
1189 2971 3569
1175 2926 3569
1162 2880 3569
577 3069 775
593 3083 880
609 3097 985
654 3135 1271
756 3222 1918
858 3308 2565
982 3336 2973
1117 3335 3261
1251 3334 3550
1265 3319 3572
1279 3303 3594
1284 3281 3607
1271 3247 3601
1258 3212 3596
1247 3175 3594
1236 3135 3594
1224 3096 3594
589 3092 769
602 3105 862
616 3117 954
656 3152 1215
750 3233 1813
844 3315 2411
967 3351 2838
1104 3363 3179
1242 3376 3521
1261 3363 3554
1280 3350 3586
1290 3334 3608
1281 3313 3606
1273 3292 3605
1267 3268 3605
1262 3243 3607
1256 3217 3608
602 3116 764
612 3126 843
622 3136 923
657 3169 1159
744 3245 1708
830 3322 2256
952 3365 2702
1092 3391 3097
1232 3417 3492
1256 3407 3535
1280 3396 3579
1295 3387 3608
1292 3380 3611
1289 3373 3614
1288 3362 3617
1288 3350 3619
1287 3338 3621
612 3131 764
621 3141 834
631 3150 903
664 3180 1116
743 3251 1613
823 3322 2111
944 3371 2576
1085 3407 3025
1226 3444 3474
1255 3433 3526
1284 3423 3578
1303 3415 3614
1303 3412 3617
1302 3410 3621
1303 3406 3624
1305 3401 3626
1307 3396 3627
620 3142 768
631 3151 829
641 3160 889
673 3188 1078
746 3254 1524
819 3320 1970
938 3372 2455
1081 3417 2958
1223 3462 3462
1257 3450 3521
1291 3439 3581
1314 3430 3621
1314 3428 3624
1314 3427 3627
1316 3425 3629
1319 3424 3630
1321 3423 3630
629 3153 772
640 3162 824
652 3171 875
682 3197 1041
748 3257 1435
815 3318 1830
933 3373 2333
1076 3427 2891
1220 3481 3449
1259 3468 3516
1297 3455 3583
1324 3446 3629
1325 3445 3631
1326 3443 3633
1329 3445 3634
1332 3448 3634
1335 3451 3633
375 52 77
445 263 927
515 474 1777
604 735 2471
731 1099 2855
858 1463 3239
917 1624 3396
943 1685 3440
969 1745 3483
966 1752 3485
962 1758 3487
959 1762 3488
957 1761 3489
954 1759 3489
954 1761 3490
955 1765 3490
955 1768 3490
363 128 90
420 298 837
477 468 1585
559 704 2234
690 1071 2687
821 1438 3140
889 1610 3335
926 1684 3400
962 1757 3466
959 1763 3473
956 1768 3480
953 1771 3485
952 1770 3486
951 1769 3486
950 1769 3487
949 1771 3487
949 1773 3487
351 204 103
395 333 748
438 463 1393
513 672 1997
649 1043 2519
785 1414 3041
862 1595 3273
908 1683 3361
955 1770 3449
952 1774 3461
949 1778 3473
947 1780 3482
947 1779 3482
947 1778 3483
945 1778 3484
944 1777 3484
942 1777 3484
337 393 154
370 476 687
403 558 1221
472 731 1773
613 1086 2362
755 1440 2951
839 1621 3219
895 1715 3326
951 1809 3433
948 1809 3450
946 1810 3467
945 1809 3479
945 1805 3480
944 1801 3481
943 1797 3482
941 1794 3483
939 1791 3483
317 811 280
345 833 684
372 856 1087
440 970 1574
588 1270 2227
735 1569 2880
827 1728 3178
889 1815 3300
952 1903 3421
951 1894 3441
950 1885 3462
949 1875 3476
947 1863 3478
946 1850 3479
945 1841 3482
943 1832 3485
942 1824 3488
298 1228 406
320 1191 680
342 1153 954
408 1209 1376
562 1454 2092
716 1698 2808
814 1834 3138
884 1915 3273
954 1996 3409
953 1978 3433
953 1960 3457
952 1941 3474
950 1920 3476
947 1900 3478
946 1884 3482
946 1870 3487
945 1857 3492
328 1709 532
345 1655 734
361 1600 936
422 1623 1314
572 1803 2044
721 1982 2775
826 2081 3118
908 2140 3269
991 2199 3419
988 2170 3441
985 2141 3463
982 2111 3478
977 2080 3480
972 2049 3481
968 2023 3485
965 1999 3490
961 1976 3495
383 2222 657
394 2172 816
406 2122 975
460 2125 1320
600 2234 2040
739 2343 2760
850 2399 3110
948 2428 3275
1046 2457 3440
1039 2416 3457
1032 2375 3473
1024 2333 3485
1016 2291 3486
1008 2248 3488
1000 2210 3490
992 2174 3494
984 2138 3497
437 2735 783
444 2690 898
451 2644 1013
498 2627 1327
627 2665 2036
756 2704 2745
875 2716 3102
988 2716 3282
1101 2715 3462
1090 2662 3473
1078 2609 3484
1067 2555 3491
1056 2501 3493
1045 2447 3494
1032 2397 3496
1019 2349 3497
1007 2300 3499
491 2856 783
500 2831 884
510 2806 985
554 2808 1281
669 2863 1964
784 2918 2648
906 2936 3030
1032 2936 3261
1158 2936 3492
1156 2895 3508
1154 2855 3523
1149 2811 3533
1136 2760 3531
1124 2709 3529
1111 2661 3529
1097 2613 3529
1084 2565 3530
544 2977 782
556 2973 869
568 2969 957
610 2990 1234
711 3061 1892
812 3132 2550
938 3155 2958
1076 3155 3240
1215 3156 3523
1223 3128 3542
1231 3101 3562
1231 3067 3574
1217 3019 3569
1203 2971 3564
1189 2924 3562
1175 2878 3561
1162 2831 3561
584 3065 780
597 3075 855
610 3084 930
649 3118 1187
738 3197 1809
828 3277 2430
956 3308 2862
1103 3313 3197
1250 3318 3533
1266 3300 3560
1283 3282 3587
1289 3257 3602
1276 3217 3597
1262 3178 3592
1250 3136 3589
1238 3095 3588
1226 3053 3587
595 3089 773
606 3098 839
617 3106 905
653 3137 1137
736 3212 1702
820 3287 2266
947 3325 2717
1095 3346 3111
1243 3366 3504
1265 3351 3543
1286 3336 3581
1298 3318 3606
1290 3295 3605
1283 3272 3604
1276 3246 3603
1269 3217 3603
1262 3189 3603
606 3113 766
616 3120 823
625 3128 880
657 3157 1087
734 3227 1595
812 3296 2102
937 3343 2572
1087 3379 3024
1237 3414 3475
1263 3402 3525
1289 3389 3575
1306 3378 3610
1305 3373 3613
1305 3367 3616
1303 3355 3618
1300 3340 3619
1298 3324 3620
616 3128 767
625 3135 816
633 3142 866
663 3169 1051
735 3234 1507
807 3298 1964
930 3351 2450
1079 3397 2951
1227 3443 3452
1260 3430 3512
1293 3418 3573
1315 3410 3615
1317 3410 3619
1319 3410 3623
1319 3404 3625
1318 3396 3626
1318 3388 3627
625 3140 771
633 3146 814
642 3152 857
670 3176 1022
736 3237 1430
803 3297 1838
923 3353 2339
1070 3407 2885
1217 3460 3431
1257 3448 3502
1297 3435 3573
1325 3427 3621
1327 3426 3624
1329 3426 3628
1329 3423 3629
1329 3419 3629
1329 3415 3630
634 3152 775
642 3157 812
651 3162 849
677 3184 994
738 3240 1353
799 3296 1713
916 3355 2227
1062 3417 2819
1207 3478 3411
1254 3466 3492
1302 3453 3572
1334 3444 3627
1336 3443 3630
1339 3442 3633
1340 3442 3633
1340 3442 3633
1341 3443 3632
602 70 75
632 238 834
663 406 1593
720 642 2249
826 1012 2700
932 1382 3152
984 1559 3343
1007 1638 3403
1031 1717 3464
1021 1728 3469
1012 1739 3475
1003 1746 3479
995 1746 3481
988 1746 3483
984 1749 3484
982 1754 3485
981 1759 3486
570 127 82
591 263 734
612 398 1385
664 610 1992
776 978 2506
888 1346 3021
948 1532 3252
983 1627 3343
1017 1722 3433
1008 1735 3449
999 1747 3465
991 1756 3476
985 1757 3479
980 1758 3481
976 1760 3482
973 1762 3483
