src-tauri/resources/luts/莱卡电影胶片质感.cube
# LUT by SparkleStock. Enhanced with VOXCOLOR algorithms.
LUT_3D_SIZE 8
DOMAIN_MIN 0.000000 0.000000 0.000000
DOMAIN_MAX 0.903226 0.903226 0.903226
0.054701 0.058608 0.109402
0.110323 0.061822 0.114223
0.296176 0.069707 0.124298
0.509047 0.084517 0.141494
0.608728 0.099933 0.156020
0.649699 0.118138 0.174753
0.661483 0.142755 0.195967
0.666296 0.165008 0.211761
0.095506 0.128591 0.142258
0.137567 0.116594 0.135093
0.310978 0.105222 0.126672
0.489978 0.105289 0.123116
0.583673 0.117981 0.125577
0.648132 0.137108 0.143399
0.677111 0.155488 0.178854
0.676544 0.169164 0.207668
0.236717 0.295222 0.220804
0.298444 0.285260 0.218518
0.378597 0.261998 0.197791
0.516349 0.204342 0.147128
0.571240 0.164807 0.103771
0.635388 0.164103 0.109157
0.680519 0.172970 0.152644
0.687355 0.176947 0.196773
0.549049 0.514026 0.374304
0.602827 0.529129 0.438910
0.583770 0.500591 0.379721
0.601421 0.464904 0.365973
0.621203 0.352556 0.242570
0.644476 0.251043 0.144674
0.661643 0.171168 0.119613
0.673775 0.158800 0.168458
0.763827 0.712096 0.663650
0.771202 0.735690 0.733333
0.745035 0.718833 0.687358
0.699605 0.678356 0.588001
0.700123 0.656124 0.563004
0.726204 0.551271 0.457571
0.706111 0.345087 0.298390
0.654654 0.145768 0.154191
0.808988 0.824656 0.832912
0.819376 0.836225 0.858729
0.819062 0.839488 0.866024
0.795197 0.820031 0.807896
0.788260 0.810349 0.777530
0.805932 0.814279 0.792045
0.812165 0.740271 0.743071
0.753138 0.474969 0.490376
0.827539 0.857348 0.887345
0.836088 0.862415 0.893194
0.842395 0.866831 0.902768
0.839557 0.864151 0.898686
0.836279 0.860704 0.891015
0.845515 0.865326 0.898660
0.852850 0.867713 0.903826
0.843698 0.828487 0.863759
0.846051 0.868683 0.909370
0.847407 0.869477 0.909089
0.851168 0.871478 0.911745
0.851356 0.871034 0.911639
0.849865 0.869373 0.910233
0.850647 0.869511 0.910442
0.854660 0.871360 0.912395
0.854557 0.870680 0.911948
0.066777 0.095238 0.166009
0.101369 0.069258 0.135468
0.283970 0.069931 0.137021
0.493667 0.079949 0.157697
0.596906 0.093955 0.170957
0.650985 0.118697 0.185304
0.670424 0.146582 0.201782
0.672323 0.166454 0.212557
0.078019 0.140715 0.182523
0.092303 0.099630 0.138329
0.219528 0.100214 0.142582
0.425298 0.111098 0.154405
0.554710 0.122817 0.159737
0.639959 0.136055 0.168241
0.691180 0.148440 0.184665
0.693123 0.165857 0.204880
0.173733 0.321281 0.262814
0.198783 0.226192 0.193300
0.270295 0.211224 0.174774
0.431461 0.193472 0.161115
0.540449 0.184055 0.149286
0.633103 0.190399 0.154745
0.700588 0.192349 0.173800
0.709658 0.185620 0.199821
0.471534 0.535160 0.411669
0.486533 0.450234 0.343545
0.479333 0.424574 0.311149
0.501326 0.391096 0.275650
0.568851 0.317696 0.206879
0.632944 0.263067 0.156989
0.696520 0.230283 0.157151
0.718118 0.209400 0.189113
0.745067 0.723526 0.688909
0.728633 0.683677 0.649662
0.669553 0.657963 0.598773
0.620016 0.615200 0.494683
0.637285 0.583747 0.452237
0.686447 0.483207 0.347683
0.707853 0.324173 0.222640
0.708176 0.212184 0.163928
0.818687 0.832345 0.855012
0.809865 0.819599 0.839391
0.787630 0.814241 0.824364
0.740198 0.785723 0.732012
0.732106 0.765430 0.667484
0.760115 0.764813 0.679610
0.788785 0.654149 0.583271
0.758014 0.412727 0.357899
0.837640 0.861524 0.900392
0.833282 0.858553 0.893364
0.837426 0.862716 0.900493
0.832195 0.860576 0.889936
0.819936 0.851313 0.857628
0.827499 0.852263 0.852848
0.839221 0.851873 0.825622
0.843929 0.784621 0.743268
0.846837 0.869217 0.911399
0.844194 0.867757 0.908557
0.848075 0.869772 0.910919
0.849814 0.870359 0.912137
0.848840 0.869264 0.910487
0.848558 0.868693 0.907081
0.852327 0.870724 0.892345
0.856552 0.869900 0.875417
0.083753 0.205743 0.349994
0.105872 0.159381 0.317212
0.266501 0.082401 0.199131
0.483972 0.077633 0.175998
0.586494 0.086961 0.186371
0.650168 0.112455 0.203795
0.675946 0.146621 0.214993
0.676332 0.169453 0.217165
0.090242 0.248133 0.366042
0.097458 0.183567 0.274471
0.199887 0.116701 0.208024
0.410539 0.112879 0.202593
0.543932 0.122428 0.210188
0.637888 0.135827 0.217455
0.697436 0.152130 0.221007
0.702103 0.167736 0.219211
0.106014 0.354575 0.408214
0.124335 0.264558 0.298150
0.195588 0.204565 0.226539
0.370098 0.193872 0.222818
0.516220 0.192594 0.221404
0.627258 0.196946 0.219383
0.705569 0.198523 0.222243
0.730731 0.191980 0.222617
0.200026 0.559360 0.454159
0.311880 0.468966 0.386809
0.375577 0.381104 0.310003
0.426248 0.352073 0.279257
0.531604 0.305178 0.247630
0.627706 0.276697 0.223256
0.711838 0.264770 0.222511
0.755185 0.245028 0.226413
0.443429 0.679291 0.521859
0.597173 0.670768 0.598065
0.601845 0.602485 0.540491
0.566789 0.563051 0.465075
0.593367 0.531816 0.420391
0.662305 0.442463 0.334406
0.716036 0.342048 0.240298
0.767207 0.294223 0.218771
0.710238 0.781824 0.702602
0.787730 0.809973 0.811893
0.759930 0.787314 0.787515
0.702241 0.754012 0.699190
0.696916 0.732129 0.634344
0.724105 0.721546 0.615889
0.766660 0.588431 0.467252
0.783574 0.408770 0.288548
0.818028 0.844190 0.855145
0.834174 0.857952 0.891644
0.827889 0.853725 0.888038
0.815338 0.849603 0.870343
0.799166 0.839022 0.827487
0.798315 0.831085 0.786209
0.815635 0.823318 0.724219
0.842976 0.723252 0.590388
0.847539 0.867839 0.910334
0.849035 0.869447 0.913420
0.847876 0.868595 0.912167
0.849676 0.869447 0.913074
0.848215 0.868724 0.909550
0.841648 0.866606 0.888780
0.842309 0.867629 0.839826
0.857091 0.865421 0.784919
0.114042 0.415700 0.613006
0.118833 0.388568 0.598521
0.210963 0.200516 0.450721
0.473007 0.093427 0.256839
0.588117 0.090010 0.208235
0.646511 0.108521 0.211519
0.672452 0.142166 0.219555
0.674846 0.168640 0.219739
0.121096 0.478504 0.641143
0.119135 0.388882 0.552877
0.181581 0.264540 0.455910
0.400381 0.126342 0.293310
0.545448 0.120070 0.259819
0.635902 0.132116 0.259341
0.693833 0.151793 0.253167
0.700979 0.169463 0.237142
0.122126 0.492219 0.648136
0.124773 0.431136 0.561810
0.171918 0.338795 0.448080
0.350500 0.211726 0.324720
0.515448 0.191158 0.292054
0.626811 0.194322 0.284509
0.705153 0.200471 0.276061
0.737514 0.197202 0.259278
0.132451 0.614623 0.682748
0.146069 0.535567 0.592382
0.203001 0.437742 0.470234
0.355502 0.365688 0.380552
0.517548 0.318572 0.345004
0.629920 0.292125 0.316703
0.719303 0.281808 0.299706
0.776005 0.265550 0.286554
0.161625 0.706376 0.619511
0.290322 0.670132 0.585480
0.417590 0.603224 0.543698
0.529132 0.544883 0.497310
0.577817 0.510876 0.455407
0.656968 0.434111 0.385762
0.728586 0.373844 0.318849
0.800379 0.347053 0.298800
0.292269 0.725784 0.543471
0.531907 0.747349 0.625378
0.671900 0.762267 0.718793
0.699441 0.731561 0.710200
0.698411 0.705362 0.658916
0.711080 0.681357 0.606040
0.758230 0.557166 0.451465
0.807355 0.436419 0.320633
0.551979 0.752950 0.605275
0.760457 0.813390 0.772966
0.819548 0.846290 0.869499
0.808922 0.841318 0.865590
0.791100 0.829954 0.825298
0.780657 0.816123 0.760236
0.797129 0.798618 0.673055
0.841099 0.684033 0.518521
0.756463 0.820935 0.788058
0.832675 0.856173 0.881705
0.846371 0.867310 0.908591
0.846220 0.867910 0.910425
0.844694 0.867623 0.905943
0.830606 0.864022 0.864655
0.828539 0.862464 0.788388
0.855398 0.857843 0.725575
0.141408 0.619276 0.783836
0.141938 0.634799 0.787207
0.144000 0.417818 0.681095
0.351720 0.181519 0.451611
0.596758 0.115450 0.247498
0.650132 0.124510 0.210771
0.665103 0.142972 0.210082
0.670626 0.167404 0.217206
0.145477 0.674286 0.802776
0.141646 0.614398 0.767852
0.153938 0.516635 0.710926
0.292322 0.264778 0.524794
0.550975 0.126748 0.307546
0.639966 0.129473 0.267181
0.680529 0.147291 0.251293
0.689882 0.169306 0.239106
0.145194 0.669060 0.802381
0.144072 0.640199 0.773235
0.159133 0.545861 0.695225
0.263326 0.369343 0.563310
0.514434 0.185643 0.353056
0.629994 0.174484 0.306068
0.694444 0.186548 0.294049
0.730914 0.195064 0.283139
0.145515 0.678521 0.806246
0.144378 0.653554 0.777885
0.160112 0.587145 0.701606
0.251025 0.499125 0.607823
0.511150 0.327039 0.436722
0.637819 0.278452 0.368308
0.714351 0.269693 0.344192
0.775796 0.266317 0.336020
0.151698 0.766540 0.822068
0.151854 0.732192 0.791909
0.174555 0.667519 0.722233
0.281665 0.598328 0.638766
0.547564 0.551144 0.572251
0.674093 0.477488 0.503886
0.745066 0.422311 0.436644
0.816835 0.390711 0.400277
0.159370 0.797594 0.746926
0.187498 0.768832 0.699229
0.348353 0.753320 0.692330
0.548305 0.731309 0.708171
0.712206 0.706372 0.704859
0.725661 0.673270 0.645019
0.769323 0.574823 0.524282
0.826642 0.489946 0.425506
0.191760 0.751173 0.602709
0.384605 0.750011 0.598537
0.613925 0.787064 0.710008
0.751133 0.822279 0.820713
0.804615 0.819476 0.840065
0.787918 0.799862 0.774357
0.799985 0.779951 0.694939
0.845780 0.677979 0.555860
0.351881 0.730789 0.544139
0.648876 0.779907 0.675379
0.806107 0.838045 0.833973
0.840546 0.863834 0.901673
0.845944 0.867754 0.905826
0.828845 0.863848 0.861871
0.827574 0.862255 0.794607
0.858309 0.855118 0.739549
0.154973 0.741762 0.856284
0.154551 0.763121 0.859830
0.145962 0.641909 0.814051
0.200781 0.333920 0.638072
0.498803 0.163872 0.370579
0.662796 0.155771 0.223143
0.668234 0.161490 0.211552
0.668768 0.168394 0.214558
0.155344 0.774835 0.863306
0.154579 0.744428 0.853535
0.153692 0.730672 0.846219
0.180411 0.491502 0.731213
0.429251 0.197427 0.451725
0.647809 0.148002 0.253727
0.672454 0.158882 0.228643
0.677829 0.169464 0.225779
0.155644 0.784466 0.866630
0.155011 0.769539 0.858806
0.156202 0.728704 0.840248
0.182832 0.609070 0.778595
0.367818 0.317381 0.553059
0.632876 0.158489 0.287949
0.681468 0.169316 0.267670
0.710649 0.185144 0.273710
0.154701 0.762174 0.860981
0.154831 0.761195 0.856473
0.157023 0.741227 0.840537
0.185496 0.676555 0.795772
0.331095 0.489407 0.659085
0.640170 0.246429 0.369796
0.703315 0.235713 0.334533
0.755957 0.246736 0.348040
0.155314 0.781602 0.864672
0.154757 0.766653 0.857574
0.155870 0.754413 0.845600
0.182710 0.721079 0.810738
0.360206 0.673389 0.760695
0.686077 0.479983 0.567858
0.747448 0.414534 0.483480
0.805694 0.382305 0.447556
0.159354 0.843711 0.875790
0.156836 0.826943 0.868747
0.157161 0.805264 0.855433
0.184056 0.770588 0.825544
0.397026 0.739374 0.787136
0.716743 0.708657 0.733279
0.786819 0.632685 0.653259
0.848859 0.576752 0.587236
0.158552 0.841868 0.831206
0.176427 0.820339 0.784299
0.228137 0.799358 0.746773
0.418661 0.804714 0.778916
0.660781 0.812969 0.822538
0.806709 0.801044 0.812017
0.814480 0.781931 0.753906
0.860926 0.712615 0.662547
0.157935 0.781910 0.686490
0.255370 0.763072 0.632207
0.476030 0.771822 0.656265
0.682637 0.816785 0.783610
0.799436 0.851850 0.873160
0.850493 0.861697 0.884771
0.845549 0.858958 0.834507
0.871103 0.853013 0.795697
0.156406 0.800670 0.874544
0.157438 0.821427 0.877049
0.155142 0.785226 0.865725
0.139918 0.533384 0.769319
0.300000 0.248397 0.541896
0.611755 0.156187 0.279528
0.672791 0.173375 0.217716
0.671192 0.174381 0.216757
0.157565 0.819493 0.875648
0.156462 0.803071 0.873889
0.156485 0.811218 0.874198
0.151210 0.706273 0.838789
0.231474 0.376838 0.648734
0.544622 0.174761 0.344877
0.670683 0.172466 0.222851
0.673253 0.174448 0.219558
0.158588 0.836507 0.879451
0.157320 0.823477 0.876868
0.156709 0.804977 0.873385
0.157067 0.788749 0.867749
0.197369 0.563823 0.758357
0.476785 0.222603 0.429421
0.668453 0.171444 0.240847
0.687980 0.179822 0.243666
0.156990 0.822659 0.877683
0.157591 0.825590 0.877285
0.157722 0.817230 0.875148
0.159476 0.796374 0.869397
0.184345 0.704220 0.824032
0.401071 0.390876 0.573936
0.677947 0.208833 0.303085
0.721027 0.218235 0.313598
0.155549 0.808578 0.874522
0.156382 0.809692 0.873865
0.157465 0.812398 0.873991
0.159996 0.805544 0.870866
0.212911 0.782462 0.858207
0.393269 0.613160 0.736693
0.721006 0.393258 0.488402
0.775773 0.352023 0.440787
0.157135 0.833109 0.878136
0.156528 0.825303 0.876619
0.156753 0.815793 0.874154
0.159318 0.811217 0.872234
0.228999 0.801825 0.864820
0.522394 0.781735 0.841899
0.776369 0.646237 0.712802
0.834670 0.576674 0.636702
0.160414 0.862705 0.882348
0.161082 0.859827 0.881727
0.161201 0.851026 0.877287
0.166000 0.839722 0.872329
0.250091 0.827296 0.869035
0.572693 0.814637 0.852868
0.808299 0.804107 0.832077
0.870080 0.759429 0.780673
0.160698 0.857115 0.866255
0.161814 0.846960 0.843576
0.193484 0.831012 0.805809
0.274917 0.820291 0.784622
0.486001 0.836841 0.836519
0.727399 0.853559 0.877742
0.860340 0.869656 0.882635
0.881196 0.863681 0.860076
0.159352 0.840167 0.880878
0.159856 0.850233 0.881703
0.159882 0.850364 0.881213
0.151053 0.724658 0.842033
0.143045 0.406355 0.703595
0.422483 0.182723 0.440059
0.652391 0.163684 0.240410
0.672079 0.174996 0.217434
0.159241 0.843543 0.880584
0.158513 0.839035 0.880588
0.160006 0.848558 0.881469
0.158411 0.815331 0.872731
0.146005 0.599921 0.796046
0.314955 0.273724 0.543377
0.623934 0.165811 0.269009
0.671662 0.175305 0.220073
0.160376 0.854413 0.882272
0.159851 0.847883 0.881597
0.159112 0.839080 0.880496
0.160373 0.840240 0.880344
0.156218 0.760599 0.857865
0.249614 0.430979 0.666819
0.567126 0.191088 0.330858
0.671857 0.175864 0.225513
0.160254 0.853523 0.883157
0.160714 0.854280 0.883015
0.160445 0.849293 0.882190
0.160209 0.840085 0.881154
0.160420 0.828041 0.878142
0.206167 0.631607 0.783045
0.517041 0.260742 0.427630
0.680451 0.192341 0.258513
0.159334 0.847134 0.881548
0.159791 0.849971 0.881473
0.160278 0.852207 0.882061
0.160652 0.847943 0.881613
0.169194 0.839767 0.881633
0.199452 0.767657 0.848061
0.473771 0.482179 0.615101
0.714997 0.300534 0.372488
0.157565 0.843326 0.881185
0.158836 0.844044 0.881232
0.159843 0.844223 0.880903
0.161471 0.845666 0.881665
0.173983 0.843556 0.882738
0.337330 0.837985 0.883451
0.542185 0.719290 0.799765
0.783577 0.554502 0.617670
0.159971 0.859053 0.883004
0.160244 0.857237 0.883090
0.160630 0.853728 0.882375
0.161453 0.849063 0.881820
0.175662 0.846451 0.883244
0.370423 0.846710 0.887246
0.715940 0.849744 0.892607
0.848950 0.771398 0.817956
0.159718 0.864709 0.883257
0.160931 0.863702 0.882697
0.162791 0.863565 0.881741
0.165879 0.859926 0.878666
0.186443 0.856962 0.879126
0.379262 0.856992 0.887749
0.743431 0.871685 0.903588
0.874253 0.876575 0.900420
