src-tauri/resources/luts/莱卡电影胶片质感.cube
# LUT by SparkleStock. Enhanced with VOXCOLOR algorithms.
LUT_3D_SIZE 5
DOMAIN_MIN 0.000000 0.000000 0.000000
DOMAIN_MAX 0.903226 0.903226 0.903226
0.054701 0.058608 0.109402
0.236591 0.066485 0.120501
0.569057 0.091977 0.148868
0.653590 0.124109 0.180385
0.666296 0.165008 0.211761
0.180015 0.242987 0.195329
0.301437 0.216500 0.175871
0.537007 0.147454 0.107444
0.652595 0.160834 0.127760
0.686132 0.175989 0.200317
0.684407 0.618764 0.515066
0.690271 0.627714 0.558836
0.653953 0.564400 0.468071
0.679557 0.338628 0.239684
0.659018 0.140761 0.149165
0.812691 0.835472 0.849313
0.827303 0.850268 0.880811
0.803810 0.829999 0.822100
0.823557 0.829617 0.828835
0.784249 0.594280 0.614255
0.846051 0.868683 0.909370
0.850634 0.871193 0.911254
0.850750 0.870325 0.911162
0.851602 0.870038 0.911050
0.854557 0.870680 0.911948
0.077860 0.165536 0.288014
0.211953 0.075921 0.172827
0.544423 0.081484 0.174509
0.659211 0.123067 0.203570
0.675815 0.169357 0.216313
0.096545 0.283781 0.335135
0.153773 0.164046 0.190066
0.456532 0.167964 0.201125
0.650476 0.179848 0.203423
0.720549 0.180891 0.214114
0.389114 0.620984 0.467439
0.532761 0.507045 0.424188
0.528230 0.446469 0.335749
0.657203 0.323027 0.224117
0.754127 0.260206 0.210890
0.797502 0.821388 0.808826
0.795712 0.817959 0.836220
0.728472 0.779267 0.715358
0.760664 0.753538 0.657221
0.794351 0.489631 0.374724
0.848887 0.869412 0.913503
0.846852 0.868439 0.911178
0.849793 0.869619 0.912295
0.843738 0.867698 0.888263
0.857060 0.867129 0.807150
0.128993 0.526464 0.713254
0.137952 0.364432 0.625557
0.545488 0.101159 0.257141
0.653377 0.119640 0.210977
0.673086 0.168427 0.219063
0.134877 0.585056 0.738297
0.148160 0.460262 0.608760
0.444496 0.175911 0.340110
0.648038 0.170908 0.291534
0.725130 0.186094 0.264913
0.143763 0.702826 0.768635
0.173017 0.582717 0.633761
0.446542 0.455306 0.473198
0.667553 0.360313 0.383437
0.798906 0.321732 0.337017
0.203679 0.745548 0.596752
0.553146 0.761703 0.675260
0.733457 0.748165 0.744839
0.741570 0.693962 0.633175
0.821442 0.502267 0.391952
0.580068 0.768821 0.645391
0.833416 0.856882 0.883406
0.845083 0.867789 0.908463
0.824641 0.863687 0.841679
0.856466 0.856878 0.726098
0.155571 0.758982 0.862570
0.152338 0.737686 0.850928
0.292264 0.254612 0.548522
0.664172 0.160696 0.223755
0.669460 0.169931 0.214919
0.156430 0.802059 0.871617
0.155395 0.756594 0.855484
0.216936 0.501094 0.720514
0.639268 0.156408 0.274933
0.694638 0.176873 0.250869
0.154998 0.775186 0.865456
0.155989 0.769854 0.857399
0.214758 0.702356 0.806384
0.648292 0.345978 0.460854
0.773311 0.297385 0.391462
0.159540 0.848316 0.875724
0.158349 0.821430 0.858893
0.263020 0.782967 0.830595
0.730329 0.730544 0.757898
0.852209 0.618566 0.629430
0.157334 0.807624 0.749604
0.326019 0.778201 0.671804
0.671197 0.828117 0.814650
0.847093 0.861053 0.876522
0.874492 0.854612 0.811971
0.159352 0.840167 0.880878
0.160187 0.854645 0.882226
0.140591 0.569238 0.781667
0.506345 0.167353 0.370608
0.672079 0.174996 0.217434
0.159962 0.852364 0.881709
0.158676 0.837619 0.880319
0.158960 0.811929 0.873465
0.348765 0.307339 0.542755
0.671309 0.175351 0.223274
0.159832 0.851214 0.882599
0.160592 0.853466 0.882490
0.162087 0.840177 0.881292
0.250201 0.628599 0.764344
0.693681 0.227495 0.299310
0.158029 0.846666 0.881578
0.159435 0.844916 0.881038
0.164645 0.844915 0.882134
0.415045 0.832150 0.881638
0.802176 0.618618 0.679043
0.159718 0.864709 0.883257
0.162370 0.863912 0.882272
0.170088 0.858629 0.878381
0.481907 0.860527 0.892538
0.874253 0.876575 0.900420
