src-tauri/resources/luts/莱卡电影胶片质感.cube
# LUT by SparkleStock. Enhanced with VOXCOLOR algorithms.
LUT_3D_SIZE 32
0.054701 0.058608 0.109402
0.062200 0.059545 0.110741
0.071425 0.060436 0.112033
0.088700 0.061105 0.113104
0.110323 0.061822 0.114223
0.139919 0.062626 0.115428
0.182488 0.064209 0.117555
0.236591 0.066485 0.120501
0.296176 0.069707 0.124298
0.358045 0.073323 0.128449
0.414833 0.077175 0.132955
0.469944 0.081035 0.137477
0.509047 0.084517 0.141494
0.544685 0.088093 0.145386
0.569057 0.091977 0.148868
0.590783 0.095916 0.152405
0.608728 0.099933 0.156020
0.623443 0.104029 0.159794
0.635897 0.108181 0.163677
0.643539 0.113049 0.168994
0.649699 0.118138 0.174753
0.653590 0.124109 0.180385
0.657166 0.130167 0.185947
0.659443 0.136461 0.191035
0.661483 0.142755 0.195967
0.662956 0.149049 0.200520
0.664240 0.154902 0.204695
0.665312 0.160258 0.208445
0.666296 0.165008 0.211761
0.667234 0.169428 0.214841
0.667951 0.172854 0.217039
0.668620 0.176068 0.219048
0.061932 0.071062 0.115294
0.067669 0.070090 0.115238
0.075507 0.069265 0.115303
0.093149 0.069127 0.115934
0.114985 0.069036 0.116560
0.144507 0.069032 0.117177
0.186264 0.069613 0.118406
0.238897 0.070715 0.120177
0.296495 0.073332 0.123058
0.356161 0.076580 0.126402
0.411200 0.080324 0.130165
0.464622 0.084119 0.133956
0.502036 0.087675 0.137313
0.536468 0.091273 0.140353
0.561208 0.095009 0.142366
0.583634 0.098952 0.144888
0.602754 0.103190 0.148137
0.618730 0.107507 0.151629
0.632506 0.111879 0.155292
0.642424 0.116799 0.160839
0.651154 0.121887 0.166964
0.656096 0.127375 0.173586
0.660558 0.132944 0.180167
0.663201 0.138945 0.186210
0.665458 0.144945 0.192161
0.666784 0.150945 0.197889
0.667679 0.156470 0.203032
0.668089 0.161459 0.207516
0.668461 0.165842 0.211091
0.668811 0.169894 0.214171
0.668940 0.172954 0.216309
0.669022 0.175801 0.218244
0.069920 0.084887 0.121824
0.074387 0.082330 0.120606
0.081113 0.080038 0.119607
0.098384 0.078989 0.119628
0.119980 0.078009 0.119639
0.149507 0.077158 0.119631
0.190640 0.076698 0.119928
0.242089 0.076586 0.120499
0.297793 0.078321 0.122246
0.355269 0.080827 0.124484
0.408400 0.084259 0.127377
0.459957 0.087812 0.130337
0.495618 0.091337 0.132968
0.528722 0.094881 0.135160
0.553518 0.098483 0.135924
0.576440 0.102406 0.137534
0.596683 0.106787 0.140350
0.613891 0.111284 0.143543
0.628976 0.115863 0.146999
0.640979 0.120832 0.152728
0.652034 0.125921 0.159156
0.658242 0.130985 0.166714
0.663815 0.136116 0.174269
0.666890 0.141758 0.181267
0.669424 0.147400 0.188218
0.670655 0.153041 0.195056
0.671201 0.158173 0.201151
0.670976 0.162730 0.206408
0.670735 0.166715 0.210340
0.670484 0.170387 0.213550
0.670024 0.173077 0.215660
0.669518 0.175556 0.217535
0.081437 0.105109 0.131332
0.086932 0.102478 0.130041
0.093831 0.099880 0.128735
0.107283 0.097435 0.127361
0.126538 0.095189 0.126184
0.156431 0.093310 0.125367
0.197815 0.091628 0.124585
0.249412 0.090120 0.123834
0.303655 0.089683 0.123430
0.359001 0.089691 0.123170
0.409484 0.091857 0.124604
0.458363 0.094344 0.126259
0.491968 0.097355 0.127862
0.523171 0.100488 0.129215
0.546572 0.104017 0.129760
0.569035 0.107806 0.130937
0.590160 0.111966 0.133020
0.608466 0.116459 0.135823
0.624799 0.121185 0.139132
0.637994 0.126189 0.144826
0.650224 0.131277 0.151254
0.658713 0.136204 0.159504
0.666445 0.141127 0.167819
0.670255 0.146108 0.175772
0.673350 0.151089 0.183635
0.674728 0.156070 0.191281
0.675110 0.160506 0.198252
0.674372 0.164329 0.204464
0.673521 0.167769 0.209208
0.672610 0.171000 0.213153
0.671549 0.173310 0.215392
0.670456 0.175422 0.217267
0.095506 0.128591 0.142258
0.102418 0.125861 0.140945
0.110011 0.123031 0.139462
0.120785 0.119735 0.137185
0.137567 0.116594 0.135093
0.165366 0.113739 0.133339
0.205896 0.110817 0.131361
0.257743 0.107836 0.129184
0.310978 0.105222 0.126672
0.364790 0.102759 0.124019
0.412695 0.102794 0.123273
0.458870 0.103259 0.122826
0.489978 0.105289 0.123116
0.518919 0.107575 0.123352
0.540821 0.110694 0.123417
0.562445 0.114119 0.124074
0.583673 0.117981 0.125577
0.602772 0.122346 0.128072
0.620379 0.127064 0.131260
0.634753 0.132045 0.136945
0.648132 0.137108 0.143399
0.658461 0.141895 0.152171
0.668003 0.146629 0.161092
0.673066 0.151105 0.170051
0.677111 0.155488 0.178854
0.678714 0.159653 0.187283
0.679046 0.163299 0.195068
0.677948 0.166362 0.202131
0.676544 0.169164 0.207668
0.674971 0.171825 0.212372
0.673310 0.173690 0.214981
0.671629 0.175383 0.217141
0.114254 0.158053 0.155784
0.123296 0.155176 0.154544
0.132539 0.152251 0.153121
0.142726 0.149101 0.150845
0.156795 0.145745 0.148338
0.177984 0.142008 0.145409
0.215637 0.137816 0.142023
0.267925 0.133220 0.138230
0.320978 0.128419 0.133687
0.374350 0.123534 0.128832
0.419806 0.119848 0.124586
0.463229 0.116542 0.120575
0.491032 0.116737 0.119029
0.517049 0.117377 0.117637
0.537261 0.119468 0.116747
0.557348 0.122107 0.116722
0.577254 0.125528 0.117931
0.596586 0.129539 0.120261
0.615515 0.133963 0.123376
0.631042 0.138819 0.129100
0.645523 0.143808 0.135628
0.656884 0.148452 0.144611
0.667592 0.153031 0.153856
0.674858 0.157286 0.163917
0.680567 0.161191 0.173714
0.682537 0.164254 0.182876
0.683029 0.166936 0.191362
0.681858 0.169191 0.199086
0.680000 0.171186 0.205379
0.677766 0.173039 0.210891
0.675504 0.174338 0.214307
0.673236 0.175517 0.217275
0.142786 0.196518 0.173634
0.156329 0.193494 0.172468
0.169080 0.190488 0.171099
0.178134 0.187563 0.168783
0.189564 0.184288 0.166070
0.205349 0.180370 0.162627
0.236967 0.175526 0.158596
0.282658 0.169858 0.154043
0.333378 0.162702 0.147419
0.386193 0.154926 0.139933
0.429905 0.147467 0.132310
0.471322 0.140218 0.124792
0.495432 0.135660 0.119272
0.518099 0.132114 0.114369
0.536078 0.131855 0.111474
0.554258 0.132642 0.109925
0.572726 0.134923 0.110296
0.591465 0.137994 0.112033
0.610395 0.141618 0.114724
0.626883 0.145933 0.120464
0.642621 0.150460 0.127143
0.654914 0.154756 0.136452
0.666594 0.158990 0.146092
0.675286 0.162869 0.156982
0.682303 0.166344 0.167706
0.685301 0.168850 0.178031
0.686357 0.170839 0.187461
0.685230 0.172247 0.195885
0.683186 0.173471 0.202922
0.680641 0.174594 0.209203
0.677873 0.175340 0.213453
0.675056 0.176005 0.217267
0.180015 0.242987 0.195329
0.200167 0.239816 0.194236
0.218076 0.236741 0.192914
0.225515 0.234110 0.190525
0.234370 0.231180 0.187790
0.245822 0.227703 0.184421
0.268597 0.222755 0.180425
0.301437 0.216500 0.175871
0.347910 0.206838 0.167122
0.400064 0.195758 0.156625
0.442662 0.184475 0.145731
0.482736 0.173131 0.134758
0.502806 0.161230 0.123363
0.521745 0.151238 0.113276
0.537007 0.147454 0.107444
0.552954 0.145442 0.103622
0.569879 0.145960 0.102672
0.587292 0.147571 0.103432
0.605047 0.149947 0.105389
0.622326 0.153350 0.111125
0.639459 0.157070 0.118023
0.652595 0.160834 0.127760
0.665074 0.164554 0.137858
0.674500 0.167919 0.149336
0.682510 0.171010 0.160928
0.687124 0.173442 0.172795
0.689105 0.174977 0.183387
0.688124 0.175504 0.192545
0.686132 0.175989 0.200317
0.683587 0.176452 0.207333
0.680395 0.176658 0.212438
0.677065 0.176809 0.217133
0.236717 0.295222 0.220804
0.261197 0.293252 0.223465
0.282779 0.291126 0.225103
0.290831 0.288271 0.221967
0.298444 0.285260 0.218518
0.305253 0.281964 0.214496
0.320328 0.277037 0.209425
0.342753 0.270661 0.203420
0.378597 0.261998 0.197791
0.420034 0.252382 0.192317
0.460197 0.237563 0.178596
0.498866 0.221928 0.163673
0.516349 0.204342 0.147128
0.532462 0.188198 0.131400
0.544126 0.176742 0.118328
0.556894 0.168487 0.108636
0.571240 0.164807 0.103771
0.586656 0.163253 0.101634
0.602821 0.163188 0.101405
0.619089 0.163576 0.104734
0.635388 0.164103 0.109157
0.648893 0.165927 0.118578
0.661833 0.167919 0.128566
0.671838 0.170563 0.140476
0.680519 0.172970 0.152644
0.686023 0.174811 0.165431
0.688910 0.176057 0.177222
0.688854 0.176636 0.187892
0.687355 0.176947 0.196773
0.685070 0.177111 0.204678
0.681885 0.177054 0.210666
0.678506 0.176951 0.216243
0.301532 0.349860 0.247855
0.329391 0.349653 0.255804
0.354027 0.348900 0.261615
0.363621 0.345604 0.257451
0.370548 0.342334 0.253000
0.372582 0.339112 0.248023
0.380435 0.334258 0.241414
0.393459 0.327956 0.233353
0.416016 0.321750 0.233028
0.442544 0.315586 0.235927
0.479723 0.297350 0.219561
0.516962 0.277344 0.200483
0.532462 0.254764 0.179091
0.546126 0.232589 0.157531
0.553824 0.211733 0.135426
0.563020 0.195802 0.118364
0.574355 0.186907 0.108506
0.587494 0.181479 0.102671
0.601897 0.178476 0.099651
0.616402 0.174972 0.099571
0.630938 0.171313 0.100397
0.644617 0.170610 0.109191
0.657876 0.170368 0.118834
0.668395 0.172204 0.131111
0.677612 0.173804 0.143732
0.683703 0.174836 0.157180
0.687488 0.175863 0.170185
0.688681 0.176882 0.182691
0.687861 0.177253 0.192838
0.685942 0.177271 0.201698
0.682943 0.177067 0.208580
0.679712 0.176817 0.215038
0.378991 0.405443 0.283650
0.405627 0.407452 0.297405
0.429631 0.408733 0.308616
0.441351 0.406616 0.307960
0.448928 0.403860 0.304847
0.448911 0.399934 0.297231
0.451474 0.394548 0.287845
0.456329 0.387865 0.276885
0.469253 0.381423 0.273567
0.485539 0.375081 0.273433
0.512162 0.363064 0.268405
0.539316 0.349424 0.261508
0.552897 0.321915 0.235139
0.564741 0.294872 0.208411
0.570936 0.269346 0.180513
0.577874 0.247027 0.156013
0.585874 0.229290 0.136366
0.595841 0.216624 0.123029
0.607185 0.207509 0.114108
0.619375 0.198523 0.108947
0.631825 0.189577 0.104942
0.642669 0.181769 0.107305
0.653347 0.174773 0.111053
0.663538 0.173339 0.122207
0.672581 0.172278 0.134134
0.678871 0.172114 0.147919
0.683014 0.172257 0.161387
0.684742 0.172745 0.174497
0.684977 0.173546 0.185895
0.684399 0.174518 0.196358
0.681970 0.174629 0.204408
0.679145 0.174556 0.211942
0.458789 0.460995 0.321541
0.483352 0.465345 0.341326
0.505987 0.468806 0.358239
0.519625 0.468119 0.361751
0.527894 0.466037 0.360439
0.526322 0.461398 0.350283
0.523976 0.455391 0.337955
0.520944 0.448168 0.323695
0.524812 0.441076 0.316128
0.531555 0.434039 0.311350
0.546726 0.429018 0.318370
0.562741 0.422712 0.324713
0.574270 0.391531 0.295083
0.584279 0.360753 0.264608
0.589347 0.331282 0.231383
0.594295 0.302942 0.199570
0.599072 0.276215 0.169771
0.605832 0.255919 0.148351
0.613980 0.240126 0.132795
0.623719 0.225198 0.122042
0.633949 0.210536 0.112767
0.641535 0.194927 0.107843
0.649200 0.180455 0.104828
0.658691 0.174951 0.114094
0.667251 0.170581 0.124715
0.673575 0.168931 0.138586
0.677937 0.167959 0.152292
0.680093 0.167752 0.165813
0.681391 0.168956 0.178398
0.682220 0.170931 0.190472
0.680470 0.171485 0.199729
0.678168 0.171736 0.208382
0.549049 0.514026 0.374304
0.567737 0.521754 0.402608
0.585067 0.528347 0.427431
0.596061 0.529643 0.436010
0.602827 0.529129 0.438910
0.601842 0.525298 0.431398
0.596585 0.518543 0.416114
0.587531 0.509191 0.393923
0.583770 0.500591 0.379721
0.582215 0.492306 0.368848
0.587726 0.486166 0.369448
0.594224 0.479782 0.371148
0.601421 0.464904 0.365973
0.608030 0.446023 0.353074
0.612730 0.414129 0.315077
0.617160 0.382881 0.278097
0.621203 0.352556 0.242570
0.626106 0.325508 0.211879
0.631609 0.300755 0.184573
0.637919 0.275913 0.163643
0.644476 0.251043 0.144674
0.648460 0.226263 0.131162
0.652380 0.202391 0.119343
0.657024 0.185284 0.117667
0.661643 0.171168 0.119613
0.666205 0.164231 0.130253
0.669738 0.159873 0.142214
0.672114 0.158417 0.155662
0.673775 0.158800 0.168458
0.675045 0.160187 0.180900
0.674885 0.162271 0.191370
0.674418 0.164504 0.201418
0.630706 0.566805 0.433778
0.643433 0.576840 0.467318
0.655439 0.585704 0.497381
0.664083 0.589103 0.511217
0.669499 0.590291 0.518507
0.668998 0.587423 0.513794
0.661686 0.580351 0.496772
0.648320 0.569542 0.468810
0.638105 0.559438 0.447803
0.629201 0.549628 0.429694
0.626355 0.542322 0.423588
0.624617 0.535604 0.420043
0.627706 0.532951 0.431875
0.631019 0.523897 0.432372
0.635058 0.494038 0.396029
0.638995 0.463053 0.358375
0.642788 0.430460 0.318848
0.646530 0.398560 0.281265
0.650237 0.367146 0.245043
0.654082 0.334305 0.215791
0.657970 0.301024 0.188683
0.658670 0.267065 0.166268
0.659111 0.233675 0.145225
0.659098 0.204879 0.132279
0.659546 0.179981 0.124155
0.661101 0.164438 0.127607
0.662772 0.154270 0.134890
0.664574 0.150149 0.146485
0.666249 0.149077 0.158630
0.667856 0.149669 0.171076
0.668997 0.152748 0.182326
0.670038 0.156359 0.193320
0.684407 0.618764 0.515066
0.690891 0.627624 0.543171
0.697510 0.635961 0.569795
0.704759 0.641858 0.589506
0.709324 0.645179 0.601764
0.708970 0.643780 0.600356
0.702388 0.637788 0.585550
0.690271 0.627714 0.558836
0.677416 0.616115 0.530472
0.664253 0.603881 0.501421
0.657277 0.595253 0.487677
0.651470 0.587369 0.476936
0.651180 0.583688 0.481571
0.651529 0.577736 0.481869
0.653953 0.564400 0.468071
0.657484 0.543982 0.444345
0.662599 0.513445 0.406433
0.667447 0.482867 0.369688
0.672108 0.452260 0.333760
0.676627 0.417644 0.302219
0.681103 0.381793 0.272027
0.679557 0.338628 0.239684
0.677384 0.295342 0.208054
0.673332 0.254575 0.182770
0.668855 0.215525 0.160040
0.663360 0.180594 0.143443
0.659813 0.156741 0.136519
0.658457 0.145349 0.140476
0.659018 0.140761 0.149165
0.660625 0.139885 0.160436
0.662129 0.142220 0.171055
0.663610 0.145244 0.181535
0.729946 0.667636 0.592272
0.732486 0.675230 0.615397
0.735494 0.682720 0.638246
0.740682 0.689722 0.659811
0.743966 0.694449 0.674828
0.743758 0.695002 0.677844
0.738003 0.690525 0.666437
0.727315 0.681579 0.642211
0.713518 0.669690 0.610676
0.698424 0.656575 0.576096
0.687939 0.646513 0.554471
0.678450 0.637149 0.535609
0.675085 0.632440 0.533320
0.672730 0.627988 0.531187
0.673659 0.624373 0.529562
0.676420 0.612735 0.516936
0.681798 0.589636 0.488594
0.687459 0.563219 0.456691
0.693316 0.534479 0.422296
0.698682 0.500486 0.391092
0.703896 0.464878 0.360870
0.701934 0.418365 0.324501
0.698973 0.370689 0.287763
0.691879 0.319403 0.251139
0.683601 0.268124 0.215344
0.672477 0.216860 0.181541
0.663553 0.177480 0.158200
0.657103 0.151470 0.146627
0.654732 0.138757 0.146687
0.654585 0.133296 0.153094
0.655918 0.133941 0.161983
0.657568 0.135893 0.171405
0.763827 0.712096 0.663650
0.765706 0.718295 0.682441
0.767638 0.724480 0.701035
0.769815 0.730601 0.718708
0.771202 0.735690 0.733333
0.771142 0.738887 0.742370
0.766350 0.736549 0.736052
0.757351 0.729292 0.716086
0.745035 0.718833 0.687358
0.731337 0.707039 0.654981
0.718230 0.695383 0.625127
0.705614 0.684093 0.596826
0.699605 0.678356 0.588001
0.694917 0.673118 0.580247
0.694524 0.669503 0.575979
0.695993 0.664094 0.570416
0.700123 0.656124 0.563004
0.706177 0.637923 0.541663
0.713576 0.612561 0.510573
0.720035 0.582620 0.483460
0.726204 0.551271 0.457571
0.726441 0.509778 0.425603
0.725298 0.465579 0.391587
0.716589 0.405848 0.345049
0.706111 0.345087 0.298390
0.691389 0.281852 0.251441
0.676862 0.224316 0.208526
0.662555 0.173190 0.170148
0.654654 0.145768 0.154191
0.650248 0.131275 0.150463
0.650648 0.128874 0.156052
0.652078 0.129064 0.163638
0.787388 0.751278 0.725810
0.788952 0.756168 0.740442
0.790413 0.761090 0.754961
0.791394 0.766157 0.768958
0.792028 0.770826 0.781667
0.792028 0.774766 0.792018
0.788410 0.774106 0.789625
0.781576 0.769359 0.775905
0.771064 0.760845 0.751698
0.759021 0.750763 0.723122
0.745723 0.739426 0.691707
0.732566 0.728193 0.660851
0.724345 0.721299 0.645014
0.717727 0.715186 0.631359
0.716314 0.711613 0.624793
0.716776 0.708831 0.621035
0.719917 0.707176 0.621290
0.725504 0.696994 0.610336
0.732805 0.680842 0.591536
0.740069 0.657382 0.571785
0.747322 0.631675 0.551740
0.749237 0.596380 0.525565
0.749778 0.558066 0.496887
0.742521 0.501596 0.452315
0.732594 0.440569 0.403876
0.716261 0.368604 0.346158
0.698342 0.297575 0.287834
0.678639 0.227597 0.228829
0.664680 0.180884 0.191990
0.653854 0.146860 0.167241
0.650378 0.135186 0.162415
0.648478 0.128300 0.161857
0.803726 0.786766 0.781520
0.805216 0.790408 0.792112
0.806630 0.794093 0.802683
0.807684 0.797986 0.813154
0.808366 0.801687 0.822883
0.808366 0.805040 0.831251
0.806070 0.805737 0.831968
0.801733 0.804073 0.825886
0.793251 0.797867 0.807399
0.783043 0.789767 0.783743
0.771258 0.780089 0.755434
0.759371 0.770304 0.726842
0.749241 0.762161 0.703661
0.740972 0.755110 0.683906
0.738751 0.751611 0.675284
0.738406 0.748932 0.669651
0.740739 0.747425 0.668290
0.745259 0.745122 0.667601
0.751311 0.742262 0.667380
0.759180 0.726984 0.657279
0.767609 0.707886 0.644138
0.770836 0.679616 0.624728
0.772967 0.648870 0.603221
0.769309 0.603856 0.568930
0.761857 0.549016 0.525070
0.745303 0.470588 0.458246
0.725540 0.389329 0.387429
0.702165 0.304884 0.312120
0.681778 0.235673 0.250995
0.663021 0.174771 0.197606
0.653610 0.149463 0.177383
0.646201 0.131781 0.164268
0.808185 0.807917 0.811217
0.810332 0.810928 0.818782
0.812388 0.814016 0.826584
0.814021 0.817463 0.835495
0.815315 0.820768 0.843912
0.815989 0.823814 0.851420
0.815124 0.825048 0.853873
0.812891 0.824672 0.851834
0.807394 0.820839 0.840230
0.800539 0.815564 0.824639
0.791186 0.807892 0.801887
0.781538 0.799943 0.778300
0.772475 0.792686 0.756649
0.765030 0.786409 0.738082
0.762844 0.783321 0.729537
0.762302 0.781082 0.723748
0.764107 0.780058 0.721894
0.767974 0.779993 0.723408
0.773283 0.780597 0.727279
0.779900 0.773551 0.724879
0.786920 0.764151 0.720551
0.790834 0.744514 0.708493
0.793923 0.722628 0.694484
0.792291 0.688678 0.669464
0.787559 0.646352 0.635696
0.775390 0.583926 0.580938
0.758783 0.510989 0.514783
0.737183 0.426229 0.435806
0.714980 0.346673 0.362594
0.692448 0.269956 0.292526
0.676863 0.222515 0.250324
0.662767 0.181346 0.214093
0.808988 0.824656 0.832912
0.812016 0.827227 0.837759
0.814928 0.829913 0.843155
0.817295 0.833140 0.851112
0.819376 0.836225 0.858729
0.820931 0.839050 0.865723
0.821530 0.840570 0.869490
0.821280 0.840928 0.870388
0.819062 0.839488 0.866024
0.816025 0.837297 0.859466
0.809390 0.831738 0.843025
0.802278 0.825746 0.825288
0.795197 0.820031 0.807896
0.789338 0.815055 0.792758
0.787446 0.812480 0.784948
0.786895 0.810786 0.779530
0.788260 0.810349 0.777530
0.791599 0.810785 0.778767
0.796321 0.811830 0.782271
0.801115 0.813031 0.786973
0.805932 0.814279 0.792045
0.810338 0.803769 0.787521
0.814192 0.791141 0.781111
0.814102 0.768133 0.765050
0.812165 0.740271 0.743071
0.805797 0.700757 0.706892
0.793886 0.641851 0.650677
0.775738 0.561130 0.571922
0.753138 0.474969 0.490376
0.728108 0.385841 0.407309
0.706277 0.313651 0.341101
0.685131 0.245090 0.278506
0.812691 0.835472 0.849313
0.815425 0.837533 0.852617
0.818176 0.839724 0.856453
0.821001 0.842523 0.862764
0.823591 0.845302 0.869110
0.825751 0.848045 0.875521
0.826953 0.849659 0.879325
0.827303 0.850268 0.880811
0.826152 0.849468 0.878897
0.824377 0.848082 0.875566
0.820219 0.844549 0.865363
0.815683 0.840689 0.854089
0.810171 0.836170 0.840334
0.805547 0.832198 0.828346
0.803810 0.829999 0.822100
0.803141 0.828540 0.817541
0.803996 0.828138 0.815394
0.806780 0.828766 0.816314
0.810914 0.830113 0.819382
0.815418 0.831917 0.824087
0.820036 0.833861 0.829297
0.823557 0.829617 0.828835
0.826692 0.823867 0.827125
0.827452 0.809728 0.818709
0.826745 0.791450 0.805072
0.822515 0.763237 0.778902
0.814629 0.722265 0.739116
0.802629 0.666941 0.684012
0.784249 0.594280 0.614255
0.762391 0.512163 0.536506
0.738899 0.432199 0.462617
0.715058 0.352696 0.389555
0.816747 0.845429 0.864878
0.819123 0.847002 0.866792
0.821640 0.848711 0.869190
0.824810 0.851061 0.873847
0.827813 0.853515 0.878903
0.830509 0.856159 0.884692
0.832217 0.857833 0.888418
0.833046 0.858645 0.890310
0.832753 0.858341 0.890336
0.831993 0.857572 0.889584
0.830082 0.855888 0.885123
0.827905 0.853993 0.879868
0.823944 0.850667 0.869807
0.820545 0.847692 0.861014
0.818972 0.845861 0.856340
0.818195 0.844618 0.852681
0.818553 0.844216 0.850474
0.820757 0.844976 0.851089
0.824252 0.846548 0.853681
0.828529 0.848447 0.857925
0.833048 0.850448 0.862677
0.835717 0.851574 0.865571
0.838141 0.851816 0.867838
0.839606 0.845846 0.866279
0.839922 0.836371 0.860214
0.837481 0.818482 0.843336
0.833282 0.794658 0.819487
0.827104 0.764155 0.787797
0.813290 0.706997 0.731944
0.795311 0.635300 0.662913
0.771099 0.551088 0.584788
0.745551 0.464193 0.504715
0.822104 0.851723 0.876663
0.824186 0.853002 0.877769
0.826396 0.854379 0.879255
0.829199 0.856215 0.882517
0.832017 0.858232 0.886359
0.834859 0.860582 0.891267
0.836753 0.862157 0.894655
0.837802 0.863043 0.896694
0.837834 0.862968 0.897075
0.837440 0.862492 0.896764
0.836155 0.861362 0.894364
0.834696 0.860097 0.891510
0.832350 0.858093 0.885856
0.830256 0.856215 0.880725
0.828977 0.854751 0.877300
0.828221 0.853724 0.874618
0.828213 0.853322 0.872998
0.829660 0.853909 0.873423
0.832127 0.855188 0.875281
0.835938 0.856962 0.878902
0.840163 0.858889 0.883067
0.842883 0.860010 0.885649
0.845364 0.860711 0.887839
0.846755 0.858633 0.887822
0.847279 0.854389 0.885178
0.845719 0.844946 0.876232
0.842989 0.830534 0.861593
0.838941 0.810533 0.840551
0.830108 0.774474 0.805041
0.818664 0.729655 0.761639
0.798630 0.659681 0.697472
0.776754 0.584316 0.628855
0.827539 0.857348 0.887345
0.829263 0.858354 0.887751
0.831109 0.859428 0.888445
0.833524 0.860815 0.890484
0.836088 0.862415 0.893194
0.838926 0.864406 0.897134
0.840900 0.865817 0.900076
0.842105 0.866711 0.902133
0.842395 0.866831 0.902768
0.842305 0.866628 0.902811
0.841543 0.865933 0.901966
0.840676 0.865158 0.900928
0.839557 0.864151 0.898686
0.838450 0.863113 0.896418
0.837378 0.861973 0.894068
0.836611 0.861128 0.892198
0.836279 0.860704 0.891015
0.837026 0.861071 0.891201
0.838529 0.861992 0.892346
0.841757 0.863559 0.895235
0.845515 0.865326 0.898660
0.848216 0.866418 0.900903
0.850704 0.867423 0.902935
0.852087 0.868092 0.903941
0.852850 0.867713 0.903826
0.852129 0.864814 0.901018
0.850702 0.858159 0.894061
0.848481 0.847277 0.882436
0.843698 0.828487 0.863759
0.837516 0.805385 0.841235
0.822163 0.752100 0.793104
0.804845 0.692347 0.739486
0.833164 0.861365 0.895380
0.834374 0.862151 0.895345
0.835718 0.862992 0.895534
0.837692 0.864085 0.896765
0.839842 0.865313 0.898538
0.842313 0.866791 0.901302
0.844114 0.867882 0.903537
0.845319 0.868629 0.905299
0.845713 0.868861 0.905952
0.845769 0.868878 0.906142
0.845284 0.868339 0.905638
0.844711 0.867715 0.905006
0.843886 0.866929 0.903792
0.843003 0.866111 0.902466
0.841932 0.865191 0.900777
0.841074 0.864445 0.899326
0.840521 0.863949 0.898216
0.840702 0.863983 0.898043
0.841398 0.864389 0.898527
0.843761 0.865555 0.900418
0.846638 0.866955 0.902742
0.849150 0.867956 0.904575
0.851525 0.868896 0.906257
0.853054 0.869566 0.907043
0.854137 0.869769 0.907312
0.854150 0.868853 0.906340
0.853631 0.865978 0.903396
0.852512 0.860897 0.898234
0.849543 0.850190 0.887967
0.845564 0.836414 0.874917
0.836103 0.805701 0.847811
0.825468 0.771358 0.817693
0.838095 0.864563 0.901587
0.838756 0.865060 0.901285
0.839571 0.865616 0.901147
0.841105 0.866450 0.901778
0.842852 0.867378 0.902845
0.844990 0.868480 0.904711
0.846579 0.869335 0.906330
0.847681 0.869970 0.907730
0.848173 0.870275 0.908379
0.848410 0.870444 0.908716
0.848145 0.870052 0.908432
0.847798 0.869578 0.908053
0.847233 0.868977 0.907487
0.846588 0.868353 0.906804
0.845690 0.867653 0.905742
0.844886 0.867007 0.904704
0.844216 0.866437 0.903702
0.844017 0.866220 0.903307
0.844146 0.866250 0.903337
0.845756 0.867073 0.904464
0.847821 0.868140 0.905928
0.849951 0.869020 0.907332
0.852018 0.869861 0.908641
0.853591 0.870496 0.909276
0.854819 0.870983 0.909725
0.855221 0.871117 0.909725
0.855214 0.870471 0.909117
0.854747 0.868946 0.907825
0.853188 0.863941 0.903333
0.851032 0.857038 0.897095
0.845689 0.841461 0.883970
0.839663 0.824026 0.869369
0.842247 0.866840 0.905739
0.842320 0.866970 0.905363
0.842573 0.867185 0.905100
0.843666 0.867798 0.905363
0.845025 0.868506 0.905985
0.846869 0.869387 0.907264
0.848204 0.870099 0.908373
0.849085 0.870661 0.909332
0.849667 0.870997 0.909956
0.850125 0.871239 0.910440
0.850015 0.870985 0.910237
0.849820 0.870657 0.909941
0.849475 0.870204 0.909595
0.849085 0.869744 0.909219
0.848554 0.869265 0.908744
0.847966 0.868718 0.908112
0.847296 0.868074 0.907257
0.846924 0.867697 0.906793
0.846760 0.867507 0.906603
0.847738 0.868054 0.907229
0.849069 0.868827 0.908105
0.850603 0.869551 0.909060
